kbsooo/etri/hitl/h108_decoder_jury_assignment_solver_hsjepa/h108_top_jury_cells.csv
candidate_id,flat_index,row,subject_id,sleep_date,lifelog_date,target,target_index,h057_prob,q061,cell_q061_gain,public_score,invariant_score,private_safe_score,latent_shortcut_energy,bad_pressure_rank,h068_cell_health,outside_h069_cell,outside_h070_cell,is_h050_null,source_count,source_weight,source_family_count,source_consensus,source_mean_move,source_action_delta,source_posterior_delta,hit_h071,hit_h074,hit_h076,hit_h079,h080_bad_same_raw,h080_bad_opp_raw,h080_bad_same_rank,h080_bad_opp_rank,h080_bad_margin_rank,h079_cell,h079_row,h079_role,h080_cell_score,h085_q,h085_q_move,h085_q_gain,h085_abs_q_move,h082_cell,h084_dark_cell,source_agrees_h085,h085_cell_score,q_hard,best_world_y,confidence,hard_gain,combined_score,hard_logit_delta,binary_shock,h086_resp_weight,h086_resp_lift,h086_resp_rank,h086_equation_alignment,h086_resp_action_score,hard_logit_move,hard_diag_gain,h088_prob,h088_logit_move,h088_active,h088_q_delta,h088_q_bad,h088_bad_rank,h088_move_abs_rank,h088_toxicity,h057_positive_weight,h057_positive_logit_move,h095_safe_cell_score,sleep_dow,lifelog_dow,date_gap_days,row_norm,row_sin1,row_cos1,row_sin3,row_cos3,subject_idx,within_subject_norm,subject_block_size,target_Q1,target_Q2,target_Q3,target_S1,target_S2,target_S3,target_S4,sleep_dow_0,lifelog_dow_0,sleep_dow_1,lifelog_dow_1,sleep_dow_2,lifelog_dow_2,sleep_dow_3,lifelog_dow_3,sleep_dow_4,lifelog_dow_4,sleep_dow_5,lifelog_dow_5,sleep_dow_6,lifelog_dow_6,is_q,is_s,is_subjective_quality,is_objective_stage,h057_h088_anti_conflict,h057_h088_same_conflict,conflict_strength,h098_frontier_cell_score,h108_vote_sum,h108_vote_abs,h108_vote_weight,h108_vote_count,h108_raw_mean_move,h108_vote_consensus,h108_family_count,h108_family_consensus,h108_family_signed_count,h108_h103_move,h108_has_h103,h108_h104_move,h108_has_h104,h108_h105_move,h108_has_h105,h108_h106_move,h108_has_h106,h108_h107_move,h108_has_h107,h108_anti_h088,h108_align_h057,h108_decoder_jury_score
h108_strict_intersection_c48_a085_610a26a0,1014,144,id06,2024-08-14,2024-08-13,S4,6,0.9998058840987556,0.999999,0.0001878660951298,0.4405142857142857,0.670817142857143,0.5434293142857143,0.1422142857142857,0.1785714285714285,0.4980106285714286,1.0,0.0,0,6.0,4.40455491164904,2.0,1.0,5.268648544483414,-3.5150398796986695e-08,-0.0001878660951298,1.0,1.0,0.0,0.0,0.0,6.034330388536917,0.1785714285714285,0.9782857142857144,0.9782857142857144,0.0,0.0,,0.7044885714285714,0.999999,5.268648544483414,0.000117729057531,5.268648544483414,1.0,0.0,1.0,0.6072445142857142,0.999999,1,0.999999,1.7467234430170068e-08,0.5226628571428571,3.3711485444838587,2.7591020357320417e-08,0.0006997032448845,1.2244806785479692,0.9822857142857144,0.9594344415016696,0.7915548571428572,2.5,0.0001756977740381,0.9999723777413126,1.9499999999954376,1.0,-0.0001645621039854,0.0,0.4542857142857143,0.9897142857142858,0.645257142857143,0.69908,-1.897499999999555,0.4643764571428572,2.0,1.0,1.0,0.5783132530120482,-0.47243956847967067,-0.881363066014649,-0.9955262728085589,-0.09448513188803238,5.0,0.6956521739130435,24.0,0.0,0.0,0.0,0.0,0.0,0.0,1.0,0.0,0.0,0.0,1.0,1.0,0.0,0.0,0.0,0.0,0.0,0.0,0.0,0.0,0.0,0.0,1.0,0.0,1.0,1.0,0.0,0.45108636342857156,0.3302119314285714,-1.1961114803990265,1.2407336113250536,6.061569696,5.0,-0.19732701930131022,0.9640356878223549,3,0.9640356878223547,0.3333333333333333,0.02231106546301356,True,-0.6387410457030545,True,-0.5796815001589857,True,0.0,False,0.0,False,1.0,1.0,0.9356630112243969
h108_strict_intersection_c48_a085_610a26a0,1150,164,id07,2024-07-26,2024-07-25,Q3,2,0.4259565486750093,0.4269931880734391,2.196973457047058e-06,0.2573485714285714,0.5277371428571428,0.3815033714285714,0.4755571428571428,0.1785714285714285,0.3029848571428571,1.0,1.0,0,4.0,7.150759261260218,1.0,1.0,0.0018921461975348,-3.1386519561959727e-09,-1.501803454773649e-06,0.0,0.0,0.0,1.0,0.0,0.1449356177140495,0.1785714285714285,0.6674285714285715,0.6782857142857143,1.0,1.0,seed_q061_companion,0.4895571428571429,0.4270190049503677,0.0043437215818961,2.100024117157595e-06,0.0043437215818961,1.0,0.0,1.0,0.2906211428571428,0.4461046069309509,0,0.5538953930690491,3.0615352131698396e-07,0.5612685714285714,0.0658539470598237,0.0014462362567198,0.0005931515106564,1.0380151436487377,0.8931428571428571,0.3058667154411794,0.6421355428571428,0.0819453714389487,0.0008269628319164,0.4365566105950964,0.043218942955514,1.0,0.0001829166359995,0.0001829166359995,0.9805714285714284,0.6462857142857142,0.8331428571428572,0.8843714285714287,-0.0160914243791249,0.1454114285714285,4.0,3.0,1.0,0.6586345381526104,-0.839699808785118,-0.5430508550092121,-0.15082429716137438,0.9885605855918884,6.0,0.41379310344827586,30.0,0.0,0.0,1.0,0.0,0.0,0.0,0.0,0.0,0.0,0.0,0.0,0.0,0.0,0.0,1.0,1.0,0.0,0.0,0.0,0.0,0.0,1.0,0.0,1.0,0.0,1.0,0.0,0.7368077387755103,0.5973442857142858,-1.8360305094315577,1.8360305094315577,18.5277806,14.0,-0.09909608436487308,0.9999999999994553,5,0.9999999999994553,1.0,-0.2684074001865446,True,-0.08924628940014354,True,-1.2774505545213555,True,-0.18910674880403996,True,-0.011819516519474096,True,1.0,1.0,0.9347071999999346
h108_strict_intersection_c48_a085_610a26a0,1025,146,id06,2024-08-20,2024-08-19,S1,3,0.8954549884000682,0.8959698352864354,1.417783483670387e-06,0.3377485714285714,0.7720971428571428,0.5372021142857144,0.4566714285714286,0.1785714285714285,0.3825,1.0,1.0,0,2.0,1.93657810305736,1.0,1.0,0.0055115996762786,-7.210063458333783e-09,-1.417783483614876e-06,1.0,0.0,0.0,0.0,0.0,0.1814867640869667,0.1785714285714285,0.7262857142857143,0.7297142857142858,0.0,0.0,,0.5688714285714286,0.8960266401379597,0.0061211893265373,1.5910230796167824e-06,0.0061211893265373,0.0,0.0,1.0,0.2748399428571428,0.9013371564884484,1,0.9013371564884484,9.526538141963833e-08,0.5840571428571429,0.0605883148573789,0.0025008685591644,0.0005691878083733,0.996078664653354,0.5982857142857143,0.5025209256459693,0.4072595428571429,0.0644567290925564,0.0001879499485854,0.8960564726868825,0.006441449137962,1.0,-1.7434042313135834e-06,0.0,0.4542857142857143,0.4811428571428571,0.4641428571428571,0.6506171428571429,-0.0038684142351774,0.1833594285714285,1.0,0.0,1.0,0.5863453815261044,-0.51629923627004,-0.8564082546466804,-0.9983886888289513,0.05674527309307293,5.0,0.782608695652174,24.0,0.0,0.0,0.0,1.0,0.0,0.0,0.0,0.0,1.0,1.0,0.0,0.0,0.0,0.0,0.0,0.0,0.0,0.0,0.0,0.0,0.0,0.0,1.0,0.0,1.0,1.0,0.0,0.3019792995918367,0.4251408571428571,-0.927981211332041,0.927981211332041,17.5459742,14.0,-0.0528885544201922,0.9999999999989224,4,0.9999999999989224,1.0,-0.0761780231632794,True,-0.016361944257899923,True,-0.8245199421048619,True,0.0,False,-0.0109213018059998,True,1.0,1.0,0.9217564628570134
h108_strict_intersection_c48_a085_610a26a0,1588,226,id09,2024-09-21,2024-09-20,S4,6,0.7104535414465696,0.7110198835302667,7.799049277501524e-07,0.2826114285714286,0.5007771428571429,0.3803166285714286,0.4467285714285715,0.1785714285714285,0.3474061714285714,1.0,1.0,0,2.0,1.93657810305736,1.0,1.0,0.0027547162616905,-1.664293927511782e-09,-7.799049277501525e-07,1.0,0.0,0.0,0.0,0.0,0.2177525377063177,0.1785714285714285,0.7822857142857143,0.7834285714285715,0.0,0.0,,0.50158,0.7110755884780996,0.0030258408548433,8.562511311094312e-07,0.0030258408548433,1.0,0.0,1.0,0.2848805142857142,0.7253842671965738,1,0.7253842671965738,2.206396430290567e-07,0.6813028571428571,0.0614132157370143,0.0049648432062501,0.0005549856304347,0.971224853260826,0.1394285714285714,0.8634167914483498,0.2099168,0.0737409588063007,0.0005475538557093,0.7158923589273024,0.0265888406197017,1.0,5.590302905544853e-05,5.590302905544853e-05,0.9537142857142856,0.5765714285714286,0.7840857142857143,0.8783542857142858,-0.0123277430692864,0.1520126857142857,5.0,4.0,1.0,0.9076305220883534,-0.5483371924577639,0.8362573308303713,-0.9855293386108988,-0.16950493425609892,8.0,0.9615384615384616,27.0,0.0,0.0,0.0,0.0,0.0,0.0,1.0,0.0,0.0,0.0,0.0,0.0,0.0,0.0,0.0,0.0,1.0,1.0,0.0,0.0,0.0,0.0,1.0,0.0,1.0,1.0,0.0,0.6887050475102041,0.7385512114285714,-0.09000007255022241,0.09000007255022241,3.6020000000000003,3.0,-0.024986138964518994,0.9999999999888889,3,0.9999999999888889,1.0,0.0,False,-0.03894632393309445,True,0.0,False,-0.04378223248445217,True,-0.0072715161326757935,True,1.0,1.0,0.9207798255986666
h108_strict_intersection_c48_a085_610a26a0,1010,144,id06,2024-08-14,2024-08-13,Q3,2,0.7530964107373385,0.7533060688078742,1.1822187706567187e-07,0.1906514285714285,0.670817142857143,0.3328430285714286,0.4842571428571429,0.4268571428571429,0.2659077142857142,1.0,1.0,0,3.0,1.4815760139224,1.0,1.0,0.0011278662604456,-5.3211147464858437e-11,-1.1822187706567182e-07,0.0,1.0,0.0,0.0,0.00365308581125,0.156435418150198,0.4182857142857142,0.6862857142857143,0.688,0.0,0.0,,0.4532971428571428,0.7533312901862517,0.0012635893748875,1.350275770084508e-07,0.0012635893748875,1.0,0.0,1.0,0.2487823428571428,0.7611739450510254,1,0.7611739450510254,4.467222197900529e-08,0.3201142857142857,0.029716187931472,0.0017199612737889,0.000627826127369,1.0986957228958183,0.9451428571428572,0.3740817901993886,0.643182742857143,0.0439311011078744,0.0001767593750644,0.7637201240802629,0.0579890534623943,1.0,0.0002959477991754,0.0002959477991754,0.992,0.7085714285714285,0.8645428571428572,0.919554285714286,-0.0458518275004828,0.1008794285714285,2.0,1.0,1.0,0.5783132530120482,-0.47243956847967067,-0.881363066014649,-0.9955262728085589,-0.09448513188803238,5.0,0.6956521739130435,24.0,0.0,0.0,1.0,0.0,0.0,0.0,0.0,0.0,0.0,0.0,1.0,1.0,0.0,0.0,0.0,0.0,0.0,0.0,0.0,0.0,0.0,1.0,0.0,1.0,0.0,1.0,0.0,0.794994089469388,0.7304870285714288,-3.469657634171484,3.469657634171484,21.2656646,17.0,-0.16315773334313383,0.9999999999997118,5,0.9999999999997118,1.0,-0.9491157411556422,True,-0.338369800535155,True,-1.564094300159999,True,-0.5852529726301914,True,-0.032824819690496,True,1.0,1.0,0.919023452571394
h108_strict_intersection_c48_a085_610a26a0,1001,143,id06,2024-08-13,2024-08-12,Q1,0,0.2092269005697418,0.2089219578518885,2.8112041883243677e-07,0.2036971428571428,0.7239771428571429,0.4493369714285714,0.4697285714285715,0.1785714285714285,0.2708112,1.0,1.0,0,11.0,8.46508252903368,2.0,1.0,-0.001844088639247,-2.5733492812731393e-10,-2.811204188324367e-07,1.0,1.0,0.0,0.0,0.0,0.2475444819520837,0.1785714285714285,0.8182857142857143,0.8182857142857143,0.0,0.0,,0.5362942857142857,0.2088731251040907,-0.0021395802130861,3.443420287796428e-07,0.0021395802130861,0.0,0.0,1.0,0.2474148,0.1954998359663392,0,0.8045001640336608,2.029760534566282e-07,0.5569485714285715,-0.0679898442374993,0.0026140759999864,0.0005749680522457,1.006194091430059,0.748,0.6201089184571771,0.5372242285714286,-0.0850698678716392,0.0005789513017284,0.2002522879358252,-0.0551265446534379,1.0,0.0002292094574748,0.0002292094574748,0.9862857142857144,0.6948571428571428,0.8541142857142858,0.8878,0.0170800236341399,0.0637723428571428,1.0,0.0,1.0,0.5742971887550201,-0.4500514963711879,-0.8930026039234458,-0.9855293386108991,-0.16950493425609692,5.0,0.6521739130434783,24.0,1.0,0.0,0.0,0.0,0.0,0.0,0.0,0.0,1.0,1.0,0.0,0.0,0.0,0.0,0.0,0.0,0.0,0.0,0.0,0.0,0.0,1.0,0.0,1.0,0.0,1.0,0.0,0.758282662857143,0.46207152000000007,0.4872458915175048,0.4872458915175048,9.869518904000003,8.0,0.04936875811849149,0.9999999999979476,3,0.9999999999979476,1.0,0.300611537095935,True,0.0,False,0.0,False,0.17155834698974773,True,0.01507600743182204,True,1.0,1.0,0.9130400493711821
h108_strict_intersection_c48_a085_610a26a0,6,0,id01,2024-07-31,2024-07-30,S4,6,0.5084298008946088,0.5091151839410136,9.39781743536372e-07,0.1482914285714285,0.5036571428571429,0.3172508,0.4932142857142857,0.1785714285714285,0.2109301714285714,1.0,1.0,0,0.0,0.0,0.0,0.0,0.0,0.0,0.0,0.0,0.0,0.0,0.0,0.0,0.1856015952715258,0.1785714285714285,0.7337142857142858,0.736,0.0,0.0,,-0.5764400000000001,0.5091590368126224,0.0029178468760701,9.681413111195525e-07,0.0029178468760701,0.0,0.0,0.0,0.0957847428571428,0.5223625210687107,1,0.5223625210687107,1.4679869777242745e-07,0.45888,0.045010420029887,0.0019122187266242,0.000551777393772,0.9656104391011492,0.108,0.502682123038882,0.0688006857142857,0.0557874001969457,0.000388523838803,0.5114968799282992,0.0122732280433281,1.0,9.8721686667691e-06,9.8721686667691e-06,0.9217142857142856,0.5114285714285715,0.7346857142857143,0.8756571428571429,-0.0107769801670586,-0.0351718857142857,2.0,1.0,1.0,0.0,0.0,1.0,0.0,1.0,0.0,0.0,27.0,0.0,0.0,0.0,0.0,0.0,0.0,1.0,0.0,0.0,0.0,1.0,1.0,0.0,0.0,0.0,0.0,0.0,0.0,0.0,0.0,0.0,0.0,1.0,0.0,1.0,1.0,0.0,0.6433327934693878,0.57472224,-0.3194558371703204,0.3194558371703204,12.856102616000001,10.0,-0.024848575552960998,0.9999999999968697,4,0.9999999999968697,1.0,-0.1567431108191673,True,-0.03767769676052983,True,0.0,False,-0.11100873292791583,True,-0.014026296662707407,True,1.0,1.0,0.9111388667424816
h108_strict_intersection_c48_a085_610a26a0,1057,151,id06,2024-08-25,2024-08-24,Q1,0,0.2931200235617892,0.2940047415236316,1.8877009515527732e-06,0.3332628571428572,0.7080171428571429,0.4039888571428572,0.5654857142857144,0.4817142857142857,0.3501362285714285,1.0,1.0,0,1.0,0.98640079466928,1.0,1.0,0.0042660984396376,-1.0020730809332893e-08,-1.8877009515527732e-06,1.0,0.0,0.0,0.0,0.0069087191295727,0.1085813693048932,0.46,0.5908571428571429,0.5965714285714285,0.0,0.0,,0.4900228571428571,0.2940407945891951,0.0044397867305515,1.860541860465581e-06,0.0044397867305515,1.0,0.0,1.0,0.2779978285714286,0.3160480568474452,1,0.6839519431525547,3.543989487264716e-07,0.5622057142857144,0.0767078893727275,0.0004647756016188,0.000563572964942,0.9862526886486588,0.3011428571428571,0.2390823668590611,0.2716846857142857,0.1082853490810346,0.001250143867855,0.2941165191992924,0.0048045551477717,1.0,-2.0308272858926557e-06,0.0,0.4542857142857143,0.4708571428571428,0.4616571428571429,0.8998400000000001,-0.0315774597083073,0.2318356571428572,6.0,5.0,1.0,0.606425702811245,-0.6199605408122385,-0.7846329892604547,-0.9067516281939827,0.42166513345018397,5.0,1.0,24.0,1.0,0.0,0.0,0.0,0.0,0.0,0.0,0.0,0.0,0.0,0.0,0.0,0.0,0.0,0.0,0.0,0.0,0.0,1.0,1.0,0.0,1.0,0.0,1.0,0.0,1.0,0.0,0.4154175634285715,0.5168146514285716,-2.597909395933383,2.597909395933383,20.4822806,16.0,-0.1268369204908391,0.9999999999996151,5,0.9999999999996151,1.0,-0.6311134875343815,True,-0.14143058324350327,True,-1.5640943001600016,True,-0.25453071073504424,True,-0.006740314260453016,True,1.0,1.0,0.9106986546285253
h108_strict_intersection_c48_a085_610a26a0,1011,144,id06,2024-08-14,2024-08-13,S1,3,0.9371612173475234,0.938050068105242,6.737603625239785e-06,0.4181828571428572,0.670817142857143,0.3955945714285715,0.6061428571428571,0.5925714285714285,0.4131582857142857,1.0,1.0,0,6.0,4.40455491164904,2.0,1.0,0.0151939330276178,-6.324202084681502e-08,-6.737603625239785e-06,1.0,1.0,0.0,0.0,0.0138457385950436,0.1370545027048125,0.5348571428571428,0.6497142857142857,0.6337142857142857,0.0,0.0,,0.5285085714285714,0.9380567154476852,0.0153083269528511,6.2253993175220845e-06,0.0153083269528511,1.0,0.0,1.0,0.3138071428571428,0.9435072112803232,1,0.9435072112803232,4.9518479574132515e-08,0.518,0.0565603896332951,0.0020106260677631,0.0005674055906361,0.992959783613246,0.4982857142857143,0.487265744782802,0.3616179428571429,0.1132081278206009,0.0003532406767614,0.9454074004541292,0.1494347287231923,1.0,0.0004958561125027,0.0004958561125027,0.9994285714285714,0.9171428571428571,0.9388285714285716,0.9012857142857144,-0.0566477381873058,0.1303845714285714,2.0,1.0,1.0,0.5783132530120482,-0.47243956847967067,-0.881363066014649,-0.9955262728085589,-0.09448513188803238,5.0,0.6956521739130435,24.0,0.0,0.0,0.0,1.0,0.0,0.0,0.0,0.0,0.0,0.0,1.0,1.0,0.0,0.0,0.0,0.0,0.0,0.0,0.0,0.0,0.0,0.0,1.0,0.0,1.0,1.0,0.0,0.8461527795918369,0.7918176,-1.9496859302032232,1.9496859302032232,11.962676096000001,10.0,-0.16298075067459053,0.9999999999994871,5,0.9999999999994871,1.0,-0.20811022847999794,True,-0.41217438120819655,True,-0.5796815001599994,True,-0.7088524107438097,True,-0.040867409611219846,True,1.0,1.0,0.9091176468570813
h108_strict_intersection_c48_a085_610a26a0,1648,235,id10,2024-08-18,2024-08-17,S1,3,0.4417929445429617,0.4398709071831416,7.492245988616197e-06,0.30676,0.5461771428571429,0.4148501142857143,0.5146714285714286,0.1785714285714285,0.3663373714285714,1.0,1.0,0,2.0,1.93657810305736,1.0,1.0,-0.0077973493311028,-3.1725781293275054e-09,-7.492245988616198e-06,1.0,0.0,0.0,0.0,0.0,0.1636737056440429,0.1785714285714285,0.6988571428571428,0.7045714285714286,0.0,0.0,,0.5150028571428572,0.4398418298912831,-0.0079153660860226,7.025978487229523e-06,0.0079153660860226,0.0,0.0,1.0,0.2543275428571429,0.4179947324889194,1,0.5820052675110805,1.93917057404474e-07,0.4762514285714286,-0.052437884996985,0.0007453739810781,0.0005665154730841,0.9914020778972672,0.4388571428571428,0.3750616430908325,0.3326517714285714,-0.0971220280322209,0.0011530415904558,0.4365303704696214,-0.0213668461670888,1.0,1.4557500645162593e-05,1.4557500645162593e-05,0.9268571428571428,0.5577142857142857,0.7538,0.9074514285714288,0.0446841430352355,0.1104748571428571,6.0,5.0,1.0,0.9437751004016064,-0.3459690901728594,0.9382459105399628,-0.8722647273621952,0.4890339920698307,9.0,0.3333333333333333,22.0,0.0,0.0,0.0,1.0,0.0,0.0,0.0,0.0,0.0,0.0,0.0,0.0,0.0,0.0,0.0,0.0,0.0,0.0,1.0,1.0,0.0,0.0,1.0,0.0,1.0,1.0,0.0,0.684036886857143,0.23954177142857144,0.47540949837744856,0.47540949837744856,5.825972000000001,5.0,0.08160174789329006,0.9999999999978966,3,0.9999999999978966,1.0,0.16538307796604132,True,0.0,False,0.0,False,0.29793167440483415,True,0.012094746006573127,True,1.0,1.0,0.9083625565711761
h108_strict_intersection_c48_a085_610a26a0,431,61,id03,2024-08-19,2024-08-18,S2,4,0.3710434597203731,0.3692515525433949,6.88404145421373e-06,0.2283599999999999,0.3370171428571429,0.2767198285714285,0.4746142857142857,0.1785714285714285,0.301308,0.0,1.0,0,2.0,3.6,1.0,1.0,-0.0012297659195405,-3.960982746717251e-10,-2.0161537268581498e-06,0.0,0.0,0.0,1.0,0.0,0.0512708071493512,0.1785714285714285,0.4537142857142857,0.4925714285714285,1.0,1.0,episode_neighbor_q061,0.3814771428571429,0.3692343777748191,-0.0077597792771074,6.385477044568155e-06,0.0077597792771074,0.0,0.0,1.0,0.1794704571428571,0.3557729766594964,1,0.6442270233405036,2.3844188198995762e-08,0.3532228571428571,-0.018909915898664,0.0025802703377575,0.0005574504253998,0.9755382444497758,0.1708571428571428,0.1560624955544478,0.1777734857142857,-0.0660154001721844,0.0005025283157065,0.3698048101121429,-0.0053113073079726,1.0,-6.318411186589934e-06,0.0,0.4542857142857143,0.4742857142857143,0.4644857142857143,0.9088,0.0471054842735203,0.1034401142857143,0.0,6.0,1.0,0.24497991967871485,0.9995025893658627,0.03153686495097154,-0.995526272808559,-0.09448513188803126,2.0,0.1,21.0,0.0,0.0,0.0,0.0,1.0,0.0,0.0,1.0,0.0,0.0,0.0,0.0,0.0,0.0,0.0,0.0,0.0,0.0,0.0,0.0,1.0,0.0,1.0,0.0,1.0,1.0,0.0,0.42212461714285715,0.22523829714285717,0.3191490158249277,0.3191490158249277,5.819744,5.0,0.054839012819957865,0.9999999999968667,2,0.9999999999968667,1.0,0.0,False,0.0,False,0.0,False,0.31307905837726785,True,0.006069957447659834,True,1.0,1.0,0.9021329661710524
h108_strict_intersection_c48_a085_610a26a0,249,35,id02,2024-09-03,2024-09-02,S2,4,0.8823122084998396,0.881625272331127,2.2683932919820293e-06,0.3141771428571429,0.3170571428571428,0.3076631428571429,0.5137285714285714,0.1785714285714285,0.362382,1.0,1.0,0,0.0,0.0,0.0,0.0,0.0,0.0,0.0,0.0,0.0,0.0,0.0,0.0,0.2800586053484107,0.1785714285714285,0.8428571428571429,0.844,0.0,0.0,,-0.5605257142857143,0.8815578212908938,-0.0072449921663491,2.4887918590454916e-06,0.0072449921663491,0.0,0.0,0.0,0.1059947428571428,0.8728222570809246,1,0.8728222570809246,1.6048527488541938e-07,0.6375885714285714,-0.0718540747710767,0.0025778289398956,0.0005714536940665,1.000043964616444,0.6754285714285714,0.6785783715599005,0.3989555428571429,-0.0883644115187145,0.0004239501228325,0.8792503666371515,-0.0291602558011754,1.0,2.2478691047267407e-05,2.2478691047267407e-05,0.9377142857142856,0.5857142857142857,0.7718571428571429,0.8785085714285715,0.0165103367476378,-0.0347169142857142,1.0,0.0,1.0,0.14056224899598393,0.7727602671207603,0.6346980144599881,0.4724395684796713,-0.8813630660146488,1.0,0.25806451612903225,32.0,0.0,0.0,0.0,0.0,1.0,0.0,0.0,0.0,1.0,1.0,0.0,0.0,0.0,0.0,0.0,0.0,0.0,0.0,0.0,0.0,0.0,0.0,1.0,0.0,1.0,1.0,0.0,0.6780831159183675,0.25910259428571436,0.4964176918457233,0.4964176918457233,12.170674616000001,9.0,0.04078801771539223,0.9999999999979856,4,0.9999999999979856,1.0,0.23248426484375373,True,0.12625223545660164,True,0.0,False,0.1128872524786331,True,0.02479393906673489,True,1.0,1.0,0.9005196866283296
h108_strict_intersection_c48_a085_610a26a0,770,110,id05,2024-10-02,2024-10-01,Q1,0,0.4457613572912907,0.4446197321658457,2.638097124085803e-06,0.2371828571428571,0.2893571428571428,0.2574944571428571,0.4836714285714286,0.1785714285714285,0.2760210285714286,1.0,1.0,0,0.0,0.0,0.0,0.0,0.0,0.0,0.0,0.0,0.0,0.0,0.0,0.0,0.1055051425367162,0.1785714285714285,0.5851428571428572,0.6034285714285714,0.0,0.0,,-0.606377142857143,0.4446010323705447,-0.0046977710067961,2.479994732684787e-06,0.0046977710067961,0.0,0.0,0.0,0.0907273428571428,0.4292185546786456,1,0.5707814453213543,6.006279015544573e-08,0.2898971428571428,-0.0295269485120191,0.0011591776230444,0.0005626725428305,0.984676949953438,0.2708571428571428,0.4847610851958686,0.1221519428571428,-0.0672285164342494,0.0005552949648749,0.442110294817913,-0.0147902736155348,1.0,9.846046346573267e-06,9.846046346573267e-06,0.9205714285714286,0.5262857142857142,0.7383428571428572,0.90416,0.0377015679222298,-0.0382115428571428,2.0,1.0,1.0,0.44176706827309237,0.3577789366275641,-0.9338063142352645,0.8901457403773968,-0.45567593845624127,4.0,0.15,21.0,1.0,0.0,0.0,0.0,0.0,0.0,0.0,0.0,0.0,0.0,1.0,1.0,0.0,0.0,0.0,0.0,0.0,0.0,0.0,0.0,0.0,1.0,0.0,1.0,0.0,1.0,0.0,0.6675800777142857,0.28291313142857144,0.2787934581240289,0.2787934581240289,6.583918112,5.0,0.042344612035172674,0.9999999999964132,4,0.9999999999964132,1.0,0.03943900300759407,True,0.12918325887333132,True,0.0,False,0.09759554720544579,True,0.012575649037657734,True,1.0,1.0,0.8996116623995696
h108_strict_intersection_c48_a085_610a26a0,70,10,id01,2024-08-13,2024-08-12,Q1,0,0.0845240805884701,0.0842013651106576,6.737279700796961e-07,0.2023371428571428,0.602737142857143,0.3906834857142857,0.4868142857142857,0.1785714285714285,0.2460342857142857,1.0,1.0,0,2.0,1.94687670251848,1.0,1.0,-0.0041777863526295,-2.782961929837571e-09,-6.737279700796962e-07,1.0,0.0,0.0,0.0,0.0,0.1611402369820103,0.1785714285714285,0.6954285714285714,0.7005714285714286,0.0,0.0,,0.4868200000000001,0.0841553820138037,-0.0047742538749995,8.004620907220428e-07,0.0047742538749995,1.0,0.0,1.0,0.2852368,0.0754263273970388,1,0.9245736726029612,6.630912627711728e-09,0.4210057142857143,-0.0181895997749585,0.0044344727901558,0.0008266039117698,1.4465568455972857,0.9954285714285714,0.1536011274572291,0.6799027428571429,-0.123768763578473,0.0005532529424936,0.0841390992428633,-0.0049855360102926,1.0,-8.778279230181596e-07,0.0,0.4542857142857143,0.4725714285714286,0.4595142857142857,0.9854057142857144,0.2081028812496921,0.2454533714285714,1.0,0.0,1.0,0.040160642570281124,0.2496673968626068,0.968331653383204,0.6867513112135011,0.7268924518431438,0.0,0.38461538461538464,27.0,1.0,0.0,0.0,0.0,0.0,0.0,0.0,0.0,1.0,1.0,0.0,0.0,0.0,0.0,0.0,0.0,0.0,0.0,0.0,0.0,0.0,1.0,0.0,1.0,0.0,1.0,0.0,0.4528080029387756,0.3913596228571429,0.0042390257786828894,0.0042390257786828894,2.193344,2.0,0.0019326771261967827,0.9999999997640966,1,0.9999999997640966,1.0,0.0,False,0.0,False,0.0,False,0.0,False,0.0042390257786828894,True,1.0,1.0,0.897687053457406
h108_strict_intersection_c48_a085_610a26a0,1651,235,id10,2024-08-18,2024-08-17,S4,6,0.694453103168171,0.692519258745744,8.80199338038068e-06,0.3776571428571428,0.5461771428571429,0.3415236571428572,0.6363714285714286,0.4611428571428571,0.4020548571428571,1.0,1.0,0,2.0,1.93657810305736,1.0,1.0,-0.0090977656768795,-1.5153059639965843e-08,-8.80199338038068e-06,1.0,0.0,0.0,0.0,0.0110276853229074,0.0677063922836001,0.5062857142857143,0.4914285714285714,0.5017142857142857,0.0,0.0,,0.4595371428571428,0.6925099213035104,-0.0091416161705367,8.086645592486619e-06,0.0091416161705367,0.0,0.0,1.0,0.2121241714285714,0.6754200404553632,1,0.6754200404553632,1.202045296033204e-07,0.5109028571428571,-0.0441077522835295,0.0031533250328787,0.000571202273135,0.999603977986322,0.6685714285714286,0.3153677382338156,0.3956851428571428,-0.0882184933543172,0.0008441006167392,0.6903194737050469,-0.0194080685379496,1.0,2.349549555136221e-06,2.349549555136221e-06,0.9131428571428571,0.5491428571428572,0.7378571428571429,0.9048857142857144,0.0441107410707876,0.0760081142857142,6.0,5.0,1.0,0.9437751004016064,-0.3459690901728594,0.9382459105399628,-0.8722647273621952,0.4890339920698307,9.0,0.3333333333333333,22.0,0.0,0.0,0.0,0.0,0.0,0.0,1.0,0.0,0.0,0.0,0.0,0.0,0.0,0.0,0.0,0.0,0.0,0.0,1.0,1.0,0.0,0.0,1.0,0.0,1.0,1.0,0.0,0.6676763877551022,0.2888579542857143,0.9636806717681949,0.9636806717681949,13.973302616000002,11.0,0.06896584853638482,0.9999999999989624,4,0.9999999999989624,1.0,0.4151870783684114,True,0.2691968630453295,True,0.0,False,0.2571164754123617,True,0.022180254942092137,True,1.0,1.0,0.8796804381713041
h108_strict_intersection_c48_a085_610a26a0,1003,143,id06,2024-08-13,2024-08-12,Q3,2,0.7974211568605402,0.7976028404050293,1.0219184443105437e-07,0.1975142857142857,0.7239771428571429,0.3612903428571428,0.4418571428571428,0.428,0.2734751428571428,1.0,1.0,0,9.0,6.528504425976319,2.0,1.0,0.0011250688438861,-5.3973778056587786e-11,-1.0219184443105437e-07,1.0,1.0,0.0,0.0,0.0036869899416043,0.2033244741112442,0.4194285714285714,0.7645714285714286,0.7622857142857142,0.0,0.0,,0.4938285714285715,0.7976486346250319,0.0014087668147091,1.4579317042517914e-07,0.0014087668147091,0.0,0.0,1.0,0.2141395999999999,0.8042915887861274,0,0.8042915887861274,6.427869809191278e-08,0.4171542857142857,0.038301195431796,0.0034032669145295,0.000583616319535,1.02132855918633,0.8502857142857143,0.3996342215272672,0.5556594285714285,0.0430822151337688,0.0001473572723578,0.801907638378985,0.02800623506122,1.0,5.662968595832041e-05,5.662968595832041e-05,0.9542857142857144,0.5817142857142857,0.7860285714285715,0.8718800000000001,-0.0047810197019728,0.0492705142857143,1.0,0.0,1.0,0.5742971887550201,-0.4500514963711879,-0.8930026039234458,-0.9855293386108991,-0.16950493425609692,5.0,0.6521739130434783,24.0,0.0,0.0,1.0,0.0,0.0,0.0,0.0,0.0,1.0,1.0,0.0,0.0,0.0,0.0,0.0,0.0,0.0,0.0,0.0,0.0,0.0,1.0,0.0,1.0,0.0,1.0,0.0,0.685322590857143,0.32353276571428574,-0.22688597337282482,0.22688597337282482,17.365765016000005,14.0,-0.013065129763288266,0.9999999999955925,4,0.9999999999955925,1.0,-0.09694035240095089,True,-0.028661813920795674,True,0.0,False,-0.06199383747870535,True,-0.03928996957237289,True,1.0,1.0,0.878301979199471
h108_strict_intersection_c48_a085_610a26a0,692,98,id04,2024-10-19,2024-10-18,S4,6,0.5214942199375637,0.5220806282002836,6.890459806063731e-07,0.1991714285714285,0.4586171428571429,0.1756905714285715,0.6144571428571429,0.6337142857142857,0.2882345142857143,1.0,1.0,0,0.0,0.0,0.0,0.0,0.0,0.0,0.0,0.0,0.0,0.0,0.0,0.0166549901710211,0.0640435912665656,0.56,0.4845714285714286,0.4805714285714286,0.0,0.0,,-0.6675114285714286,0.5220939306128404,0.0024034092933237,6.55804488269851e-07,0.0024034092933237,0.0,0.0,0.0,0.0311753714285714,0.5317358803323887,0,0.5317358803323887,1.616032067237963e-08,0.2549485714285714,0.0153557474784382,0.005842441771129,0.0005639505118782,0.9869133957869688,0.3177142857142857,0.3199408510132027,0.0963508571428571,0.041084505048586,0.0002103100861962,0.525141978301795,0.0146229027435558,1.0,1.7903928382079215e-05,1.7903928382079215e-05,0.932,0.5251428571428571,0.7487428571428572,0.8981142857142858,-0.0257287575701478,-0.0963236571428572,5.0,4.0,1.0,0.39357429718875503,0.6199605408122387,-0.7846329892604544,0.9067516281939827,0.4216651334501838,3.0,0.6923076923076923,27.0,0.0,0.0,0.0,0.0,0.0,0.0,1.0,0.0,0.0,0.0,0.0,0.0,0.0,0.0,0.0,0.0,1.0,1.0,0.0,0.0,0.0,0.0,1.0,0.0,1.0,1.0,0.0,0.6724566563265306,0.5486207771428572,-0.6378175189290276,0.6378175189290276,13.973302616000002,11.0,-0.045645438051177316,0.9999999999984321,4,0.9999999999984321,1.0,-0.3529997113651796,True,-0.07744070572645995,True,0.0,False,-0.19066551045923155,True,-0.016711591378156566,True,1.0,1.0,0.872928648228383
h108_strict_intersection_c48_a085_610a26a0,949,135,id06,2024-07-14,2024-07-13,S2,4,0.9120002370412033,0.9128559625035724,4.575502052239777e-06,0.3906628571428571,0.4153771428571429,0.2220676,0.6870285714285714,0.6325714285714286,0.400656,0.0,1.0,0,0.0,0.0,0.0,0.0,0.0,0.0,0.0,0.0,0.0,0.0,0.0,0.0306072182800029,0.0387905347810696,0.6485714285714286,0.4114285714285714,0.3845714285714285,0.0,0.0,,-0.6916942857142857,0.9128484616979826,0.0106153362211465,4.091754492618893e-06,0.0106153362211465,0.0,0.0,0.0,0.0204137714285714,0.9250982584531292,1,0.9250982584531292,2.2462660630838865e-07,0.7114057142857144,0.1055641087159346,0.0028894661390598,0.0005657735831001,0.9901037704252228,0.4017142857142857,0.1604154161182626,0.1480686857142857,0.1754166861823174,0.0011206919463118,0.916900949362351,0.062660043836634,1.0,0.0001017187385513,0.0001017187385513,0.9645714285714284,0.7251428571428571,0.8401142857142857,0.9117314285714286,-0.0698525774663827,-0.1410235428571428,6.0,5.0,1.0,0.5421686746987951,-0.2618644849608063,-0.9651046531419334,-0.7137661126871386,-0.7003841348713511,5.0,0.30434782608695654,24.0,0.0,0.0,0.0,0.0,1.0,0.0,0.0,0.0,0.0,0.0,0.0,0.0,0.0,0.0,0.0,0.0,0.0,0.0,1.0,1.0,0.0,0.0,1.0,0.0,1.0,1.0,0.0,0.765958597877551,0.5573068457142858,-1.1996481604625246,1.1996481604625246,12.410861984000002,11.0,-0.09666114746977335,0.9999999999991663,4,0.9999999999991663,1.0,-0.3281779660470133,True,0.0,False,-0.06625208238483939,True,-0.6989797120588503,True,-0.10623839997182152,True,1.0,1.0,0.8681839538284712
h108_strict_intersection_c48_a085_610a26a0,72,10,id01,2024-08-13,2024-08-12,Q3,2,0.6540271650616462,0.6541952273622312,6.241744099355628e-08,0.1664742857142857,0.602737142857143,0.2302518285714286,0.5890000000000001,0.4491428571428571,0.230052,1.0,1.0,0,0.0,0.0,0.0,0.0,0.0,0.0,0.0,0.0,0.0,0.0,0.0,0.0100850770282789,0.0408244641423714,0.4988571428571428,0.4182857142857142,0.4394285714285714,0.0,0.0,,-0.6395342857142857,0.6541978720697573,0.0007545083536356,5.860198104556958e-08,0.0007545083536356,0.0,0.0,0.0,0.0462374857142857,0.660758935028728,1,0.660758935028728,2.6109075210230136e-08,0.2374057142857142,0.0203862121377524,0.001085971111288,0.0005706359268388,0.9986128719680278,0.6548571428571428,0.3147640732580876,0.2738849142857143,0.029889488025075,0.0001004468135936,0.6540928845184623,0.0002904528282908,1.0,-4.00379900344916e-08,0.0,0.4542857142857143,0.444,0.4495714285714286,0.8768742857142858,-0.0095032758873225,-0.0067589714285714,1.0,0.0,1.0,0.040160642570281124,0.2496673968626068,0.968331653383204,0.6867513112135011,0.7268924518431438,0.0,0.38461538461538464,27.0,0.0,0.0,1.0,0.0,0.0,0.0,0.0,0.0,1.0,1.0,0.0,0.0,0.0,0.0,0.0,0.0,0.0,0.0,0.0,0.0,0.0,1.0,0.0,1.0,0.0,1.0,0.0,0.39421762530612253,0.27865553142857147,-0.20379421344865176,0.20379421344865176,9.180358616000001,7.0,-0.022198938186733415,0.999999999995093,4,0.999999999995093,1.0,-0.09801318410640866,True,-0.040462731932617874,True,0.0,False,-0.06515388600526523,True,-0.00016441140435999527,True,1.0,1.0,0.8665854155422682
h108_strict_intersection_c48_a085_610a26a0,1514,216,id09,2024-09-07,2024-09-06,Q3,2,0.561573107889705,0.562248903897868,9.275702976818678e-07,0.25832,0.7008571428571428,0.2927635428571428,0.5907428571428572,0.5051428571428571,0.3136194285714285,1.0,1.0,0,0.0,0.0,0.0,0.0,0.0,0.0,0.0,0.0,0.0,0.0,0.0,0.0151677844480334,0.0369358356834338,0.5434285714285715,0.4005714285714286,0.4154285714285714,0.0,0.0,,-0.6041628571428572,0.5622498281808038,0.0027490300676703,8.464062550839202e-07,0.0027490300676703,0.0,0.0,0.0,0.0773387428571428,0.5584891832055837,1,0.5584891832055837,5.1471516030221246e-08,0.3424457142857143,-0.0273122302451104,0.0040329429551092,0.0005749452512714,1.0061541897251,0.7474285714285714,0.254107815425712,0.4086269714285714,-0.0125161606129137,1.9304281964616088e-05,0.5618337337533557,0.0010586255517181,1.0,-5.784377883344405e-07,0.0,0.4542857142857143,0.452,0.4528285714285714,0.8854000000000001,-0.0147960696321967,0.0221749714285713,5.0,4.0,1.0,0.8674698795180723,-0.7397584510798205,0.6728725243729192,-0.599966101448695,-0.8000254227913349,8.0,0.5769230769230769,27.0,0.0,0.0,1.0,0.0,0.0,0.0,0.0,0.0,0.0,0.0,0.0,0.0,0.0,0.0,0.0,0.0,1.0,1.0,0.0,0.0,0.0,1.0,0.0,1.0,0.0,1.0,0.0,0.40093441714285716,0.26142321142857144,-0.4239452853722157,0.4239452853722157,11.585530616000002,9.0,-0.03659265159480021,0.9999999999976412,4,0.9999999999976412,1.0,-0.20851167245960564,True,-0.11358748139582667,True,0.0,False,-0.10124689440598197,True,-0.0005992371108014164,True,1.0,1.0,0.8659456770282884
h108_strict_intersection_c48_a085_610a26a0,492,70,id03,2024-09-16,2024-09-15,Q3,2,0.7379400612256236,0.7355869958106938,1.4288337799372997e-05,0.3116914285714286,0.6828971428571429,0.2207168285714285,0.8332285714285714,0.8417142857142857,0.3441497142857141,0.0,1.0,0,3.0,5.4,1.0,1.0,-0.0020221380359516,-3.134488404904697e-09,-4.346254514286939e-06,0.0,0.0,0.0,1.0,0.0731579621258778,0.0472847466857211,0.7742857142857142,0.44,0.1788571428571428,1.0,1.0,episode_neighbor_q061,0.3316057142857143,0.7355915224463873,-0.012109554749387,1.2950746220652398e-05,0.012109554749387,0.0,0.0,1.0,0.1411393714285714,0.7328617364915871,1,0.7328617364915871,2.4116037798910797e-07,0.5565599999999999,0.065736169256795,0.0009675930385018,0.0005668389182423,0.9919681069240556,0.4594285714285714,0.2781616572872293,0.2739041142857143,-0.0260986599217263,6.640444775363186e-05,0.7351021332494506,-0.0146242487539178,1.0,-1.3618258931202831e-05,0.0,0.4542857142857143,0.5257142857142857,0.4838571428571429,0.9333028571428572,0.0918348291785213,0.0667148571428571,0.0,6.0,1.0,0.28112449799196787,0.9809388143902331,-0.19431686088109762,-0.8327815731637613,0.553601708269484,2.0,0.55,21.0,0.0,0.0,1.0,0.0,0.0,0.0,0.0,1.0,0.0,0.0,0.0,0.0,0.0,0.0,0.0,0.0,0.0,0.0,0.0,0.0,1.0,1.0,0.0,1.0,0.0,1.0,0.0,0.45158525387755105,0.5586044000000001,0.7700907963002461,0.7700907963002461,7.107716000000001,6.0,0.10834574655207632,0.9999999999987015,3,0.9999999999987015,1.0,0.3116651008788318,True,0.0,False,0.0,False,0.4417125657730827,True,0.01671312964833163,True,1.0,1.0,0.8646456331427016
h108_strict_intersection_c48_a085_610a26a0,1148,164,id07,2024-07-26,2024-07-25,Q1,0,0.5726236359257583,0.5785182382955152,7.107495999258973e-05,0.3531828571428571,0.5277371428571428,-0.0308976285714285,0.9647428571428572,0.9491428571428572,0.3696770285714286,1.0,1.0,0,4.0,7.150759261260218,1.0,1.0,0.0107728068932244,-1.2662505403575502e-08,-4.8598608335352806e-05,0.0,0.0,0.0,1.0,0.2847313265208278,0.0,0.9405714285714286,0.0777142857142857,0.1788571428571428,1.0,1.0,seed_q061_companion,0.2934971428571428,0.5784324143683724,0.023777970260246,6.281269137575762e-05,0.023777970260246,0.0,1.0,1.0,0.2427167428571428,0.6057356549616199,0,0.6057356549616199,2.395791371501162e-07,0.5222971428571428,-0.0601479714388651,0.0028665154478622,0.0005256559126248,0.919897847093514,0.0462857142857142,0.2934742653132805,0.0831499428571428,0.1368584367882453,0.0022566059611043,0.5926098562501864,0.082201326412172,1.0,0.0003458175576152,0.0003458175576152,0.9942857142857144,0.7868571428571428,0.8911714285714286,0.9825542857142858,-0.1970064082271105,0.0275415999999998,4.0,3.0,1.0,0.6586345381526104,-0.839699808785118,-0.5430508550092121,-0.15082429716137438,0.9885605855918884,6.0,0.41379310344827586,30.0,1.0,0.0,0.0,0.0,0.0,0.0,0.0,0.0,0.0,0.0,0.0,0.0,0.0,0.0,1.0,1.0,0.0,0.0,0.0,0.0,0.0,1.0,0.0,1.0,0.0,1.0,0.0,0.8756243064489797,0.6744735314285715,-4.617688754500697,4.617688754500697,19.5581966,15.0,-0.23609992520989698,0.9999999999997834,5,0.9999999999997834,1.0,-1.661996588232961,True,-0.3670565068800004,True,-1.564094300160001,True,-0.9092210526430383,True,-0.11532030658469737,True,1.0,1.0,0.8637503069714026
h108_strict_intersection_c48_a085_610a26a0,394,56,id02,2024-10-14,2024-10-13,Q3,2,0.7069956394747284,0.7081894374029917,3.4426032856638145e-06,0.31964,0.5154171428571428,0.2213924571428571,0.6876285714285715,0.548,0.3332165714285713,1.0,1.0,0,0.0,0.0,0.0,0.0,0.0,0.0,0.0,0.0,0.0,0.0,0.0,0.0367803263739192,0.03934489390002,0.672,0.4131428571428571,0.368,0.0,0.0,,-0.6593971428571429,0.7081753336653023,0.0057015383038324,3.0593224843444844e-06,0.0057015383038324,0.0,0.0,0.0,0.0495174285714285,0.713629090774197,1,0.713629090774197,5.580608700907642e-09,0.1772114285714286,-0.0098848687141418,0.0005605431876912,0.0005714496738913,1.0000369293098734,0.6748571428571428,0.3780880327563019,0.3411499428571428,0.0322384836720165,0.0001066845409199,0.7091946127024747,0.0106386996117656,1.0,-8.446723652744126e-07,0.0,0.4542857142857143,0.5057142857142857,0.4693714285714285,0.9061828571428572,-0.0421233523861583,-0.0053579428571428,0.0,6.0,1.0,0.2248995983935743,0.9875894586558354,0.15705750905917895,-0.8901457403773966,-0.4556759384562417,1.0,0.9354838709677419,32.0,0.0,0.0,1.0,0.0,0.0,0.0,0.0,1.0,0.0,0.0,0.0,0.0,0.0,0.0,0.0,0.0,0.0,0.0,0.0,0.0,1.0,1.0,0.0,1.0,0.0,1.0,0.0,0.42533634220408156,0.25314420571428575,-1.184457311632114,1.184457311632114,11.585530616000002,9.0,-0.10223591399398116,0.9999999999991557,4,0.9999999999991557,1.0,-0.580259171979391,True,-0.3164199657856995,True,0.0,False,-0.28175611667438427,True,-0.006022057192639352,True,1.0,1.0,0.8616664425141842
h108_strict_intersection_c48_a085_610a26a0,1374,196,id08,2024-09-11,2024-09-10,Q3,2,0.2963200064304016,0.2968325774382657,6.297919104003569e-07,0.19404,0.4665371428571429,0.2008126857142857,0.5463714285714286,0.4165714285714286,0.2618688571428571,1.0,1.0,0,0.0,0.0,0.0,0.0,0.0,0.0,0.0,0.0,0.0,0.0,0.0,0.0114015618015418,0.1420097414442494,0.5114285714285715,0.6605714285714286,0.6508571428571429,0.0,0.0,,-0.6395857142857143,0.2968444829584942,0.0025140138640782,6.000243865100785e-07,0.0025140138640782,0.0,0.0,0.0,0.0459093142857142,0.3111475092637512,0,0.6888524907362488,1.316196039936255e-07,0.3977714285714286,0.0473205511205339,0.0013331809729006,0.0005779741344234,1.0114547352410452,0.7954285714285714,0.4091039252404732,0.4152299428571429,0.0701236748422622,0.0005222648125069,0.2995468779973178,0.0154272084652978,1.0,1.677373705688545e-05,1.677373705688545e-05,0.9302857142857144,0.5285714285714286,0.7481428571428572,0.8949828571428572,-0.0228031237217283,-0.0831121142857143,2.0,1.0,1.0,0.7871485943775101,-0.9728829847220697,0.23129785567159294,0.7646910926171744,-0.6443970304648774,7.0,0.7777777777777778,19.0,0.0,0.0,1.0,0.0,0.0,0.0,0.0,0.0,0.0,0.0,1.0,1.0,0.0,0.0,0.0,0.0,0.0,0.0,0.0,0.0,0.0,1.0,0.0,1.0,0.0,1.0,0.0,0.6695750318367348,0.25553450285714285,-0.247973763276355,0.247973763276355,6.936944,6.0,-0.03574683077682611,0.9999999999959673,3,0.9999999999959673,1.0,0.0,False,-0.0750000023503209,True,0.0,False,-0.15534297937062036,True,-0.017630781555413713,True,1.0,1.0,0.8600629172566588
h108_strict_intersection_c48_a085_610a26a0,429,61,id03,2024-08-19,2024-08-18,Q3,2,0.769391940972039,0.7691873343964346,1.1794978560519809e-07,0.1801828571428571,0.3370171428571429,0.0740792571428571,0.6702571428571429,0.7508571428571429,0.2411588571428571,1.0,1.0,0,2.0,3.6,1.0,1.0,-0.000184451677063,-5.6483338269916636e-11,-3.4533000903280715e-08,0.0,0.0,0.0,1.0,0.0259545843659137,0.1152267987939449,0.6217142857142857,0.6057142857142858,0.572,1.0,1.0,episode_neighbor_q061,0.3079257142857142,0.769159963715853,-0.0013069844411823,1.3796569509061385e-07,0.0013069844411823,0.0,0.0,1.0,0.0993245714285714,0.7570030321951982,0,0.7570030321951982,9.349604647858497e-08,0.3282628571428571,-0.0431694753420197,0.0002337820502099,0.000570936680997,0.9991391917449192,0.6605714285714286,0.4307766506520007,0.3147865142857143,-0.0685626666458385,0.0004272632394869,0.7692349173091595,-0.0008847885427687,1.0,-1.357899670484386e-07,0.0,0.4542857142857143,0.4502857142857143,0.4517142857142857,0.8968457142857144,0.0253931913038187,0.0444745142857143,0.0,6.0,1.0,0.24497991967871485,0.9995025893658627,0.03153686495097154,-0.995526272808559,-0.09448513188803126,2.0,0.1,21.0,0.0,0.0,1.0,0.0,0.0,0.0,0.0,1.0,0.0,0.0,0.0,0.0,0.0,0.0,0.0,0.0,0.0,0.0,0.0,0.0,1.0,1.0,0.0,1.0,0.0,1.0,0.0,0.4051180212244898,0.5751226514285716,0.0033745823338721353,0.0033745823338721353,4.177916000000001,4.0,0.0008077190479347424,0.999999999703667,2,0.999999999703667,1.0,0.0023634134269780015,True,0.0,False,0.0,False,0.0,False,0.0010111689068941336,True,1.0,1.0,0.8586257745930114
h108_strict_intersection_c48_a085_610a26a0,709,101,id04,2024-10-24,2024-10-23,Q3,2,0.7836327157945403,0.7816403087409958,1.168048358135554e-05,0.2945942857142857,0.2851371428571428,-0.0389592857142857,0.8681142857142857,0.8714285714285714,0.3298454285714285,1.0,1.0,0,2.0,3.6,1.0,1.0,-0.0018739318165117,-2.0788438578953267e-09,-3.417201348221433e-06,0.0,0.0,0.0,1.0,0.112718299813475,0.0,0.832,0.0777142857142857,0.1788571428571428,1.0,1.0,episode_neighbor_q061,0.2406514285714286,0.7816747794316019,-0.0115100999444255,1.0263480041294848e-05,0.0115100999444255,0.0,0.0,1.0,0.1124250857142857,0.7718980136932254,1,0.7718980136932254,1.1513008166658741e-08,0.2556914285714285,0.0152658122683577,0.0015390106257885,0.0005705088303653,0.9983904531393746,0.6508571428571429,0.2558821948728312,0.3108536,-0.0679034849537958,0.0004009186480832,0.7766653504406011,-0.0406248364023611,1.0,6.144628333681901e-05,6.144628333681901e-05,0.9554285714285714,0.6377142857142857,0.8043142857142858,0.9279028571428573,0.0831692972221536,-0.0305217142857143,3.0,2.0,1.0,0.40562248995983935,0.5588441929376095,-0.8292726741066004,0.9784091409455726,0.2066774126849536,3.0,0.8076923076923077,27.0,0.0,0.0,1.0,0.0,0.0,0.0,0.0,0.0,0.0,0.0,0.0,0.0,1.0,1.0,0.0,0.0,0.0,0.0,0.0,0.0,0.0,1.0,0.0,1.0,0.0,1.0,0.0,0.7463255237551022,0.5417878857142857,1.4576696518587187,1.4576696518587187,12.685330616000002,10.0,0.11490986683626879,0.9999999999993139,4,0.9999999999993139,1.0,0.8567948193317039,True,0.20583902873235968,True,0.0,False,0.34860824576005767,True,0.04642755803459764,True,1.0,1.0,0.8574968582856317
h108_strict_intersection_c48_a085_610a26a0,23,3,id01,2024-08-03,2024-08-02,Q3,2,0.5825405612758282,0.5795370659761659,1.8534940263270627e-05,0.2811657142857143,0.6352171428571428,0.1250753999999999,0.8544285714285714,0.9097142857142856,0.3286348571428571,0.0,1.0,0,3.0,5.4,1.0,1.0,-0.0020563557839757,-1.3985871682512395e-09,-5.640630085346209e-06,0.0,0.0,0.0,1.0,0.127484423230084,0.0059622151491581,0.8485714285714285,0.2148571428571428,0.1788571428571428,1.0,1.0,episode_neighbor_q061,0.28076,0.5795635192393868,-0.0122295736452776,1.6570339673616097e-05,0.0122295736452776,1.0,0.0,1.0,0.1879783428571428,0.5577169744059128,0,0.5577169744059128,8.511330267661373e-11,0.1802285714285714,0.0011137372782469,0.0033986064699007,0.0005605465865673,0.9809565264928056,0.22,0.1387492598971923,0.2050615999999999,-0.1013098164667343,0.0012604154204444,0.5729004845201093,-0.0395164455506682,1.0,7.263366103893443e-05,7.263366103893443e-05,0.9571428571428572,0.6308571428571429,0.8040571428571429,0.9461771428571428,0.1024235537449813,0.0526738285714285,5.0,4.0,1.0,0.012048192771084338,0.0756287458844567,0.997136045279652,0.225155940522694,0.9743227403932134,0.0,0.11538461538461539,27.0,0.0,0.0,1.0,0.0,0.0,0.0,0.0,0.0,0.0,0.0,0.0,0.0,0.0,0.0,0.0,0.0,1.0,1.0,0.0,0.0,0.0,1.0,0.0,1.0,0.0,1.0,0.0,0.760780490122449,0.5840420685714287,1.1052800705567387,1.1052800705567387,13.973302616000002,11.0,0.07909941557345712,0.9999999999990952,4,0.9999999999990952,1.0,0.5366020056150844,True,0.1759203019692976,True,0.0,False,0.34759691479185695,True,0.04516084818049981,True,1.0,1.0,0.8574639455998913
h108_strict_intersection_c48_a085_610a26a0,1059,151,id06,2024-08-25,2024-08-24,Q3,2,0.8051517532471274,0.8030150111803502,1.4511156814778214e-05,0.3337085714285714,0.7080171428571429,0.1520932571428572,0.9230857142857144,0.956,0.3712925714285713,1.0,1.0,0,0.0,0.0,0.0,0.0,0.0,0.0,0.0,0.0,0.0,0.0,0.0,0.2271737521378298,0.006086278522037,0.9222857142857144,0.2165714285714285,0.1788571428571428,0.0,0.0,,-0.7007057142857144,0.8030744767017115,-0.0131878844070159,1.2479027673317766e-05,0.0131878844070159,0.0,0.0,0.0,0.0559329142857143,0.7951378735404838,1,0.7951378735404838,5.971452035624195e-08,0.3412114285714285,0.0361493346156307,0.0011125015620337,0.0005754150819827,1.0069763934697766,0.7565714285714286,0.4100387233611863,0.4062238857142857,-0.0626314127524751,0.0003155568519088,0.8043516859284782,-0.0050918768989105,1.0,-8.541367909509212e-06,0.0,0.4542857142857143,0.4731428571428571,0.4653428571428571,0.9348628571428572,0.0987807473681059,0.0054983999999999,6.0,5.0,1.0,0.606425702811245,-0.6199605408122385,-0.7846329892604547,-0.9067516281939827,0.42166513345018397,5.0,1.0,24.0,0.0,0.0,1.0,0.0,0.0,0.0,0.0,0.0,0.0,0.0,0.0,0.0,0.0,0.0,0.0,0.0,0.0,0.0,1.0,1.0,0.0,1.0,0.0,1.0,0.0,1.0,0.0,0.43503175297959185,0.4528153828571429,4.467380328697425,4.467380328697425,20.3112302,16.0,0.21994631958320307,0.9999999999997762,5,0.9999999999997762,1.0,1.754940436005198,True,0.6798725068800002,True,1.564094300159999,True,0.46277686406793855,True,0.005696221584288544,True,1.0,1.0,0.855570392457116
h108_strict_intersection_c48_a085_610a26a0,550,78,id03,2024-10-06,2024-10-05,S2,4,0.5571285319115074,0.5589719632904865,6.888354101231009e-06,0.2467942857142857,0.5812571428571428,0.197464057142857,0.6712571428571429,0.576,0.323616,1.0,1.0,0,0.0,0.0,0.0,0.0,0.0,0.0,0.0,0.0,0.0,0.0,0.0,0.0551501937178191,0.0178002650844443,0.7331428571428571,0.3062857142857143,0.1788571428571428,0.0,0.0,,-0.6727,0.5589553514614753,0.0074071010428411,6.15604433584771e-06,0.0074071010428411,0.0,0.0,0.0,0.0522009714285714,0.5604924930897159,1,0.5604924930897159,1.626562896218322e-07,0.4884,-0.0484751610126691,0.0030189615236513,0.0005592800674707,0.9787401180738664,0.196,0.3289995002097053,0.0390667428571428,0.0136446690481986,2.2943929685714792e-05,0.5590444425260178,0.0077684973668663,1.0,-6.748650210774976e-06,0.0,0.4542857142857143,0.4914285714285714,0.4697142857142857,0.9194342857142858,-0.0621198300608678,-0.0016505142857142,6.0,5.0,1.0,0.3132530120481928,0.9220586030376136,-0.38705029720221723,-0.36953183094075726,0.929218072317565,2.0,0.95,21.0,0.0,0.0,0.0,0.0,1.0,0.0,0.0,0.0,0.0,0.0,0.0,0.0,0.0,0.0,0.0,0.0,0.0,0.0,1.0,1.0,0.0,0.0,1.0,0.0,1.0,1.0,0.0,0.4318714187755102,0.4015159200000001,-0.4917711725705682,0.4917711725705682,6.761228000000001,6.0,-0.07273400225084783,0.9999999999979666,4,0.9999999999979666,1.0,-0.15316766837821597,True,-0.06714817509665105,True,0.0,False,-0.2670579556241917,True,-0.004397373471509421,True,1.0,1.0,0.8553095396568989
h108_strict_intersection_c48_a085_610a26a0,430,61,id03,2024-08-19,2024-08-18,S1,3,0.604026200472991,0.6063203145082555,1.1009521791116583e-05,0.3882685714285714,0.3370171428571429,0.0654890857142856,0.7873714285714286,0.684,0.3785540571428571,1.0,1.0,0,2.0,3.6,1.0,1.0,0.0015362066480787,-1.5536985231547174e-08,-3.224407648327876e-06,0.0,0.0,0.0,1.0,0.1413535464138461,0.0,0.8622857142857143,0.0777142857142857,0.1788571428571428,1.0,1.0,episode_neighbor_q061,0.2920571428571428,0.6062772068060069,0.0094206983426381,9.646010099229052e-06,0.0094206983426381,0.0,0.0,1.0,0.1293242857142857,0.6074964413452014,0,0.6074964413452014,1.993561071952924e-07,0.5617257142857143,-0.0547320393639781,0.0057171149923169,0.0005577874228806,0.9761279900412012,0.1754285714285714,0.6818286787726655,0.0789510857142856,0.0145311845062691,2.520043883824652e-05,0.6055727655873674,0.0064705280329236,1.0,-9.560522133300609e-06,0.0,0.4542857142857143,0.4817142857142857,0.4683428571428571,0.9234285714285716,-0.0692632238702473,0.071728,0.0,6.0,1.0,0.24497991967871485,0.9995025893658627,0.03153686495097154,-0.995526272808559,-0.09448513188803126,2.0,0.1,21.0,0.0,0.0,0.0,1.0,0.0,0.0,0.0,1.0,0.0,0.0,0.0,0.0,0.0,0.0,0.0,0.0,0.0,0.0,0.0,0.0,1.0,0.0,1.0,0.0,1.0,1.0,0.0,0.43248117551020415,0.4628745142857143,-1.1155522766202757,1.1155522766202757,12.685330616000002,10.0,-0.08794033915151901,0.9999999999991035,4,0.9999999999991035,1.0,-0.7339275571691921,True,-0.1680226131874587,True,0.0,False,-0.20620734871216814,True,-0.007394757551456844,True,1.0,1.0,0.8531328091427494
h108_strict_intersection_c48_a085_610a26a0,689,98,id04,2024-10-19,2024-10-18,S1,3,0.6371260254955748,0.6405330343175071,2.51376604938347e-05,0.2224685714285713,0.4586171428571429,0.0413004,0.7652857142857143,0.6982857142857143,0.3247446857142857,1.0,1.0,0,0.0,0.0,0.0,0.0,0.0,0.0,0.0,0.0,0.0,0.0,0.0,0.0999969057319737,0.0,0.8154285714285714,0.0777142857142857,0.1788571428571428,0.0,0.0,,-0.7547914285714286,0.6405000114407822,0.0146231119468513,2.2435790286601257e-05,0.0146231119468513,0.0,0.0,0.0,0.0546097142857142,0.6458406625928385,0,0.6458406625928385,2.652752376425061e-07,0.6229485714285715,-0.0646258238737329,0.0076759256074498,0.0005509684978578,0.9641948712512676,0.1045714285714285,-0.0194807088009702,-0.0150077714285714,0.037894021574039,0.0001648212272662,0.6414968295448158,0.0189548562062582,1.0,-2.2492975142118787e-05,0.0,0.4542857142857143,0.5468571428571428,0.4944,0.9422057142857144,-0.102519845447772,-0.0024486857142857,5.0,4.0,1.0,0.39357429718875503,0.6199605408122387,-0.7846329892604544,0.9067516281939827,0.4216651334501838,3.0,0.6923076923076923,27.0,0.0,0.0,0.0,1.0,0.0,0.0,0.0,0.0,0.0,0.0,0.0,0.0,0.0,0.0,0.0,0.0,1.0,1.0,0.0,0.0,0.0,0.0,1.0,0.0,1.0,1.0,0.0,0.46582650514285723,0.4561278171428572,-0.9634967338696883,0.9634967338696883,12.691558616000002,10.0,-0.07591634432156746,0.9999999999989622,4,0.9999999999989622,1.0,-0.584527489130576,True,-0.1029197651154799,True,0.0,False,-0.2653200453583675,True,-0.010729434265264803,True,1.0,1.0,0.8523398212570182
h108_strict_intersection_c48_a085_610a26a0,772,110,id05,2024-10-02,2024-10-01,Q3,2,0.6435229466437378,0.6455589159043185,9.04247349553522e-06,0.2650971428571428,0.2893571428571428,0.1146687428571428,0.6491428571428571,0.4982857142857143,0.3051725714285714,1.0,1.0,0,0.0,0.0,0.0,0.0,0.0,0.0,0.0,0.0,0.0,0.0,0.0,0.0310407121432734,0.0367577482521876,0.6508571428571429,0.3988571428571428,0.3765714285714285,0.0,0.0,,-0.710837142857143,0.6455535212431254,0.0088629491808219,8.185568658225506e-06,0.0088629491808219,0.0,0.0,0.0,0.0363761999999999,0.6442829447483399,1,0.6442829447483399,2.153701245251061e-07,0.4975200000000001,-0.0580614251352461,0.0015030190240538,0.0005682250880681,0.9943939041192168,0.5474285714285714,0.2170454891366399,0.2052502285714285,0.0033145443944393,1.2593234758329077e-06,0.6436902084063603,0.0007291997667763,1.0,-1.419708776539963e-06,0.0,0.4542857142857143,0.4485714285714285,0.4537714285714286,0.9171657142857144,-0.0613759695296854,-0.0121528,2.0,1.0,1.0,0.44176706827309237,0.3577789366275641,-0.9338063142352645,0.8901457403773968,-0.45567593845624127,4.0,0.15,21.0,0.0,0.0,1.0,0.0,0.0,0.0,0.0,0.0,0.0,0.0,1.0,1.0,0.0,0.0,0.0,0.0,0.0,0.0,0.0,0.0,0.0,1.0,0.0,1.0,0.0,1.0,0.0,0.4161835964081633,0.2498761485714286,-0.20736907993574774,0.20736907993574774,3.1814000000000004,3.0,-0.06518170614687953,0.9999999999951776,2,0.9999999999951776,1.0,0.0,False,0.0,False,0.0,False,-0.2069563149493644,True,-0.000412764986383352,True,1.0,1.0,0.8505902630851355
h108_strict_intersection_c48_a085_610a26a0,1154,164,id07,2024-07-26,2024-07-25,S4,6,0.3773264958983826,0.3806992444389726,2.417989854019975e-05,0.3498857142857143,0.5277371428571428,-0.0450253714285713,0.9542,0.92,0.3851811428571428,1.0,1.0,0,4.0,7.150759261260218,1.0,1.0,0.006397676751739,-1.1884740666293036e-08,-1.652587185190865e-05,0.0,0.0,0.0,1.0,0.3149601376641728,0.0,0.9497142857142856,0.0777142857142857,0.1788571428571428,1.0,1.0,seed_q061_companion,0.2868685714285713,0.3806108503006162,0.0139551743480836,2.086447315363671e-05,0.0139551743480836,0.0,1.0,1.0,0.2017081142857142,0.3827457929282127,0,0.6172542070717872,4.143843838059222e-07,0.6303542857142858,-0.0798121694974146,0.0046721907240113,0.0005578411478312,0.9762220087046362,0.1765714285714285,0.6369021237462911,0.1225257142857142,0.0230015601792245,6.238347097342611e-05,0.3820022291534626,0.0198530550945121,1.0,-1.8827635697604705e-05,0.0,0.4542857142857143,0.5508571428571428,0.4944,0.9444742857142856,-0.1028137296766391,0.088597257142857,4.0,3.0,1.0,0.6586345381526104,-0.839699808785118,-0.5430508550092121,-0.15082429716137438,0.9885605855918884,6.0,0.41379310344827586,30.0,0.0,0.0,0.0,0.0,0.0,0.0,1.0,0.0,0.0,0.0,0.0,0.0,0.0,0.0,1.0,1.0,0.0,0.0,0.0,0.0,0.0,0.0,1.0,0.0,1.0,1.0,0.0,0.4669480868571428,0.39203521142857145,-2.426797576206274,2.426797576206274,15.692237984000002,13.0,-0.15464955213402395,0.9999999999995879,4,0.9999999999995879,1.0,0.0,False,-0.036171242281766124,True,-1.5640943001600016,True,-0.7928717188548591,True,-0.033660314909646966,True,1.0,1.0,0.8482026998856648
h108_strict_intersection_c48_a085_610a26a0,951,135,id06,2024-07-14,2024-07-13,S4,6,0.8326790220313127,0.833879711711521,5.183653563278767e-06,0.2921257142857143,0.4153771428571429,-0.1112793428571428,0.8874,0.9285714285714286,0.3429414857142857,1.0,1.0,0,0.0,0.0,0.0,0.0,0.0,0.0,0.0,0.0,0.0,0.0,0.0,0.3617674279706701,0.0,0.9582857142857144,0.0777142857142857,0.1788571428571428,0.0,0.0,,-0.7936942857142857,0.8337650677901544,0.0078153785157646,3.859087214619361e-06,0.0078153785157646,0.0,0.0,0.0,-0.0153674857142856,0.8312358502886998,1,0.8312358502886998,3.840924880026521e-07,0.6961371428571429,-0.0989839981964375,0.0011361898931917,0.0005810148178281,1.016775931199321,0.8325714285714285,0.5783184363674189,0.3844385142857142,-0.010322855520866,7.457335124527731e-06,0.8329793279449548,0.0021569871909787,1.0,-2.0186312811865115e-06,0.0,0.4542857142857143,0.4594285714285714,0.4581428571428572,0.9290628571428572,-0.0886611426755714,-0.0597717714285714,6.0,5.0,1.0,0.5421686746987951,-0.2618644849608063,-0.9651046531419334,-0.7137661126871386,-0.7003841348713511,5.0,0.30434782608695654,24.0,0.0,0.0,0.0,0.0,0.0,0.0,1.0,0.0,0.0,0.0,0.0,0.0,0.0,0.0,0.0,0.0,0.0,0.0,1.0,1.0,0.0,0.0,1.0,0.0,1.0,1.0,0.0,0.42564351183673477,0.4147663657142857,-3.113611565402525,3.113611565402525,16.707488600000005,14.0,-0.18636023880946045,0.9999999999996788,5,0.9999999999996788,1.0,-1.493986646899619,True,-0.6039396286675396,True,-0.13868653162291208,True,-0.8757777912990263,True,-0.001220966913428227,True,1.0,1.0,0.8460934946285328
h108_strict_intersection_c48_a085_610a26a0,958,136,id06,2024-07-16,2024-07-15,S4,6,0.8793211893789878,0.8800493904202091,2.5029338155957426e-06,0.3645828571428571,0.5588971428571429,0.1084819428571429,0.7967428571428572,0.7268571428571429,0.3787347428571428,1.0,1.0,0,0.0,0.0,0.0,0.0,0.0,0.0,0.0,0.0,0.0,0.0,0.0,0.1594115670323823,0.0,0.8822857142857143,0.0777142857142857,0.1788571428571428,0.0,0.0,,-0.7095342857142858,0.8799999511198453,0.0064120263061722,1.9788838113155016e-06,0.0064120263061722,0.0,0.0,0.0,0.0212581142857142,0.8834973597348148,1,0.8834973597348148,8.471331549768475e-09,0.3511542857142857,-0.0171551486596812,0.0031343608795367,0.0005683629451615,0.9946351540327674,0.5531428571428572,0.5888697722476787,0.1944567999999999,0.039956691866398,8.300913775149965e-05,0.8807134130136618,0.0131857083159114,1.0,2.441039736456041e-07,2.441039736456041e-07,0.9085714285714286,0.5165714285714286,0.7216285714285715,0.9087942857142858,-0.0571118405260793,-0.0966108571428571,1.0,0.0,1.0,0.5461847389558233,-0.2861316735085688,-0.9581903075147368,-0.7646910926171749,-0.6443970304648767,5.0,0.34782608695652173,24.0,0.0,0.0,0.0,0.0,0.0,0.0,1.0,0.0,1.0,1.0,0.0,0.0,0.0,0.0,0.0,0.0,0.0,0.0,0.0,0.0,0.0,0.0,1.0,0.0,1.0,1.0,0.0,0.6558119221224491,0.47814422857142863,-1.7527457284671533,1.7527457284671533,18.062365016000005,15.0,-0.09703855098235692,0.9999999999994295,4,0.9999999999994295,1.0,-0.8307670075526887,True,-0.2894013331729539,True,0.0,False,-0.6102213779431483,True,-0.022356009798362716,True,1.0,1.0,0.8455009405713598
h108_strict_intersection_c48_a085_610a26a0,947,135,id06,2024-07-14,2024-07-13,Q3,2,0.8233562803446187,0.8211995281478749,1.5940535035174896e-05,0.2876571428571428,0.4153771428571429,-0.0838771142857143,0.9258,0.964,0.3306977142857142,1.0,1.0,0,0.0,0.0,0.0,0.0,0.0,0.0,0.0,0.0,0.0,0.0,0.0,0.2445756176535394,0.0,0.9285714285714286,0.0777142857142857,0.1788571428571428,0.0,0.0,,-0.7948314285714286,0.8212701536208874,-0.0142775087436182,1.3569943485169931e-05,0.0142775087436182,0.0,0.0,0.0,0.0141144571428571,0.8135768926925118,0,0.8135768926925118,6.984182582356931e-08,0.3558057142857143,0.0404020375392994,0.0006730519548812,0.0005742784329964,1.0049872577438463,0.7342857142857143,0.3838669842879127,0.360628,-0.0658326085220084,0.0003241510323629,0.8192405880794565,-0.0280433228436189,1.0,-9.664076740523164e-07,0.0,0.4542857142857143,0.5822857142857143,0.4927714285714286,0.93888,0.1062346460613079,-0.0398117714285714,6.0,5.0,1.0,0.5421686746987951,-0.2618644849608063,-0.9651046531419334,-0.7137661126871386,-0.7003841348713511,5.0,0.30434782608695654,24.0,0.0,0.0,1.0,0.0,0.0,0.0,0.0,0.0,0.0,0.0,0.0,0.0,0.0,0.0,0.0,0.0,0.0,0.0,1.0,1.0,0.0,1.0,0.0,1.0,0.0,1.0,0.0,0.4626532388571429,0.4524815657142857,1.3437401773549027,1.3437401773549027,11.129117984000002,10.0,0.12074094095207157,0.9999999999992557,4,0.9999999999992557,1.0,0.39116868336000055,True,0.0,False,0.13868653162291253,True,0.7825132336267071,True,0.03137172874528241,True,1.0,1.0,0.8436229597713392
h108_strict_intersection_c48_a085_610a26a0,24,3,id01,2024-08-03,2024-08-02,S1,3,0.8856649411247233,0.884269699592085,9.57829480535688e-06,0.3897885714285715,0.6352171428571428,0.0773217714285714,0.9170857142857144,0.872,0.3982313142857143,1.0,1.0,0,3.0,5.4,1.0,1.0,-0.0022843066139102,-1.023657469904827e-08,-2.9117981057794986e-06,0.0,0.0,0.0,1.0,0.2406994082492063,0.0,0.9257142857142856,0.0777142857142857,0.1788571428571428,1.0,1.0,episode_neighbor_q061,0.3248571428571428,0.8843445253579758,-0.0129744625034478,7.806096574636268e-06,0.0129744625034478,0.0,1.0,1.0,0.2032936,0.8820840042998885,1,0.8820840042998885,9.344356289733132e-08,0.4318628571428572,0.0561513585022945,0.0001448418096032,0.0005651349325084,0.9889861318897074,0.3668571428571429,0.7227631446137076,0.1976734857142857,-0.0348906338605639,6.274948159712412e-05,0.8838282129387657,-0.0180127622696133,1.0,-7.28027584134816e-06,0.0,0.4542857142857143,0.5417142857142857,0.4852285714285714,0.9233085714285716,0.0910419923628584,0.0897802285714285,5.0,4.0,1.0,0.012048192771084338,0.0756287458844567,0.997136045279652,0.225155940522694,0.9743227403932134,0.0,0.11538461538461539,27.0,0.0,0.0,0.0,1.0,0.0,0.0,0.0,0.0,0.0,0.0,0.0,0.0,0.0,0.0,0.0,0.0,1.0,1.0,0.0,0.0,0.0,0.0,1.0,0.0,1.0,1.0,0.0,0.44801569910204087,0.43306448000000003,0.6266201447109682,0.6266201447109682,7.107716000000001,6.0,0.08816054900208167,0.9999999999984042,3,0.9999999999984042,1.0,0.21632777712000162,True,0.0,False,0.0,False,0.3897067199996018,True,0.020585647591364636,True,1.0,1.0,0.84289159062838
h108_strict_intersection_c48_a085_610a26a0,548,78,id03,2024-10-06,2024-10-05,Q3,2,0.7936544401585863,0.7937688832623561,3.999282749411749e-08,0.1934914285714286,0.5812571428571428,0.1726038857142857,0.64,0.6131428571428571,0.2588342857142857,1.0,1.0,0,0.0,0.0,0.0,0.0,0.0,0.0,0.0,0.0,0.0,0.0,0.0,0.0424170946698951,0.0477365793334812,0.6982857142857143,0.4417142857142857,0.3754285714285714,0.0,0.0,,-0.6733800000000001,0.7937590193930218,0.0006387050392127,3.039021689854593e-08,0.0006387050392127,0.0,0.0,0.0,0.0145573142857142,0.7933361205125407,0,0.7933361205125407,3.993836410772035e-09,0.2115428571428571,-0.0093434113037451,0.000990806439708,0.0005752921861245,1.0067613257180117,0.7542857142857143,0.4067481407263825,0.3583275428571429,-0.0019426259365227,3.0924676153176733e-07,0.7936832301967062,0.0001758077772848,1.0,-1.5855042945212006e-08,0.0,0.4542857142857143,0.4428571428571428,0.4491428571428572,0.8736342857142857,-0.0074007853672224,-0.0359851428571428,6.0,5.0,1.0,0.3132530120481928,0.9220586030376136,-0.38705029720221723,-0.36953183094075726,0.929218072317565,2.0,0.95,21.0,0.0,0.0,1.0,0.0,0.0,0.0,0.0,0.0,0.0,0.0,0.0,0.0,0.0,0.0,0.0,0.0,0.0,0.0,1.0,1.0,0.0,1.0,0.0,1.0,0.0,1.0,0.0,0.39238659918367347,0.24309862857142855,-0.16272111932100994,0.16272111932100994,9.111730616000001,7.0,-0.01785842077412356,0.9999999999938545,4,0.9999999999938545,1.0,-0.10454991098613806,True,-0.03174954279950212,True,0.0,False,-0.02632214919142166,True,-9.95163439480792e-05,True,1.0,1.0,0.8428789737135483
h108_strict_intersection_c48_a085_610a26a0,1151,164,id07,2024-07-26,2024-07-25,S1,3,0.9223507042282848,0.9216005296464892,3.917279624177095e-06,0.2585542857142857,0.5277371428571428,-0.1077577142857144,0.9476857142857142,0.9794285714285714,0.3269070857142857,1.0,1.0,0,4.0,7.150759261260218,1.0,1.0,-0.0046557360965975,-2.455648310831864e-09,-2.6763739925174846e-06,0.0,0.0,0.0,1.0,0.580049688553327,0.0,0.9822857142857144,0.0777142857142857,0.1788571428571428,1.0,1.0,seed_q061_companion,0.24256,0.9217729289840444,-0.0080398963166077,2.11564951174692e-06,0.0080398963166077,0.0,1.0,1.0,0.1396150285714285,0.934273302796362,1,0.934273302796362,1.2071833231409308e-06,0.8719085714285715,0.2506320694487556,0.0026125534551015,0.0005915360823307,1.035188144078876,0.8891428571428571,0.8372818556296139,0.4899545142857143,0.1795407734626453,0.0010428642033394,0.9220945637329848,-0.0035709979341165,1.0,-1.6061254654586854e-06,0.0,0.4542857142857143,0.4657142857142857,0.4590857142857142,0.9133771428571428,0.0710912959861103,0.0364342857142856,4.0,3.0,1.0,0.6586345381526104,-0.839699808785118,-0.5430508550092121,-0.15082429716137438,0.9885605855918884,6.0,0.41379310344827586,30.0,0.0,0.0,0.0,1.0,0.0,0.0,0.0,0.0,0.0,0.0,0.0,0.0,0.0,0.0,1.0,1.0,0.0,0.0,0.0,0.0,0.0,0.0,1.0,0.0,1.0,1.0,0.0,0.4193183980408162,0.3923701142857143,2.2406668042049764,2.2406668042049764,14.410493984000002,12.0,0.15548854929557845,0.9999999999995537,4,0.9999999999995537,1.0,0.0,False,0.05036263782233717,True,1.5640943001600025,True,0.622215033685716,True,0.003994832536921119,True,1.0,1.0,0.8425279474285178
h108_strict_intersection_c48_a085_610a26a0,1372,196,id08,2024-09-11,2024-09-10,Q1,0,0.4882210432658963,0.4914552980203778,2.0930443240918528e-05,0.3540228571428571,0.4665371428571429,0.0489138,0.8997142857142858,0.8354285714285714,0.3498260571428572,1.0,1.0,0,0.0,0.0,0.0,0.0,0.0,0.0,0.0,0.0,0.0,0.0,0.0,0.1782692747856165,0.0,0.8971428571428571,0.0777142857142857,0.1788571428571428,0.0,0.0,,-0.75626,0.4913993877565197,0.0127187032801039,1.8393801898830553e-05,0.0127187032801039,0.0,0.0,0.0,0.0430785142857143,0.5111605648331664,0,0.5111605648331664,3.610571893522563e-09,0.2521142857142857,-0.0071745605544646,0.0059461204084951,0.0005573665920388,0.9753915360679752,0.1674285714285714,0.4731065567580037,0.0345021714285714,0.0917742215092823,0.0010526383261484,0.4932668527561128,0.020190328732042,1.0,-1.323671713049368e-05,0.0,0.4542857142857143,0.5531428571428572,0.4917428571428572,0.94248,-0.0989487820637469,-0.0122389714285714,2.0,1.0,1.0,0.7871485943775101,-0.9728829847220697,0.23129785567159294,0.7646910926171744,-0.6443970304648774,7.0,0.7777777777777778,19.0,1.0,0.0,0.0,0.0,0.0,0.0,0.0,0.0,0.0,0.0,1.0,1.0,0.0,0.0,0.0,0.0,0.0,0.0,0.0,0.0,0.0,1.0,0.0,1.0,0.0,1.0,0.0,0.463457808,0.4509399885714287,-0.6855116183785664,0.6855116183785664,9.521158616000001,7.0,-0.07199876044775834,0.9999999999985413,4,0.9999999999985413,1.0,-0.4252286430791362,True,-0.061295020427337275,True,0.0,False,-0.19346630377045407,True,-0.0055216511016388916,True,1.0,1.0,0.8412885081141105
h108_strict_intersection_c48_a085_610a26a0,3,0,id01,2024-07-31,2024-07-30,S1,3,0.5202725253271271,0.5236101888857627,2.2320883022897146e-05,0.3296457142857143,0.5036571428571429,0.0592980571428572,0.8507142857142858,0.7537142857142857,0.3292734857142856,1.0,1.0,0,0.0,0.0,0.0,0.0,0.0,0.0,0.0,0.0,0.0,0.0,0.0,0.166282513857259,0.0,0.8897142857142857,0.0777142857142857,0.1788571428571428,0.0,0.0,,-0.7491228571428571,0.5235543310942848,0.013152533950614,1.963802934246139e-05,0.013152533950614,0.0,0.0,0.0,0.0526722285714286,0.5367598867796822,0,0.5367598867796822,8.669450489455988e-08,0.2992457142857143,-0.0351603363907305,0.0004641149697683,0.0005472298175587,0.95765218072781,0.0885714285714285,0.4134929081993978,-0.0102653714285714,0.0661707536831843,0.0005451474145004,0.523904797882171,0.0145575658103003,1.0,-2.1333746199614367e-05,0.0,0.4542857142857143,0.5245714285714286,0.4871142857142858,0.9440457142857144,-0.1013310900739148,-0.0021125714285714,2.0,1.0,1.0,0.0,0.0,1.0,0.0,1.0,0.0,0.0,27.0,0.0,0.0,0.0,1.0,0.0,0.0,0.0,0.0,0.0,0.0,1.0,1.0,0.0,0.0,0.0,0.0,0.0,0.0,0.0,0.0,0.0,0.0,1.0,0.0,1.0,1.0,0.0,0.4598581537959185,0.36753994285714287,-0.6009151963291751,0.6009151963291751,5.825972000000001,5.0,-0.10314419573747897,0.9999999999983359,3,0.9999999999983359,1.0,-0.27938688624000013,True,0.0,False,0.0,False,-0.313287970847123,True,-0.008240339242051836,True,1.0,1.0,0.8403045405712288
h108_strict_intersection_c48_a085_610a26a0,979,139,id06,2024-07-19,2024-07-18,S4,6,0.8268174475003207,0.8280647752584297,5.443071396993293e-06,0.2987828571428571,0.5280971428571429,-0.0621637714285713,0.8908857142857144,0.8897142857142857,0.3496909714285714,1.0,1.0,0,0.0,0.0,0.0,0.0,0.0,0.0,0.0,0.0,0.0,0.0,0.0,0.3410531498239687,0.0,0.9548571428571428,0.0777142857142857,0.1788571428571428,0.0,0.0,,-0.7669400000000001,0.8279578930664663,0.0079853695822413,4.14051900110568e-06,0.0079853695822413,0.0,0.0,0.0,0.0013515428571428,0.8320067417020486,0,0.8320067417020486,8.242813150596908e-08,0.4974857142857143,-0.0463207552654163,0.0051338467753729,0.0005824135970977,1.0192237949209952,0.8422857142857143,0.7491083425639209,0.3983379428571428,0.0366790192570158,9.478581098798512e-05,0.8300902641257938,0.0230294411245872,1.0,1.1516764712005134e-05,1.1516764712005134e-05,0.9228571428571428,0.5622857142857143,0.7513428571428572,0.9256342857142856,-0.0829997745224322,-0.1207928,4.0,3.0,1.0,0.5582329317269076,-0.3577789366275639,-0.9338063142352645,-0.8901457403773956,-0.4556759384562435,5.0,0.4782608695652174,24.0,0.0,0.0,0.0,0.0,0.0,0.0,1.0,0.0,0.0,0.0,0.0,0.0,0.0,0.0,1.0,1.0,0.0,0.0,0.0,0.0,0.0,0.0,1.0,0.0,1.0,1.0,0.0,0.6954687088979592,0.4912916914285715,-1.942969019295797,1.942969019295797,16.774393016000005,14.0,-0.11582946801368069,0.9999999999994853,4,0.9999999999994853,1.0,-0.8220383644937346,True,-0.36951797833097544,True,0.0,False,-0.7123668854451493,True,-0.03904579102593762,True,1.0,1.0,0.8398748847999382
h108_strict_intersection_c48_a085_610a26a0,495,70,id03,2024-09-16,2024-09-15,S3,5,0.4339995467608516,0.432356369008125,5.497455235037307e-06,0.3251771428571428,0.6828971428571429,0.0974404857142856,0.8948,0.84,0.3792589714285714,1.0,1.0,0,3.0,5.4,1.0,1.0,-0.0011153743242252,-3.1667587096087123e-09,-1.6736124081780563e-06,0.0,0.0,0.0,1.0,0.1755262427634193,0.0,0.8954285714285715,0.0777142857142857,0.1788571428571428,1.0,1.0,episode_neighbor_q061,0.3184914285714285,0.4324045390961372,-0.006495975889984,4.713727674743318e-06,0.006495975889984,0.0,0.0,1.0,0.1380639428571428,0.4362151510812417,1,0.5637848489187582,2.42810440140853e-07,0.4231657142857142,0.0596993860989079,0.0007370478100822,0.0005856856978188,1.02494997118291,0.8657142857142858,0.4358312021880767,0.5033509714285717,0.0090142714560029,9.98797653928296e-06,0.4335600833741482,-0.0017892377075804,1.0,-2.460680098903545e-06,0.0,0.4542857142857143,0.4548571428571428,0.4573714285714285,0.9124171428571428,0.0506851146429049,0.081622857142857,0.0,6.0,1.0,0.28112449799196787,0.9809388143902331,-0.19431686088109762,-0.8327815731637613,0.553601708269484,2.0,0.55,21.0,0.0,0.0,0.0,0.0,0.0,1.0,0.0,1.0,0.0,0.0,0.0,0.0,0.0,0.0,0.0,0.0,0.0,0.0,0.0,0.0,1.0,0.0,1.0,0.0,1.0,1.0,0.0,0.4173135320816326,0.38928577142857146,0.4220074589421007,0.4220074589421007,10.286386616000001,8.0,0.041025821281658464,0.9999999999976305,4,0.9999999999976305,1.0,0.1333111459409069,True,0.04206476756168645,True,0.0,False,0.2456187438566563,True,0.001012801582851016,True,1.0,1.0,0.8393154308568586
h108_strict_intersection_c48_a085_610a26a0,945,135,id06,2024-07-14,2024-07-13,Q1,0,0.3265168623517541,0.332467224835243,8.025667657762803e-05,0.3744571428571428,0.4153771428571429,-0.0994901714285714,0.9742571428571428,0.9685714285714284,0.3800493714285714,0.0,1.0,0,0.0,0.0,0.0,0.0,0.0,0.0,0.0,0.0,0.0,0.0,0.0,0.5725434492673942,0.0,0.9817142857142858,0.0777142857142857,0.1788571428571428,0.0,0.0,,-0.8262657142857144,0.3323169909206154,0.0262571471809444,6.938334396489054e-05,0.0262571471809444,0.0,0.0,0.0,0.0315527428571428,0.344659554634995,1,0.655340445365005,9.866239582278026e-07,0.6901028571428571,-0.123946419174583,0.0014640261314393,0.0003771091657354,0.6599410400369783,0.0062857142857142,0.7984103847618609,-0.0157502857142857,0.081383632605916,0.0007415524517681,0.335027405247487,0.0384478717404617,1.0,-5.975131469893036e-05,0.0,0.4542857142857143,0.6268571428571429,0.5252571428571429,0.9829828571428572,-0.1743681471515381,-0.0398052571428571,6.0,5.0,1.0,0.5421686746987951,-0.2618644849608063,-0.9651046531419334,-0.7137661126871386,-0.7003841348713511,5.0,0.30434782608695654,24.0,1.0,0.0,0.0,0.0,0.0,0.0,0.0,0.0,0.0,0.0,0.0,0.0,0.0,0.0,0.0,0.0,0.0,0.0,1.0,1.0,0.0,1.0,0.0,1.0,0.0,1.0,0.0,0.5163187670204081,0.42969570285714287,-1.2220745516413383,1.2220745516413383,9.075917984000002,8.0,-0.1346502418593477,0.9999999999991817,4,0.9999999999991817,1.0,-0.3911686833600001,True,0.0,False,-0.13868653162291197,True,-0.6604569346476825,True,-0.03176240201074374,True,1.0,1.0,0.8369347081141875
h108_strict_intersection_c48_a085_610a26a0,776,110,id05,2024-10-02,2024-10-01,S4,6,0.4438495786612846,0.4451675276483861,3.517651817719347e-06,0.2391714285714286,0.2893571428571428,-0.0912718571428571,0.8011428571428572,0.8748571428571429,0.3034004571428571,0.0,1.0,0,0.0,0.0,0.0,0.0,0.0,0.0,0.0,0.0,0.0,0.0,0.0,0.1517560969078651,0.0055488407941821,0.8748571428571429,0.2114285714285714,0.1788571428571428,0.0,0.0,,-0.8335457142857143,0.4451219697262338,0.0051530909657626,2.983565084324624e-06,0.0051530909657626,0.0,0.0,0.0,-0.068577,0.4632074008694939,0,0.536792599130506,7.647812904665928e-08,0.2794971428571428,0.0331756448528687,0.0011639351142216,0.0005573933773258,0.975438410320314,0.168,0.5618931275998716,-0.0022037142857142,0.0781161866856486,0.0007569947114121,0.4480957780680643,0.0171855610708425,1.0,1.46086126527889e-05,1.46086126527889e-05,0.9274285714285714,0.5394285714285715,0.7487999999999999,0.9094228571428572,-0.04494054183278,-0.1995107428571428,2.0,1.0,1.0,0.44176706827309237,0.3577789366275641,-0.9338063142352645,0.8901457403773968,-0.45567593845624127,4.0,0.15,21.0,0.0,0.0,0.0,0.0,0.0,0.0,1.0,0.0,0.0,0.0,1.0,1.0,0.0,0.0,0.0,0.0,0.0,0.0,0.0,0.0,0.0,0.0,1.0,0.0,1.0,1.0,0.0,0.6809758354285714,0.47316624,-0.7685659876685006,0.7685659876685006,10.038728504000002,8.0,-0.0765600929801203,0.9999999999986989,3,0.9999999999986989,1.0,-0.5125760525747135,True,0.0,False,0.0,False,-0.23634964347338044,True,-0.01964029162040646,True,1.0,1.0,0.8343539695998438
h108_strict_intersection_c48_a085_610a26a0,1013,144,id06,2024-08-14,2024-08-13,S3,5,0.9522076528619444,0.951030851055967,1.509834010707256e-05,0.4260571428571428,0.670817142857143,0.0757880857142856,0.9469714285714286,0.9308571428571428,0.4453364571428572,1.0,1.0,0,0.0,0.0,0.0,0.0,0.0,0.0,0.0,0.0,0.0,0.0,0.0,0.337421922395201,0.0,0.9537142857142856,0.0777142857142857,0.1788571428571428,0.0,0.0,,-0.7011571428571429,0.9511648346262598,-0.0226808888572636,1.0793325352420611e-05,0.0226808888572636,0.0,0.0,0.0,0.0697650857142857,0.9463979428642126,1,0.9463979428642126,7.913949188770699e-08,0.5184228571428572,0.0736220453953238,0.0012356743014629,0.0005537828437696,0.969119976596906,0.1251428571428571,0.5912107460614958,0.0202428571428571,-0.1208419165152991,0.0003573805720112,0.9444020832456476,-0.1595113298001926,1.0,0.0004413604881809,0.0004413604881809,0.996,0.9268571428571428,0.9379714285714286,0.9526514285714286,0.1944639619106229,-0.1030012571428571,2.0,1.0,1.0,0.5783132530120482,-0.47243956847967067,-0.881363066014649,-0.9955262728085589,-0.09448513188803238,5.0,0.6956521739130435,24.0,0.0,0.0,0.0,0.0,0.0,1.0,0.0,0.0,0.0,0.0,1.0,1.0,0.0,0.0,0.0,0.0,0.0,0.0,0.0,0.0,0.0,0.0,1.0,0.0,1.0,1.0,0.0,0.8935598213877551,0.27296273142857147,2.1304775846037445,2.1304775846037445,11.631324512,10.0,0.18316723795347248,0.9999999999995306,3,0.9999999999995306,1.0,0.0,False,0.6798725068800044,True,0.0,False,1.180157956755691,True,0.2704471209680488,True,1.0,1.0,0.8338798749713724
h108_strict_intersection_c48_a085_610a26a0,432,61,id03,2024-08-19,2024-08-18,S3,5,0.4835789213561608,0.4814017987874172,9.490897164288192e-06,0.2929085714285714,0.3370171428571429,-0.0619744285714286,0.8623428571428573,0.8994285714285715,0.3448964571428571,1.0,1.0,0,2.0,3.6,1.0,1.0,-0.00139507150486,-2.709755271231037e-09,-2.7790419522277787e-06,0.0,0.0,0.0,1.0,0.209522601133933,0.0,0.9114285714285716,0.0777142857142857,0.1788571428571428,1.0,1.0,episode_neighbor_q061,0.2362457142857142,0.4814571944855456,-0.0084973080270469,8.20283112001885e-06,0.0084973080270469,0.0,0.0,1.0,0.1009617714285714,0.4819900669049786,0,0.5180099330950214,2.0193839847131825e-07,0.3697028571428571,0.0543884327223334,0.0008893541727483,0.0005638505649118,0.9867384885957086,0.312,0.5381676052087209,0.1506107428571428,-0.0063629664466685,5.05472920575567e-06,0.4821199420381252,-0.0058427958838835,1.0,-8.134415479310597e-06,0.0,0.4542857142857143,0.4788571428571428,0.4667142857142857,0.9184628571428572,0.0607513991690019,0.0456938285714285,0.0,6.0,1.0,0.24497991967871485,0.9995025893658627,0.03153686495097154,-0.995526272808559,-0.09448513188803126,2.0,0.1,21.0,0.0,0.0,0.0,0.0,0.0,1.0,0.0,1.0,0.0,0.0,0.0,0.0,0.0,0.0,0.0,0.0,0.0,0.0,0.0,0.0,1.0,0.0,1.0,0.0,1.0,1.0,0.0,0.42865973632653065,0.3732023542857143,0.22029276072382334,0.22029276072382334,4.538,4.0,0.04854401955129457,0.9999999999954605,2,0.9999999999954605,1.0,0.0,False,0.0,False,0.0,False,0.21698543442815948,True,0.003307326295663846,True,1.0,1.0,0.8306984998851695
h108_strict_intersection_c48_a085_610a26a0,773,110,id05,2024-10-02,2024-10-01,S1,3,0.3056001244245433,0.3110822546809208,7.057753952244283e-05,0.3760514285714286,0.2893571428571428,-0.1615444571428571,0.9791428571428572,0.976,0.4021014857142857,0.0,1.0,0,0.0,0.0,0.0,0.0,0.0,0.0,0.0,0.0,0.0,0.0,0.0,0.5338642750937583,0.0,0.9782857142857144,0.0777142857142857,0.1788571428571428,0.0,0.0,,-0.8408714285714286,0.3109228312939359,0.0249620044578845,6.0536909005648454e-05,0.0249620044578845,0.0,0.0,0.0,0.0106631142857142,0.3280865985574698,0,0.6719134014425301,7.07270156879589e-07,0.8127885714285715,-0.103914952574892,0.0046335205166585,0.0004988658735812,0.8730152787671973,0.0251428571428571,0.617569535666361,-0.0207438285714286,0.1039186479338416,0.0011757968820913,0.3104731064038094,0.0228621025454448,1.0,-6.606645263562694e-05,0.0,0.4542857142857143,0.5617142857142857,0.5061428571428572,0.9841714285714288,-0.207833600508734,-0.0541572571428571,2.0,1.0,1.0,0.44176706827309237,0.3577789366275641,-0.9338063142352645,0.8901457403773968,-0.45567593845624127,4.0,0.15,21.0,0.0,0.0,0.0,1.0,0.0,0.0,0.0,0.0,0.0,0.0,1.0,1.0,0.0,0.0,0.0,0.0,0.0,0.0,0.0,0.0,0.0,0.0,1.0,0.0,1.0,1.0,0.0,0.4981313387755104,0.4053762742857143,-0.5581056960565005,0.5581056960565005,8.756984504000002,7.0,-0.06373263488150585,0.9999999999982082,3,0.9999999999982082,1.0,-0.35091928310335474,True,0.0,False,0.0,False,-0.19424527408309145,True,-0.012941138870054356,True,1.0,1.0,0.8257329023997848
h108_strict_intersection_c48_a085_610a26a0,975,139,id06,2024-07-19,2024-07-18,Q3,2,0.7439595438752091,0.7399677023608381,4.16859280448767e-05,0.3280228571428571,0.5280971428571429,-0.0332376571428571,0.9586285714285714,0.9811428571428572,0.3647565714285714,0.0,1.0,0,0.0,0.0,0.0,0.0,0.0,0.0,0.0,0.0,0.0,0.0,0.0,0.3736466735880533,0.0,0.9617142857142856,0.0777142857142857,0.1788571428571428,0.0,0.0,,-0.8055971428571429,0.7400840689307989,-0.020245643390468,3.5750219449570686e-05,0.020245643390468,0.0,0.0,0.0,0.0240670285714286,0.7314817680775492,1,0.7314817680775492,5.469611738723606e-07,0.7339085714285715,0.0994963433248757,0.0056064356772304,0.0005687243082713,0.9952675394748086,0.5782857142857143,0.415144879432044,0.2598524571428571,-0.0644977115049467,0.0004044507406137,0.7354432689956294,-0.0442335008621266,1.0,1.6260783992305683e-05,1.6260783992305683e-05,0.9297142857142856,0.6497142857142857,0.784,0.973,0.1639940548298225,-0.1154598857142857,4.0,3.0,1.0,0.5582329317269076,-0.3577789366275639,-0.9338063142352645,-0.8901457403773956,-0.4556759384562435,5.0,0.4782608695652174,24.0,0.0,0.0,1.0,0.0,0.0,0.0,0.0,0.0,0.0,0.0,0.0,0.0,0.0,0.0,1.0,1.0,0.0,0.0,0.0,0.0,0.0,1.0,0.0,1.0,0.0,1.0,0.0,0.7628320000000001,0.44296686857142864,0.4198525102805177,0.4198525102805177,8.9847224,8.0,0.046729602940261225,0.9999999999976182,2,0.9999999999976182,1.0,0.0,False,0.0,False,0.0,False,0.3448558127200056,True,0.07499669756051215,True,1.0,1.0,0.8224113947425712
h108_strict_intersection_c48_a085_610a26a0,551,78,id03,2024-10-06,2024-10-05,S3,5,0.4287262596848446,0.4281161879117646,7.599045394046655e-07,0.2365371428571428,0.5812571428571428,0.0773638571428571,0.7985428571428572,0.7245714285714285,0.3151008,1.0,1.0,0,0.0,0.0,0.0,0.0,0.0,0.0,0.0,0.0,0.0,0.0,0.0,0.1582401932714693,0.0,0.88,0.0777142857142857,0.1788571428571428,0.0,0.0,,-0.7376028571428572,0.4281586043412561,-0.0023181008516995,5.986979474403853e-07,0.0023181008516995,0.0,0.0,0.0,-0.0074353142857142,0.4408131674241327,1,0.5591868325758673,2.7200351776194033e-07,0.4228571428571429,0.063541977905909,0.0006357751582378,0.0005690551907713,0.9958465838499426,0.5948571428571429,0.6318526509881361,0.2124987428571428,0.0491873592316087,0.0002975794832323,0.4285696820937664,-0.0006393299720927,1.0,-3.1286594048829386e-07,0.0,0.4542857142857143,0.4474285714285714,0.4512,0.8855085714285715,0.0143546186743003,-0.0550502857142857,6.0,5.0,1.0,0.3132530120481928,0.9220586030376136,-0.38705029720221723,-0.36953183094075726,0.929218072317565,2.0,0.95,21.0,0.0,0.0,0.0,0.0,0.0,1.0,0.0,0.0,0.0,0.0,0.0,0.0,0.0,0.0,0.0,0.0,0.0,0.0,1.0,1.0,0.0,0.0,1.0,0.0,1.0,1.0,0.0,0.39954146742857144,0.26216742857142855,0.09151801169309173,0.09151801169309173,4.538,4.0,0.020167036512356008,0.9999999999890731,2,0.9999999999890731,1.0,0.0,False,0.0,False,0.0,False,0.09115611768372933,True,0.00036189400936241316,True,1.0,1.0,0.8191513257129743
h108_strict_intersection_c48_a085_610a26a0,950,135,id06,2024-07-14,2024-07-13,S3,5,0.9998174319302912,0.9999690243965154,9.66556169085143e-05,0.41248,0.4153771428571429,0.4060846285714286,0.1434428571428571,0.1785714285714285,0.4921344,1.0,1.0,0,10.0,8.8123413858064,2.0,1.0,1.7740747865535766,-2.262030586979623e-08,-9.66556169085143e-05,1.0,1.0,0.0,0.0,0.0,5.8767346452884475,0.1785714285714285,0.9777142857142858,0.9777142857142858,0.0,0.0,,0.6325457142857144,0.999999,5.2073046728950665,0.0001106688193046,5.2073046728950665,1.0,0.0,1.0,0.5681642857142857,0.999999,1,0.999999,1.5611654156441006e-08,0.5173485714285715,3.3098046728945274,8.273637275291179e-08,0.0006977555522572,1.221072216450262,0.9817142857142858,0.9460383938620918,0.760486742857143,2.5,0.0001650960133852,0.9999740212292776,1.9499999999975175,1.0,-0.0001546556291109,0.0,0.4542857142857143,0.9914285714285714,0.6443142857142858,0.7002114285714286,-1.897500000000539,0.4285694857142857,6.0,5.0,1.0,0.5421686746987951,-0.2618644849608063,-0.9651046531419334,-0.7137661126871386,-0.7003841348713511,5.0,0.30434782608695654,24.0,0.0,0.0,0.0,0.0,0.0,1.0,0.0,0.0,0.0,0.0,0.0,0.0,0.0,0.0,0.0,0.0,0.0,0.0,1.0,1.0,0.0,0.0,1.0,0.0,1.0,1.0,0.0,0.4511562264489797,0.4576712342857143,-0.006953495191781553,0.061105297001421324,2.1493395840000007,2.0,-0.0032351775603730354,0.11379529325429869,2,0.11379529325429869,0.0,0.0,False,0.027075900904819886,True,-0.03402939609660144,True,0.0,False,0.0,False,1.0,1.0,0.8084621874190872
h108_strict_intersection_c48_a085_610a26a0,611,87,id04,2024-09-20,2024-09-19,Q3,2,0.5262087064141104,0.4031233706084962,0.0304304469211165,0.9348114285714284,0.668777142857143,0.7881529714285713,0.1240714285714285,0.1785714285714285,0.8152031428571428,1.0,0.0,0,22.0,22.431145652442883,4.0,1.0,-0.4072494561356441,-3.989143441440897e-06,-0.0251820984505949,1.0,1.0,1.0,1.0,0.0,0.9885766213058652,0.1785714285714285,0.9634285714285714,0.9634285714285714,1.0,1.0,episode_neighbor_q061,0.9533771428571428,0.4029349868617871,-0.4981817796394002,0.0278136487247597,0.4981817796394002,1.0,0.0,1.0,0.8573636571428571,0.419631020310157,1,0.580368979689843,1.5853105358177886e-05,0.7328342857142858,-0.4292192695252339,0.0005435105833482,0.0010115451373047,1.7702039902832445,0.9982857142857144,0.8022865849717844,0.9528608000000002,-0.4292192695252339,0.0227834373001778,0.3990894487263206,-0.5141915147230045,1.0,-0.0304934232336979,0.0,0.4542857142857143,0.9765714285714284,0.6928285714285715,0.0,0.0,0.6056266285714283,4.0,3.0,1.0,0.3493975903614458,0.8112359912185924,-0.5847188782240471,0.2981979110466653,0.9545040627715552,3.0,0.2692307692307692,27.0,0.0,0.0,1.0,0.0,0.0,0.0,0.0,0.0,0.0,0.0,0.0,0.0,0.0,0.0,1.0,1.0,0.0,0.0,0.0,0.0,0.0,1.0,0.0,1.0,0.0,0.0,0.0,0.0,0.5456060914285715,0.4693118253468619,0.4693118253468619,2.646602112,2.0,0.17732617351840327,0.9999999999978693,1,0.9999999999978693,1.0,0.0,False,0.4693118253468619,True,0.0,False,0.0,False,0.0,False,1.0,0.0,0.7943770036568871
h108_strict_intersection_c48_a085_610a26a0,1007,143,id06,2024-08-13,2024-08-12,S4,6,0.9950664304036774,0.994587849082666,2.261135646556417e-05,0.3117314285714285,0.7239771428571429,0.0076916571428571,0.9747428571428572,1.0,0.3948798857142856,1.0,1.0,0,0.0,0.0,0.0,0.0,0.0,0.0,0.0,0.0,0.0,0.0,0.0,2.7783512322680135,0.0,1.0,0.0777142857142857,0.1788571428571428,0.0,0.0,,-0.7378485714285714,0.995434338586256,0.0778690544931146,1.289048194506523e-05,0.0778690544931146,0.0,0.0,0.0,0.1074192571428571,0.9941694324158672,1,0.9941694324158672,1.8297523284603388e-06,0.8292114285714286,0.8471954346617521,0.0005890132009168,0.0005978134357681,1.0461735125942273,0.9034285714285716,0.933977604598804,0.4709940571428571,-0.1679534211681304,7.741189583845842e-05,0.994786735256774,-0.0554246289854694,1.0,2.8071304926820945e-05,2.8071304926820945e-05,0.9428571428571428,0.6971428571428572,0.81,0.9912057142857144,1.015148855829863,-0.0309727999999999,1.0,0.0,1.0,0.5742971887550201,-0.4500514963711879,-0.8930026039234458,-0.9855293386108991,-0.16950493425609692,5.0,0.6521739130434783,24.0,0.0,0.0,0.0,0.0,0.0,0.0,1.0,0.0,1.0,1.0,0.0,0.0,0.0,0.0,0.0,0.0,0.0,0.0,0.0,0.0,0.0,0.0,1.0,0.0,1.0,1.0,0.0,0.8028766285714287,0.19802272,0.023917137458333255,0.023917137458333255,1.1172000000000002,1.0,0.021408107284561263,0.999999999958189,1,0.999999999958189,1.0,0.0,False,0.023917137458333255,True,0.0,False,0.0,False,0.0,False,1.0,1.0,0.7925922687949827
h108_strict_intersection_c48_a085_610a26a0,968,138,id06,2024-07-18,2024-07-17,Q3,2,0.4927743691253319,0.4321963733197079,0.0073676515867672,0.9622742857142856,0.804777142857143,0.8663614285714285,0.1166428571428571,0.1785714285714285,0.8454457142857141,1.0,0.0,0,21.0,18.02115831398056,3.0,1.0,-0.2479050465070215,-4.869222831107984e-06,-0.0073187635516054,1.0,1.0,1.0,0.0,0.0,0.5367815247005342,0.1785714285714285,0.9417142857142856,0.9417142857142856,0.0,0.0,,0.9483,0.4320874115109612,-0.2444350683948596,0.0067324416316876,0.2444350683948596,1.0,0.0,1.0,0.8550852571428571,0.4360948678280086,1,0.5639051321719915,3.847802575600601e-06,0.7243085714285715,-0.2281216897973225,0.0008046320250879,0.0007550391546993,1.3213185207239284,0.9914285714285714,0.7421036097512338,0.9632077714285716,-0.2281216897973225,0.0064473979151725,0.4256380249591344,-0.2707660019641498,1.0,-0.0073092992823815,0.0,0.4542857142857143,0.9651428571428572,0.6885428571428572,0.0,0.0,0.6166021714285713,3.0,2.0,1.0,0.5542168674698795,-0.33410417149738975,-0.9425361545256727,-0.853134203527277,-0.5216915092004841,5.0,0.43478260869565216,24.0,0.0,0.0,1.0,0.0,0.0,0.0,0.0,0.0,0.0,0.0,0.0,0.0,1.0,1.0,0.0,0.0,0.0,0.0,0.0,0.0,0.0,1.0,0.0,1.0,0.0,0.0,0.0,0.0,0.5428922171428573,0.24255583639019015,0.24255583639019015,1.529402112,1.0,0.158595201671875,0.9999999999958772,1,0.9999999999958772,1.0,0.0,False,0.24255583639019015,True,0.0,False,0.0,False,0.0,False,1.0,0.0,0.7908400829709337
h108_strict_intersection_c48_a085_610a26a0,696,99,id04,2024-10-20,2024-10-19,S1,3,0.8934898455052352,0.8587259520627866,0.0058257971844545,0.9298857142857142,0.850937142857143,0.8727941142857143,0.0350714285714285,0.1785714285714285,0.8796946285714287,1.0,0.0,0,23.0,21.62115831398056,4.0,1.0,-0.2813973391071742,-2.7377805693174696e-06,-0.0050959595142602,1.0,1.0,1.0,1.0,0.0,0.5366966914999547,0.1785714285714285,0.9411428571428572,0.9411428571428572,1.0,1.0,episode_neighbor_q061,0.97028,0.8586419675376304,-0.322838517365682,0.0052966735371283,0.322838517365682,1.0,0.0,1.0,0.8794441142857142,0.8707320377805283,1,0.8707320377805283,1.6239376909568245e-06,0.9122971428571428,-0.2194478375405908,0.0038746844726688,0.000684000863104,1.197001510432082,0.9771428571428572,0.7508383003819002,0.9505657142857143,-0.2194478375405908,0.0025668856760896,0.8571548186257751,-0.3350374836304692,1.0,-0.0058438239245996,0.0,0.4542857142857143,0.9708571428571428,0.6895714285714285,0.0,0.0,0.6262330285714286,6.0,5.0,1.0,0.39759036144578314,0.5999661014486956,-0.8000254227913345,0.9360447378142726,0.35188101513183373,3.0,0.7307692307692307,27.0,0.0,0.0,0.0,1.0,0.0,0.0,0.0,0.0,0.0,0.0,0.0,0.0,0.0,0.0,0.0,0.0,0.0,0.0,1.0,1.0,0.0,0.0,1.0,0.0,1.0,0.0,0.0,0.0,0.43332044571428574,0.45042097232822237,0.45042097232822237,5.213726616000001,4.0,0.08639136753850385,0.9999999999977799,2,0.9999999999977799,1.0,0.2397864408495331,True,0.2106345314786893,True,0.0,False,0.0,False,0.0,False,1.0,0.0,0.7906444692568764
h108_strict_intersection_c48_a085_610a26a0,921,131,id06,2024-07-10,2024-07-09,S2,4,0.8829916701436188,0.8543097895781325,0.0037298200377897,0.86828,0.6308571428571428,0.7370014285714286,0.0366999999999999,0.1785714285714285,0.816018,1.0,0.0,0,20.0,17.52959496159584,3.0,1.0,-0.2599301853930716,-2.8767822634616726e-06,-0.0036950639691605,1.0,1.0,1.0,0.0,0.0,0.2958628776992405,0.1785714285714285,0.852,0.8537142857142858,0.0,0.0,,0.9172371428571428,0.8542791247044027,-0.2525056338707956,0.0033867345068676,0.2525056338707956,1.0,0.0,1.0,0.8147021142857142,0.8701878582610055,1,0.8701878582610055,4.528033927965582e-07,0.6949257142857144,-0.1184498637795092,7.346668543350976e-05,0.0005683521573283,0.9946162753246508,0.552,0.6066943449030647,0.6450393142857143,-0.1184498637795092,0.0007695809073315,0.8562991706716148,-0.2361843901434779,1.0,-0.0037210426188708,0.0,0.4542857142857143,0.956,0.6817714285714287,0.0,0.0,0.5802987428571427,2.0,1.0,1.0,0.5261044176706827,-0.16328447069351223,-0.9865790295918212,-0.47243956847967045,-0.8813630660146491,5.0,0.13043478260869565,24.0,0.0,0.0,0.0,0.0,1.0,0.0,0.0,0.0,0.0,0.0,1.0,1.0,0.0,0.0,0.0,0.0,0.0,0.0,0.0,0.0,0.0,0.0,1.0,0.0,1.0,0.0,0.0,0.0,0.4148430171428571,0.40044918353278824,0.40044918353278824,5.464298616000001,4.0,0.07328464486918057,0.9999999999975029,3,0.9999999999975029,1.0,0.1217487058695254,True,0.19077944198813918,True,0.0,False,0.08792103567512363,True,0.0,False,1.0,0.0,0.7876143721139861
h108_strict_intersection_c48_a085_610a26a0,250,35,id02,2024-09-03,2024-09-02,S3,5,0.9675101967434528,0.9639374796752496,0.0001962114404954,0.4688571428571429,0.3170571428571428,-0.1084461714285713,0.9816,0.9988571428571428,0.5239604571428572,1.0,1.0,0,0.0,0.0,0.0,0.0,0.0,0.0,0.0,0.0,0.0,0.0,0.0,1.8176419379079616,0.0,0.9988571428571428,0.0777142857142857,0.1788571428571428,0.0,0.0,,-0.7702142857142857,0.9644847645777672,-0.0921674051683143,0.0001284363118271,0.0921674051683143,0.0,0.0,0.0,0.142866,0.9517848459021236,1,0.9517848459021236,3.203388959246838e-06,0.9440685714285716,0.442602854471708,0.0042182908988472,0.0004947022536737,0.8657289439291352,0.0234285714285714,0.8640348564500435,0.0061457142857143,-0.4111340349320058,0.0034359337763776,0.9629639936909726,-0.1356742315275627,1.0,-0.0001085595254259,0.0,0.4542857142857143,0.9,0.6127714285714286,0.995257142857143,0.8537368894037138,0.0557868571428571,1.0,0.0,1.0,0.14056224899598393,0.7727602671207603,0.6346980144599881,0.4724395684796713,-0.8813630660146488,1.0,0.25806451612903225,32.0,0.0,0.0,0.0,0.0,0.0,1.0,0.0,0.0,1.0,1.0,0.0,0.0,0.0,0.0,0.0,0.0,0.0,0.0,0.0,0.0,0.0,0.0,1.0,0.0,1.0,1.0,0.0,0.6098651412244899,0.022070114285714287,0.01676158216604104,0.01676158216604104,1.1172000000000002,1.0,0.015003206378469415,0.9999999999403398,1,0.9999999999403398,1.0,0.0,False,0.01676158216604104,True,0.0,False,0.0,False,0.0,False,1.0,1.0,0.7872635759928408
h108_strict_intersection_c48_a085_610a26a0,198,28,id02,2024-08-27,2024-08-26,Q3,2,0.6741076586824011,0.6462659287870366,0.0017398372141286,0.699457142857143,0.5051371428571428,0.5937433714285716,0.1930428571428571,0.1785714285714285,0.5995531428571429,1.0,0.0,0,13.0,11.930315893559122,3.0,1.0,-0.1261051653122945,-1.311890548668424e-06,-0.0017282327401319,1.0,1.0,1.0,0.0,0.0,0.1899070103888226,0.1785714285714285,0.7462857142857143,0.7485714285714286,0.0,0.0,,0.8024371428571428,0.6462354427606603,-0.1242904431287843,0.0015852834770324,0.1242904431287843,1.0,0.0,1.0,0.6986115428571429,0.6589956824826942,1,0.6589956824826942,2.881444219743811e-07,0.5462285714285715,-0.0680008993544727,0.0018380120328722,0.0005666846835938,0.991698196289266,0.4508571428571428,0.6213674782330295,0.5430028571428571,-0.0680008993544727,0.0005157539969335,0.6513951913238865,-0.1016451601624334,1.0,-0.0016851366923851,0.0,0.4542857142857143,0.8428571428571429,0.6362571428571429,0.0,0.0,0.4838330285714285,1.0,0.0,1.0,0.11244979919678715,0.6492081680558328,0.7606107772899287,0.8531342035272768,-0.5216915092004845,1.0,0.03225806451612903,32.0,0.0,0.0,1.0,0.0,0.0,0.0,0.0,0.0,1.0,1.0,0.0,0.0,0.0,0.0,0.0,0.0,0.0,0.0,0.0,0.0,0.0,1.0,0.0,1.0,0.0,0.0,0.0,0.0,0.4891638742857143,0.4760916105038868,0.4760916105038868,2.646602112,2.0,0.17988786767193016,0.9999999999978996,1,0.9999999999978996,1.0,0.0,False,0.4760916105038868,True,0.0,False,0.0,False,0.0,False,1.0,0.0,0.7868524921140336
h108_strict_intersection_c48_a085_610a26a0,46,6,id01,2024-08-07,2024-08-06,S2,4,0.5542707137333157,0.5079000114409025,0.0043286808494996,0.8142285714285714,0.6720971428571428,0.7310633714285715,0.0538428571428571,0.1785714285714285,0.76602,1.0,0.0,0,17.0,15.930570287203524,3.0,1.0,-0.187477432001766,-2.322773919911558e-06,-0.0043027997627339,1.0,1.0,1.0,0.0,0.0,0.2438201576419227,0.1785714285714285,0.8154285714285714,0.8154285714285714,0.0,0.0,,0.9092485714285714,0.5078700021527768,-0.1864588253782299,0.0039434095516447,0.1864588253782299,1.0,0.0,1.0,0.806968057142857,0.5275718430031864,0,0.5275718430031864,8.375597254674218e-07,0.6705257142857143,-0.1075420694221698,0.0011618584939225,0.000552308101579,0.966539177763344,0.1114285714285714,0.7008373609332922,0.4346314285714285,-0.1075420694221698,0.0014377326563966,0.512946389349208,-0.1661442990545822,1.0,-0.0042827087097742,0.0,0.4542857142857143,0.9348571428571428,0.6768857142857143,0.0,0.0,0.5745287999999998,2.0,1.0,1.0,0.024096385542168676,0.15082429716137383,0.9885605855918885,0.43874910597176514,0.8986096048946822,0.0,0.23076923076923078,27.0,0.0,0.0,0.0,0.0,1.0,0.0,0.0,0.0,0.0,0.0,1.0,1.0,0.0,0.0,0.0,0.0,0.0,0.0,0.0,0.0,0.0,0.0,1.0,0.0,1.0,0.0,0.0,0.0,0.42314659428571433,0.4222882419527811,0.4222882419527811,5.213726616000001,4.0,0.08099547081290616,0.999999999997632,2,0.999999999997632,1.0,0.22071695154921694,True,0.2015712904035641,True,0.0,False,0.0,False,0.0,False,1.0,0.0,0.7868294466282872
h108_strict_intersection_c48_a085_610a26a0,1020,145,id06,2024-08-15,2024-08-14,S3,5,0.9287371041949244,0.9089850431629808,0.0027261164221769,0.8974057142857143,0.7951771428571428,0.8290942285714284,0.0467285714285714,0.1785714285714285,0.8912345142857142,1.0,0.0,0,21.0,18.02115831398056,3.0,1.0,-0.2675828115112105,-2.3877879138627275e-06,-0.0027106703475388,1.0,1.0,1.0,0.0,0.0,0.4584844927696639,0.1785714285714285,0.9308571428571428,0.9308571428571428,0.0,0.0,,0.9351171428571428,0.9089117140154698,-0.2670311609784908,0.0024857385523719,0.2670311609784908,1.0,0.0,1.0,0.8271529142857142,0.9139825171084348,1,0.9139825171084348,9.070811609935956e-07,0.7949714285714287,-0.2041890359376106,0.0008662176810626,0.0006260282627155,1.0955494597522266,0.9411428571428572,0.6539392245900708,0.9030121142857144,-0.2041890359376106,0.0015495594707994,0.9083703932655922,-0.2735521338475872,1.0,-0.0027439017062468,0.0,0.4542857142857143,0.9657142857142856,0.681,0.0,0.0,0.5915470857142856,3.0,2.0,1.0,0.5823293172690763,-0.4945268361343749,-0.8691623601738199,-0.9998209226697378,-0.01892412724101922,5.0,0.7391304347826086,24.0,0.0,0.0,0.0,0.0,0.0,1.0,0.0,0.0,0.0,0.0,0.0,0.0,1.0,1.0,0.0,0.0,0.0,0.0,0.0,0.0,0.0,0.0,1.0,0.0,1.0,0.0,0.0,0.0,0.4535889942857143,0.2765242591904217,0.2765242591904217,2.646602112,2.0,0.10448274711809691,0.9999999999963838,1,0.9999999999963838,1.0,0.0,False,0.2765242591904217,True,0.0,False,0.0,False,0.0,False,1.0,0.0,0.7853294854852804
h108_strict_intersection_c48_a085_610a26a0,1670,238,id10,2024-08-23,2024-08-22,S2,4,0.3488878067821828,0.3083559401604746,0.0036874207789394,0.7564114285714286,0.4493171428571429,0.5961230285714285,0.0799571428571428,0.1785714285714285,0.677718,1.0,0.0,0,16.0,14.59793088228352,3.0,1.0,-0.1895176455637449,-2.9844426119273133e-06,-0.003668930145452,1.0,1.0,1.0,0.0,0.0,0.1179835071647707,0.1785714285714285,0.6131428571428571,0.6251428571428571,0.0,0.0,,0.8403800000000001,0.3083584287088082,-0.1838734577381104,0.0033602202611582,0.1838734577381104,1.0,0.0,1.0,0.762799,0.3374471236917855,0,0.6625528763082145,1.6045957751514124e-07,0.3596114285714286,-0.0507599732847222,3.2462196362659235e-06,0.0005803533666668,1.0156183916670158,0.8245714285714286,0.3498456836747925,0.7990668,-0.0507599732847222,0.0002895938151972,0.3185591567522575,-0.1364696831819064,1.0,-0.0034458993794189,0.0,0.4542857142857143,0.9011428571428572,0.6647142857142857,0.0,0.0,0.5368274285714285,4.0,3.0,1.0,0.9558232931726908,-0.2740198888186059,0.9617240251401848,-0.7397584510798221,0.6728725243729174,9.0,0.47619047619047616,22.0,0.0,0.0,0.0,0.0,1.0,0.0,0.0,0.0,0.0,0.0,0.0,0.0,0.0,0.0,1.0,1.0,0.0,0.0,0.0,0.0,0.0,0.0,1.0,0.0,1.0,0.0,0.0,0.0,0.39398560000000005,0.4206588458232432,0.4206588458232432,6.570326616000001,5.0,0.06402403874394835,0.9999999999976228,3,0.9999999999976228,1.0,0.17712752095091167,True,0.16706840602155365,True,0.0,False,0.07646291885077791,True,0.0,False,1.0,0.0,0.7841093668568575
h108_strict_intersection_c48_a085_610a26a0,1710,244,id10,2024-09-21,2024-09-20,Q3,2,0.5400753569136227,0.498893379807641,0.0034026535995247,0.8754685714285714,0.5386171428571429,0.6959991428571428,0.1400428571428571,0.1785714285714285,0.7556897142857143,1.0,0.0,0,21.0,18.02115831398056,3.0,1.0,-0.1677205362030827,-2.693608428931755e-06,-0.0033798287893793,1.0,1.0,1.0,0.0,0.0,0.1874477638613856,0.1785714285714285,0.7411428571428571,0.744,0.0,0.0,,0.8752657142857143,0.4988772036569434,-0.1651372158978113,0.0030985550257653,0.1651372158978113,1.0,0.0,1.0,0.7775454285714286,0.5156350903591566,1,0.5156350903591566,6.650208939043495e-07,0.6522971428571429,-0.0980852650788847,0.0045542828441575,0.0005539919507935,0.9694859138887292,0.1268571428571428,0.5801533088983964,0.4300379428571429,-0.0980852650788847,0.0011997069737091,0.5051450024295229,-0.1400652868461525,1.0,-0.0033267501369738,0.0,0.4542857142857143,0.9057142857142856,0.6657428571428572,0.0,0.0,0.5502257142857143,5.0,4.0,1.0,0.9799196787148594,-0.1258339115993703,0.9920513226096732,-0.3695318309407569,0.9292180723175653,9.0,0.7619047619047619,22.0,0.0,0.0,1.0,0.0,0.0,0.0,0.0,0.0,0.0,0.0,0.0,0.0,0.0,0.0,0.0,0.0,1.0,1.0,0.0,0.0,0.0,1.0,0.0,1.0,0.0,0.0,0.0,0.0,0.5004705714285714,0.1998467996928745,0.1998467996928745,1.1172000000000002,1.0,0.1788818472007658,0.9999999999949961,1,0.9999999999949961,1.0,0.0,False,0.1998467996928745,True,0.0,False,0.0,False,0.0,False,1.0,0.0,0.7839958228565422
h108_strict_intersection_c48_a085_610a26a0,1746,249,id10,2024-09-27,2024-09-26,S1,3,0.3773608752980388,0.3127624333247269,0.0091155735311322,0.8831542857142858,0.5179971428571428,0.690814,0.0579857142857142,0.1785714285714285,0.8190133714285714,1.0,0.0,0,17.0,15.930570287203524,3.0,1.0,-0.2939231827999586,-2.795253214332239e-06,-0.0090611184928648,1.0,1.0,1.0,0.0,0.0,0.3527314826131513,0.1785714285714285,0.8868571428571429,0.8891428571428571,0.0,0.0,,0.9020028571428572,0.3127202863588021,-0.2866670861255017,0.0083244644712191,0.2866670861255017,1.0,0.0,1.0,0.8175011142857144,0.3517481831738587,0,0.6482518168261413,8.558704452463823e-07,0.7679314285714286,-0.1105985578415615,0.0022617089568091,0.0005574550632375,0.975546360665676,0.1714285714285714,0.7820470506375558,0.4687496571428571,-0.1105985578415618,0.0014092884301611,0.3302356311675493,-0.2063543903564975,1.0,-0.0084276613096818,0.0,0.4542857142857143,0.9502857142857144,0.6845142857142857,0.0,0.0,0.5828673142857143,4.0,3.0,1.0,1.0,-2.4492935982947064e-16,1.0,-7.347880794884119e-16,1.0,9.0,1.0,22.0,0.0,0.0,0.0,1.0,0.0,0.0,0.0,0.0,0.0,0.0,0.0,0.0,0.0,0.0,1.0,1.0,0.0,0.0,0.0,0.0,0.0,0.0,1.0,0.0,1.0,0.0,0.0,0.0,0.4493535885714286,0.2609250473167519,0.2609250473167519,2.646602112,2.0,0.09858869458827565,0.9999999999961676,1,0.9999999999961676,1.0,0.0,False,0.2609250473167519,True,0.0,False,0.0,False,0.0,False,1.0,0.0,0.7832175092566829
h108_strict_intersection_c48_a085_610a26a0,1061,151,id06,2024-08-25,2024-08-24,S2,4,0.9981439428441186,0.998512435704624,3.934155003913753e-05,0.403,0.7080171428571429,0.5408174285714287,0.3351285714285714,0.1785714285714285,0.4874879999999999,1.0,1.0,0,3.0,2.92297889772664,1.0,1.0,0.2216834577455344,-1.0398812883710049e-08,-3.9341550039137536e-05,1.0,0.0,0.0,0.0,0.0,3.3307603116267783,0.1785714285714285,0.9737142857142858,0.9737142857142858,0.0,0.0,,0.6423457142857143,0.999521326407364,1.3565697715067513,0.0006829433096435,1.3565697715067513,1.0,0.0,1.0,0.6416208000000001,0.9937327727306972,1,0.9937327727306972,1.160456504662981e-06,0.7978742857142858,0.6761912270338843,0.0001475624698845,0.0004930671839675,0.862867571943241,0.0222857142857142,0.7965956916172178,0.3023445714285714,-1.221308772966056,0.0032250526296801,0.9981439428441186,0.0,0.0,0.0,0.0,0.4542857142857143,0.2202857142857142,0.0,0.997977142857143,1.8974999999999405,0.7023259428571428,6.0,5.0,1.0,0.606425702811245,-0.6199605408122385,-0.7846329892604547,-0.9067516281939827,0.42166513345018397,5.0,1.0,24.0,0.0,0.0,0.0,0.0,1.0,0.0,0.0,0.0,0.0,0.0,0.0,0.0,0.0,0.0,0.0,0.0,0.0,0.0,1.0,1.0,0.0,0.0,1.0,0.0,1.0,0.0,0.0,0.0,0.4397429942857143,0.841194154132322,0.841194154132322,8.337876096,7.0,0.10088830110293606,0.9999999999988113,4,0.9999999999988113,1.0,0.05955306784479404,True,0.050981448308255024,True,0.5640128590743976,True,0.16664677890487545,True,0.0,False,0.0,1.0,0.7821345883427144
