kbsooo/etri/hitl/h107_h088_antipode_toxicity_solver_hsjepa/h107_top_antipode_cells.csv
candidate_id,flat_index,row,subject_id,sleep_date,lifelog_date,target,target_index,h057_prob,q061,cell_q061_gain,public_score,invariant_score,private_safe_score,latent_shortcut_energy,bad_pressure_rank,h068_cell_health,outside_h069_cell,outside_h070_cell,is_h050_null,source_count,source_weight,source_family_count,source_consensus,source_mean_move,source_action_delta,source_posterior_delta,hit_h071,hit_h074,hit_h076,hit_h079,h080_bad_same_raw,h080_bad_opp_raw,h080_bad_same_rank,h080_bad_opp_rank,h080_bad_margin_rank,h079_cell,h079_row,h079_role,h080_cell_score,h085_q,h085_q_move,h085_q_gain,h085_abs_q_move,h082_cell,h084_dark_cell,source_agrees_h085,h085_cell_score,q_hard,best_world_y,confidence,hard_gain,combined_score,hard_logit_delta,binary_shock,h086_resp_weight,h086_resp_lift,h086_resp_rank,h086_equation_alignment,h086_resp_action_score,hard_logit_move,hard_diag_gain,h088_prob,h088_logit_move,h088_active,h088_q_delta,h088_q_bad,h088_bad_rank,h088_move_abs_rank,h088_toxicity,h057_positive_weight,h057_positive_logit_move,h095_safe_cell_score,sleep_dow,lifelog_dow,date_gap_days,row_norm,row_sin1,row_cos1,row_sin3,row_cos3,subject_idx,within_subject_norm,subject_block_size,target_Q1,target_Q2,target_Q3,target_S1,target_S2,target_S3,target_S4,sleep_dow_0,lifelog_dow_0,sleep_dow_1,lifelog_dow_1,sleep_dow_2,lifelog_dow_2,sleep_dow_3,lifelog_dow_3,sleep_dow_4,lifelog_dow_4,sleep_dow_5,lifelog_dow_5,sleep_dow_6,lifelog_dow_6,is_q,is_s,is_subjective_quality,is_objective_stage,h057_h088_anti_conflict,h057_h088_same_conflict,conflict_strength,h098_frontier_cell_score,h106_vote_weight,h106_vote_consensus,h106_move,h106_score,h106_seed_row,h106_seed_neighbor,h106_seed_subject,h107_move,h107_align_h057,h107_align_h106,h107_align_or_consensus,h107_q2_penalty,h107_antipode_score
h107_strict_antitoxic_core_c44_a045_a0ea1eec,1014,144,id06,2024-08-14,2024-08-13,S4,6,0.9998058840987556,0.999999,0.0001878660951298,0.4405142857142857,0.670817142857143,0.5434293142857143,0.1422142857142857,0.1785714285714285,0.4980106285714286,1.0,0.0,0,6.0,4.40455491164904,2.0,1.0,5.268648544483414,-3.5150398796986695e-08,-0.0001878660951298,1.0,1.0,0.0,0.0,0.0,6.034330388536917,0.1785714285714285,0.9782857142857144,0.9782857142857144,0.0,0.0,,0.7044885714285714,0.999999,5.268648544483414,0.000117729057531,5.268648544483414,1.0,0.0,1.0,0.6072445142857142,0.999999,1,0.999999,1.7467234430170068e-08,0.5226628571428571,3.3711485444838587,2.7591020357320417e-08,0.0006997032448845,1.2244806785479692,0.9822857142857144,0.9594344415016696,0.7915548571428572,2.5,0.0001756977740381,0.9999723777413126,1.9499999999954376,1.0,-0.0001645621039854,0.0,0.4542857142857143,0.9897142857142858,0.645257142857143,0.69908,-1.897499999999555,0.4643764571428572,2.0,1.0,1.0,0.5783132530120482,-0.47243956847967067,-0.881363066014649,-0.9955262728085589,-0.09448513188803238,5.0,0.6956521739130435,24.0,0.0,0.0,0.0,0.0,0.0,0.0,1.0,0.0,0.0,0.0,1.0,1.0,0.0,0.0,0.0,0.0,0.0,0.0,0.0,0.0,0.0,0.0,1.0,0.0,1.0,1.0,0.0,0.45108636342857156,0.3302119314285714,7.14915620997434,0.9683891052017026,-0.16813939963362598,1.295161735507351,1.0,1.0,1.0,-0.28,1.0,1.0,1.0,0.0,0.8946147407853813
h107_strict_antitoxic_core_c44_a045_a0ea1eec,1011,144,id06,2024-08-14,2024-08-13,S1,3,0.9371612173475234,0.938050068105242,6.737603625239785e-06,0.4181828571428572,0.670817142857143,0.3955945714285715,0.6061428571428571,0.5925714285714285,0.4131582857142857,1.0,1.0,0,6.0,4.40455491164904,2.0,1.0,0.0151939330276178,-6.324202084681502e-08,-6.737603625239785e-06,1.0,1.0,0.0,0.0,0.0138457385950436,0.1370545027048125,0.5348571428571428,0.6497142857142857,0.6337142857142857,0.0,0.0,,0.5285085714285714,0.9380567154476852,0.0153083269528511,6.2253993175220845e-06,0.0153083269528511,1.0,0.0,1.0,0.3138071428571428,0.9435072112803232,1,0.9435072112803232,4.9518479574132515e-08,0.518,0.0565603896332951,0.0020106260677631,0.0005674055906361,0.992959783613246,0.4982857142857143,0.487265744782802,0.3616179428571429,0.1132081278206009,0.0003532406767614,0.9454074004541292,0.1494347287231923,1.0,0.0004958561125027,0.0004958561125027,0.9994285714285714,0.9171428571428571,0.9388285714285716,0.9012857142857144,-0.0566477381873058,0.1303845714285714,2.0,1.0,1.0,0.5783132530120482,-0.47243956847967067,-0.881363066014649,-0.9955262728085589,-0.09448513188803238,5.0,0.6956521739130435,24.0,0.0,0.0,0.0,1.0,0.0,0.0,0.0,0.0,0.0,0.0,1.0,1.0,0.0,0.0,0.0,0.0,0.0,0.0,0.0,0.0,0.0,0.0,1.0,0.0,1.0,1.0,0.0,0.8461527795918369,0.7918176,7.14915620997434,0.9999999999992513,-0.1214472501887783,0.9219465357752265,1.0,1.0,1.0,-0.06724562792543654,1.0,1.0,1.0,0.0,0.8827379977141809
h107_strict_antitoxic_core_c44_a045_a0ea1eec,1001,143,id06,2024-08-13,2024-08-12,Q1,0,0.2092269005697418,0.2089219578518885,2.8112041883243677e-07,0.2036971428571428,0.7239771428571429,0.4493369714285714,0.4697285714285715,0.1785714285714285,0.2708112,1.0,1.0,0,11.0,8.46508252903368,2.0,1.0,-0.001844088639247,-2.5733492812731393e-10,-2.811204188324367e-07,1.0,1.0,0.0,0.0,0.0,0.2475444819520837,0.1785714285714285,0.8182857142857143,0.8182857142857143,0.0,0.0,,0.5362942857142857,0.2088731251040907,-0.0021395802130861,3.443420287796428e-07,0.0021395802130861,0.0,0.0,1.0,0.2474148,0.1954998359663392,0,0.8045001640336608,2.029760534566282e-07,0.5569485714285715,-0.0679898442374993,0.0026140759999864,0.0005749680522457,1.006194091430059,0.748,0.6201089184571771,0.5372242285714286,-0.0850698678716392,0.0005789513017284,0.2002522879358252,-0.0551265446534379,1.0,0.0002292094574748,0.0002292094574748,0.9862857142857144,0.6948571428571428,0.8541142857142858,0.8878,0.0170800236341399,0.0637723428571428,1.0,0.0,1.0,0.5742971887550201,-0.4500514963711879,-0.8930026039234458,-0.9855293386108991,-0.16950493425609692,5.0,0.6521739130434783,24.0,1.0,0.0,0.0,0.0,0.0,0.0,0.0,0.0,1.0,1.0,0.0,0.0,0.0,0.0,0.0,0.0,0.0,0.0,0.0,0.0,0.0,1.0,0.0,1.0,0.0,1.0,0.0,0.758282662857143,0.46207152000000007,6.402001538901983,0.9999999999972975,0.03756811524094731,0.2619464330103525,0.0,1.0,1.0,0.024806945094047055,1.0,1.0,1.0,0.0,0.8471827938281931
h107_strict_antitoxic_core_c44_a045_a0ea1eec,1150,164,id07,2024-07-26,2024-07-25,Q3,2,0.4259565486750093,0.4269931880734391,2.196973457047058e-06,0.2573485714285714,0.5277371428571428,0.3815033714285714,0.4755571428571428,0.1785714285714285,0.3029848571428571,1.0,1.0,0,4.0,7.150759261260218,1.0,1.0,0.0018921461975348,-3.1386519561959727e-09,-1.501803454773649e-06,0.0,0.0,0.0,1.0,0.0,0.1449356177140495,0.1785714285714285,0.6674285714285715,0.6782857142857143,1.0,1.0,seed_q061_companion,0.4895571428571429,0.4270190049503677,0.0043437215818961,2.100024117157595e-06,0.0043437215818961,1.0,0.0,1.0,0.2906211428571428,0.4461046069309509,0,0.5538953930690491,3.0615352131698396e-07,0.5612685714285714,0.0658539470598237,0.0014462362567198,0.0005931515106564,1.0380151436487377,0.8931428571428571,0.3058667154411794,0.6421355428571428,0.0819453714389487,0.0008269628319164,0.4365566105950964,0.043218942955514,1.0,0.0001829166359995,0.0001829166359995,0.9805714285714284,0.6462857142857142,0.8331428571428572,0.8843714285714287,-0.0160914243791249,0.1454114285714285,4.0,3.0,1.0,0.6586345381526104,-0.839699808785118,-0.5430508550092121,-0.15082429716137438,0.9885605855918884,6.0,0.41379310344827586,30.0,0.0,0.0,1.0,0.0,0.0,0.0,0.0,0.0,0.0,0.0,0.0,0.0,0.0,0.0,1.0,1.0,0.0,0.0,0.0,0.0,0.0,1.0,0.0,1.0,0.0,1.0,0.0,0.7368077387755103,0.5973442857142858,8.518706264653822,0.9999999999975884,-0.03163935474170283,0.26059553297462307,1.0,1.0,1.0,-0.0194485243299813,1.0,1.0,1.0,0.0,0.8470287285710909
h107_strict_antitoxic_core_c44_a045_a0ea1eec,1010,144,id06,2024-08-14,2024-08-13,Q3,2,0.7530964107373385,0.7533060688078742,1.1822187706567187e-07,0.1906514285714285,0.670817142857143,0.3328430285714286,0.4842571428571429,0.4268571428571429,0.2659077142857142,1.0,1.0,0,3.0,1.4815760139224,1.0,1.0,0.0011278662604456,-5.3211147464858437e-11,-1.1822187706567182e-07,0.0,1.0,0.0,0.0,0.00365308581125,0.156435418150198,0.4182857142857142,0.6862857142857143,0.688,0.0,0.0,,0.4532971428571428,0.7533312901862517,0.0012635893748875,1.350275770084508e-07,0.0012635893748875,1.0,0.0,1.0,0.2487823428571428,0.7611739450510254,1,0.7611739450510254,4.467222197900529e-08,0.3201142857142857,0.029716187931472,0.0017199612737889,0.000627826127369,1.0986957228958183,0.9451428571428572,0.3740817901993886,0.643182742857143,0.0439311011078744,0.0001767593750644,0.7637201240802629,0.0579890534623943,1.0,0.0002959477991754,0.0002959477991754,0.992,0.7085714285714285,0.8645428571428572,0.919554285714286,-0.0458518275004828,0.1008794285714285,2.0,1.0,1.0,0.5783132530120482,-0.47243956847967067,-0.881363066014649,-0.9955262728085589,-0.09448513188803238,5.0,0.6956521739130435,24.0,0.0,0.0,1.0,0.0,0.0,0.0,0.0,0.0,0.0,0.0,1.0,1.0,0.0,0.0,0.0,0.0,0.0,0.0,0.0,0.0,0.0,1.0,0.0,1.0,0.0,1.0,0.0,0.794994089469388,0.7304870285714288,14.610509212882812,0.9999999999995494,-0.09874026229563637,0.9448706905684106,1.0,1.0,1.0,-0.026095074058077438,1.0,1.0,1.0,0.0,0.8351166748570797
h107_strict_antitoxic_core_c44_a045_a0ea1eec,1588,226,id09,2024-09-21,2024-09-20,S4,6,0.7104535414465696,0.7110198835302667,7.799049277501524e-07,0.2826114285714286,0.5007771428571429,0.3803166285714286,0.4467285714285715,0.1785714285714285,0.3474061714285714,1.0,1.0,0,2.0,1.93657810305736,1.0,1.0,0.0027547162616905,-1.664293927511782e-09,-7.799049277501525e-07,1.0,0.0,0.0,0.0,0.0,0.2177525377063177,0.1785714285714285,0.7822857142857143,0.7834285714285715,0.0,0.0,,0.50158,0.7110755884780996,0.0030258408548433,8.562511311094312e-07,0.0030258408548433,1.0,0.0,1.0,0.2848805142857142,0.7253842671965738,1,0.7253842671965738,2.206396430290567e-07,0.6813028571428571,0.0614132157370143,0.0049648432062501,0.0005549856304347,0.971224853260826,0.1394285714285714,0.8634167914483498,0.2099168,0.0737409588063007,0.0005475538557093,0.7158923589273024,0.0265888406197017,1.0,5.590302905544853e-05,5.590302905544853e-05,0.9537142857142856,0.5765714285714286,0.7840857142857143,0.8783542857142858,-0.0123277430692864,0.1520126857142857,5.0,4.0,1.0,0.9076305220883534,-0.5483371924577639,0.8362573308303713,-0.9855293386108988,-0.16950493425609892,8.0,0.9615384615384616,27.0,0.0,0.0,0.0,0.0,0.0,0.0,1.0,0.0,0.0,0.0,0.0,0.0,0.0,0.0,0.0,0.0,1.0,1.0,0.0,0.0,0.0,0.0,1.0,0.0,1.0,1.0,0.0,0.6887050475102041,0.7385512114285714,0.9254185123888681,0.9999999999747616,-0.02783004861711932,0.08408622165085358,0.0,0.0,0.0,-0.011964978278865765,1.0,1.0,1.0,0.0,0.8289192567964667
h107_strict_antitoxic_core_c44_a045_a0ea1eec,1648,235,id10,2024-08-18,2024-08-17,S1,3,0.4417929445429617,0.4398709071831416,7.492245988616197e-06,0.30676,0.5461771428571429,0.4148501142857143,0.5146714285714286,0.1785714285714285,0.3663373714285714,1.0,1.0,0,2.0,1.93657810305736,1.0,1.0,-0.0077973493311028,-3.1725781293275054e-09,-7.492245988616198e-06,1.0,0.0,0.0,0.0,0.0,0.1636737056440429,0.1785714285714285,0.6988571428571428,0.7045714285714286,0.0,0.0,,0.5150028571428572,0.4398418298912831,-0.0079153660860226,7.025978487229523e-06,0.0079153660860226,0.0,0.0,1.0,0.2543275428571429,0.4179947324889194,1,0.5820052675110805,1.93917057404474e-07,0.4762514285714286,-0.052437884996985,0.0007453739810781,0.0005665154730841,0.9914020778972672,0.4388571428571428,0.3750616430908325,0.3326517714285714,-0.0971220280322209,0.0011530415904558,0.4365303704696214,-0.0213668461670888,1.0,1.4557500645162593e-05,1.4557500645162593e-05,0.9268571428571428,0.5577142857142857,0.7538,0.9074514285714288,0.0446841430352355,0.1104748571428571,6.0,5.0,1.0,0.9437751004016064,-0.3459690901728594,0.9382459105399628,-0.8722647273621952,0.4890339920698307,9.0,0.3333333333333333,22.0,0.0,0.0,0.0,1.0,0.0,0.0,0.0,0.0,0.0,0.0,0.0,0.0,0.0,0.0,0.0,0.0,0.0,0.0,1.0,1.0,0.0,0.0,1.0,0.0,1.0,1.0,0.0,0.684036886857143,0.23954177142857144,4.9488293131076055,0.9999999999986624,0.09819267232691507,0.5766177592417523,0.0,0.0,0.0,0.00961508077518996,1.0,1.0,1.0,0.0,0.7859857982855272
h107_strict_antitoxic_core_c44_a045_a0ea1eec,950,135,id06,2024-07-14,2024-07-13,S3,5,0.9998174319302912,0.9999690243965154,9.66556169085143e-05,0.41248,0.4153771428571429,0.4060846285714286,0.1434428571428571,0.1785714285714285,0.4921344,1.0,1.0,0,10.0,8.8123413858064,2.0,1.0,1.7740747865535766,-2.262030586979623e-08,-9.66556169085143e-05,1.0,1.0,0.0,0.0,0.0,5.8767346452884475,0.1785714285714285,0.9777142857142858,0.9777142857142858,0.0,0.0,,0.6325457142857144,0.999999,5.2073046728950665,0.0001106688193046,5.2073046728950665,1.0,0.0,1.0,0.5681642857142857,0.999999,1,0.999999,1.5611654156441006e-08,0.5173485714285715,3.3098046728945274,8.273637275291179e-08,0.0006977555522572,1.221072216450262,0.9817142857142858,0.9460383938620918,0.760486742857143,2.5,0.0001650960133852,0.9999740212292776,1.9499999999975175,1.0,-0.0001546556291109,0.0,0.4542857142857143,0.9914285714285714,0.6443142857142858,0.7002114285714286,-1.897500000000539,0.4285694857142857,6.0,5.0,1.0,0.5421686746987951,-0.2618644849608063,-0.9651046531419334,-0.7137661126871386,-0.7003841348713511,5.0,0.30434782608695654,24.0,0.0,0.0,0.0,0.0,0.0,1.0,0.0,0.0,0.0,0.0,0.0,0.0,0.0,0.0,0.0,0.0,0.0,0.0,1.0,1.0,0.0,0.0,1.0,0.0,1.0,1.0,0.0,0.4511562264489797,0.4576712342857143,1.876233656080796,0.9999999999957969,0.08242440417834676,0.20014805906178004,0.0,0.0,1.0,-0.28,1.0,0.0,1.0,0.0,0.7636336309714286
h107_strict_antitoxic_core_c44_a045_a0ea1eec,1148,164,id07,2024-07-26,2024-07-25,Q1,0,0.5726236359257583,0.5785182382955152,7.107495999258973e-05,0.3531828571428571,0.5277371428571428,-0.0308976285714285,0.9647428571428572,0.9491428571428572,0.3696770285714286,1.0,1.0,0,4.0,7.150759261260218,1.0,1.0,0.0107728068932244,-1.2662505403575502e-08,-4.8598608335352806e-05,0.0,0.0,0.0,1.0,0.2847313265208278,0.0,0.9405714285714286,0.0777142857142857,0.1788571428571428,1.0,1.0,seed_q061_companion,0.2934971428571428,0.5784324143683724,0.023777970260246,6.281269137575762e-05,0.023777970260246,0.0,1.0,1.0,0.2427167428571428,0.6057356549616199,0,0.6057356549616199,2.395791371501162e-07,0.5222971428571428,-0.0601479714388651,0.0028665154478622,0.0005256559126248,0.919897847093514,0.0462857142857142,0.2934742653132805,0.0831499428571428,0.1368584367882453,0.0022566059611043,0.5926098562501864,0.082201326412172,1.0,0.0003458175576152,0.0003458175576152,0.9942857142857144,0.7868571428571428,0.8911714285714286,0.9825542857142858,-0.1970064082271105,0.0275415999999998,4.0,3.0,1.0,0.6586345381526104,-0.839699808785118,-0.5430508550092121,-0.15082429716137438,0.9885605855918884,6.0,0.41379310344827586,30.0,1.0,0.0,0.0,0.0,0.0,0.0,0.0,0.0,0.0,0.0,0.0,0.0,0.0,0.0,1.0,1.0,0.0,0.0,0.0,0.0,0.0,1.0,0.0,1.0,0.0,1.0,0.0,0.8756243064489797,0.6744735314285715,4.887968748948608,0.9999999999993625,-0.2086259551103846,1.3058082026752087,1.0,1.0,1.0,-0.0369905968854774,1.0,1.0,1.0,0.0,0.7631344180570536
h107_strict_antitoxic_core_c44_a045_a0ea1eec,978,139,id06,2024-07-19,2024-07-18,S3,5,0.9998322183658211,0.999999,0.0001616728804585,0.4656228571428571,0.5280971428571429,0.4865783428571429,0.1508142857142857,0.1785714285714285,0.5339149714285715,1.0,0.0,0,20.0,17.52959496159584,3.0,1.0,4.949453310907217,-4.8125692751349655e-08,-0.0001614180034248,1.0,1.0,1.0,0.0,0.0,5.6968126966891885,0.1785714285714285,0.9765714285714284,0.9765714285714284,0.0,0.0,,0.707,0.999999,5.1228301330624095,0.0001016286010929,5.1228301330624095,0.0,0.0,1.0,0.5420378857142857,0.999999,1,0.999999,1.39734928052286e-08,0.5102685714285714,3.225330133061135,0.0,0.0006646334757489,1.1631085825605856,0.9657142857142856,0.9670264094251232,0.7171987428571429,2.5,0.0001515211396148,0.9999761255879857,1.9500000000024809,1.0,-0.0001419710140791,0.0,0.4542857142857143,0.9948571428571428,0.6441428571428571,0.7005885714285714,-1.8975000000012745,0.3646849142857143,4.0,3.0,1.0,0.5582329317269076,-0.3577789366275639,-0.9338063142352645,-0.8901457403773956,-0.4556759384562435,5.0,0.4782608695652174,24.0,0.0,0.0,0.0,0.0,0.0,1.0,0.0,0.0,0.0,0.0,0.0,0.0,0.0,0.0,1.0,1.0,0.0,0.0,0.0,0.0,0.0,0.0,1.0,0.0,1.0,1.0,0.0,0.4512791240816327,0.40608277714285723,3.798406829172758,0.09106044715917995,0.01114193531494598,0.01646628324336487,0.0,1.0,1.0,-0.28,1.0,0.0,1.0,0.0,0.7545283589714287
h107_strict_antitoxic_core_c44_a045_a0ea1eec,1003,143,id06,2024-08-13,2024-08-12,Q3,2,0.7974211568605402,0.7976028404050293,1.0219184443105437e-07,0.1975142857142857,0.7239771428571429,0.3612903428571428,0.4418571428571428,0.428,0.2734751428571428,1.0,1.0,0,9.0,6.528504425976319,2.0,1.0,0.0011250688438861,-5.3973778056587786e-11,-1.0219184443105437e-07,1.0,1.0,0.0,0.0,0.0036869899416043,0.2033244741112442,0.4194285714285714,0.7645714285714286,0.7622857142857142,0.0,0.0,,0.4938285714285715,0.7976486346250319,0.0014087668147091,1.4579317042517914e-07,0.0014087668147091,0.0,0.0,1.0,0.2141395999999999,0.8042915887861274,0,0.8042915887861274,6.427869809191278e-08,0.4171542857142857,0.038301195431796,0.0034032669145295,0.000583616319535,1.02132855918633,0.8502857142857143,0.3996342215272672,0.5556594285714285,0.0430822151337688,0.0001473572723578,0.801907638378985,0.02800623506122,1.0,5.662968595832041e-05,5.662968595832041e-05,0.9542857142857144,0.5817142857142857,0.7860285714285715,0.8718800000000001,-0.0047810197019728,0.0492705142857143,1.0,0.0,1.0,0.5742971887550201,-0.4500514963711879,-0.8930026039234458,-0.9855293386108991,-0.16950493425609692,5.0,0.6521739130434783,24.0,0.0,0.0,1.0,0.0,0.0,0.0,0.0,0.0,1.0,1.0,0.0,0.0,0.0,0.0,0.0,0.0,0.0,0.0,0.0,0.0,0.0,1.0,0.0,1.0,0.0,1.0,0.0,0.685322590857143,0.32353276571428574,8.574774156156407,0.9999999999927149,-0.010405405660680826,0.07743414315076068,0.0,1.0,1.0,-0.012602805777548999,1.0,1.0,1.0,0.0,0.7495745347418372
h107_strict_antitoxic_core_c44_a045_a0ea1eec,249,35,id02,2024-09-03,2024-09-02,S2,4,0.8823122084998396,0.881625272331127,2.2683932919820293e-06,0.3141771428571429,0.3170571428571428,0.3076631428571429,0.5137285714285714,0.1785714285714285,0.362382,1.0,1.0,0,0.0,0.0,0.0,0.0,0.0,0.0,0.0,0.0,0.0,0.0,0.0,0.0,0.2800586053484107,0.1785714285714285,0.8428571428571429,0.844,0.0,0.0,,-0.5605257142857143,0.8815578212908938,-0.0072449921663491,2.4887918590454916e-06,0.0072449921663491,0.0,0.0,0.0,0.1059947428571428,0.8728222570809246,1,0.8728222570809246,1.6048527488541938e-07,0.6375885714285714,-0.0718540747710767,0.0025778289398956,0.0005714536940665,1.000043964616444,0.6754285714285714,0.6785783715599005,0.3989555428571429,-0.0883644115187145,0.0004239501228325,0.8792503666371515,-0.0291602558011754,1.0,2.2478691047267407e-05,2.2478691047267407e-05,0.9377142857142856,0.5857142857142857,0.7718571428571429,0.8785085714285715,0.0165103367476378,-0.0347169142857142,1.0,0.0,1.0,0.14056224899598393,0.7727602671207603,0.6346980144599881,0.4724395684796713,-0.8813630660146488,1.0,0.25806451612903225,32.0,0.0,0.0,0.0,0.0,1.0,0.0,0.0,0.0,1.0,1.0,0.0,0.0,0.0,0.0,0.0,0.0,0.0,0.0,0.0,0.0,0.0,0.0,1.0,0.0,1.0,1.0,0.0,0.6780831159183675,0.25910259428571436,6.8829819973598285,0.9999999999974618,0.03720551369592912,0.24257410029100665,0.0,0.0,0.0,0.01312211511052893,1.0,1.0,1.0,0.0,0.7419237141710733
h107_strict_antitoxic_core_c44_a045_a0ea1eec,6,0,id01,2024-07-31,2024-07-30,S4,6,0.5084298008946088,0.5091151839410136,9.39781743536372e-07,0.1482914285714285,0.5036571428571429,0.3172508,0.4932142857142857,0.1785714285714285,0.2109301714285714,1.0,1.0,0,0.0,0.0,0.0,0.0,0.0,0.0,0.0,0.0,0.0,0.0,0.0,0.0,0.1856015952715258,0.1785714285714285,0.7337142857142858,0.736,0.0,0.0,,-0.5764400000000001,0.5091590368126224,0.0029178468760701,9.681413111195525e-07,0.0029178468760701,0.0,0.0,0.0,0.0957847428571428,0.5223625210687107,1,0.5223625210687107,1.4679869777242745e-07,0.45888,0.045010420029887,0.0019122187266242,0.000551777393772,0.9656104391011492,0.108,0.502682123038882,0.0688006857142857,0.0557874001969457,0.000388523838803,0.5114968799282992,0.0122732280433281,1.0,9.8721686667691e-06,9.8721686667691e-06,0.9217142857142856,0.5114285714285715,0.7346857142857143,0.8756571428571429,-0.0107769801670586,-0.0351718857142857,2.0,1.0,1.0,0.0,0.0,1.0,0.0,1.0,0.0,0.0,27.0,0.0,0.0,0.0,0.0,0.0,0.0,1.0,0.0,0.0,0.0,1.0,1.0,0.0,0.0,0.0,0.0,0.0,0.0,0.0,0.0,0.0,0.0,1.0,0.0,1.0,1.0,0.0,0.6433327934693878,0.57472224,14.624286960576873,0.9999999999987573,-0.03576487004711348,0.3033194861948564,0.0,0.0,0.0,-0.005522952619497645,1.0,1.0,1.0,0.0,0.7364385202283975
h107_strict_antitoxic_core_c44_a045_a0ea1eec,770,110,id05,2024-10-02,2024-10-01,Q1,0,0.4457613572912907,0.4446197321658457,2.638097124085803e-06,0.2371828571428571,0.2893571428571428,0.2574944571428571,0.4836714285714286,0.1785714285714285,0.2760210285714286,1.0,1.0,0,0.0,0.0,0.0,0.0,0.0,0.0,0.0,0.0,0.0,0.0,0.0,0.0,0.1055051425367162,0.1785714285714285,0.5851428571428572,0.6034285714285714,0.0,0.0,,-0.606377142857143,0.4446010323705447,-0.0046977710067961,2.479994732684787e-06,0.0046977710067961,0.0,0.0,0.0,0.0907273428571428,0.4292185546786456,1,0.5707814453213543,6.006279015544573e-08,0.2898971428571428,-0.0295269485120191,0.0011591776230444,0.0005626725428305,0.984676949953438,0.2708571428571428,0.4847610851958686,0.1221519428571428,-0.0672285164342494,0.0005552949648749,0.442110294817913,-0.0147902736155348,1.0,9.846046346573267e-06,9.846046346573267e-06,0.9205714285714286,0.5262857142857142,0.7383428571428572,0.90416,0.0377015679222298,-0.0382115428571428,2.0,1.0,1.0,0.44176706827309237,0.3577789366275641,-0.9338063142352645,0.8901457403773968,-0.45567593845624127,4.0,0.15,21.0,1.0,0.0,0.0,0.0,0.0,0.0,0.0,0.0,0.0,0.0,1.0,1.0,0.0,0.0,0.0,0.0,0.0,0.0,0.0,0.0,0.0,1.0,0.0,1.0,0.0,1.0,0.0,0.6675800777142857,0.28291313142857144,7.385517813154017,0.9999999999985814,0.06203632545477096,0.4149590645640044,0.0,0.0,0.0,0.0066556231269906604,1.0,1.0,1.0,0.0,0.7244461957712299
h107_strict_antitoxic_core_c44_a045_a0ea1eec,949,135,id06,2024-07-14,2024-07-13,S2,4,0.9120002370412033,0.9128559625035724,4.575502052239777e-06,0.3906628571428571,0.4153771428571429,0.2220676,0.6870285714285714,0.6325714285714286,0.400656,0.0,1.0,0,0.0,0.0,0.0,0.0,0.0,0.0,0.0,0.0,0.0,0.0,0.0,0.0306072182800029,0.0387905347810696,0.6485714285714286,0.4114285714285714,0.3845714285714285,0.0,0.0,,-0.6916942857142857,0.9128484616979826,0.0106153362211465,4.091754492618893e-06,0.0106153362211465,0.0,0.0,0.0,0.0204137714285714,0.9250982584531292,1,0.9250982584531292,2.2462660630838865e-07,0.7114057142857144,0.1055641087159346,0.0028894661390598,0.0005657735831001,0.9901037704252228,0.4017142857142857,0.1604154161182626,0.1480686857142857,0.1754166861823174,0.0011206919463118,0.916900949362351,0.062660043836634,1.0,0.0001017187385513,0.0001017187385513,0.9645714285714284,0.7251428571428571,0.8401142857142857,0.9117314285714286,-0.0698525774663827,-0.1410235428571428,6.0,5.0,1.0,0.5421686746987951,-0.2618644849608063,-0.9651046531419334,-0.7137661126871386,-0.7003841348713511,5.0,0.30434782608695654,24.0,0.0,0.0,0.0,0.0,1.0,0.0,0.0,0.0,0.0,0.0,0.0,0.0,0.0,0.0,0.0,0.0,0.0,0.0,1.0,1.0,0.0,0.0,1.0,0.0,1.0,1.0,0.0,0.765958597877551,0.5573068457142858,2.8910092992246947,0.9999999999980714,-0.11658093768966464,0.5244759131335283,0.0,0.0,1.0,-0.0281970197264853,1.0,1.0,1.0,0.0,0.7242802243425872
h107_strict_antitoxic_core_c44_a045_a0ea1eec,1651,235,id10,2024-08-18,2024-08-17,S4,6,0.694453103168171,0.692519258745744,8.80199338038068e-06,0.3776571428571428,0.5461771428571429,0.3415236571428572,0.6363714285714286,0.4611428571428571,0.4020548571428571,1.0,1.0,0,2.0,1.93657810305736,1.0,1.0,-0.0090977656768795,-1.5153059639965843e-08,-8.80199338038068e-06,1.0,0.0,0.0,0.0,0.0110276853229074,0.0677063922836001,0.5062857142857143,0.4914285714285714,0.5017142857142857,0.0,0.0,,0.4595371428571428,0.6925099213035104,-0.0091416161705367,8.086645592486619e-06,0.0091416161705367,0.0,0.0,1.0,0.2121241714285714,0.6754200404553632,1,0.6754200404553632,1.202045296033204e-07,0.5109028571428571,-0.0441077522835295,0.0031533250328787,0.000571202273135,0.999603977986322,0.6685714285714286,0.3153677382338156,0.3956851428571428,-0.0882184933543172,0.0008441006167392,0.6903194737050469,-0.0194080685379496,1.0,2.349549555136221e-06,2.349549555136221e-06,0.9131428571428571,0.5491428571428572,0.7378571428571429,0.9048857142857144,0.0441107410707876,0.0760081142857142,6.0,5.0,1.0,0.9437751004016064,-0.3459690901728594,0.9382459105399628,-0.8722647273621952,0.4890339920698307,9.0,0.3333333333333333,22.0,0.0,0.0,0.0,0.0,0.0,0.0,1.0,0.0,0.0,0.0,0.0,0.0,0.0,0.0,0.0,0.0,0.0,0.0,1.0,1.0,0.0,0.0,1.0,0.0,1.0,1.0,0.0,0.6676763877551022,0.2888579542857143,13.12458441226554,0.9999999999994155,0.08474075094718334,0.6661912815246375,0.0,0.0,0.0,0.00873363084207732,1.0,1.0,1.0,0.0,0.722184134514204
h107_strict_antitoxic_core_c44_a045_a0ea1eec,1013,144,id06,2024-08-14,2024-08-13,S3,5,0.9522076528619444,0.951030851055967,1.509834010707256e-05,0.4260571428571428,0.670817142857143,0.0757880857142856,0.9469714285714286,0.9308571428571428,0.4453364571428572,1.0,1.0,0,0.0,0.0,0.0,0.0,0.0,0.0,0.0,0.0,0.0,0.0,0.0,0.337421922395201,0.0,0.9537142857142856,0.0777142857142857,0.1788571428571428,0.0,0.0,,-0.7011571428571429,0.9511648346262598,-0.0226808888572636,1.0793325352420611e-05,0.0226808888572636,0.0,0.0,0.0,0.0697650857142857,0.9463979428642126,1,0.9463979428642126,7.913949188770699e-08,0.5184228571428572,0.0736220453953238,0.0012356743014629,0.0005537828437696,0.969119976596906,0.1251428571428571,0.5912107460614958,0.0202428571428571,-0.1208419165152991,0.0003573805720112,0.9444020832456476,-0.1595113298001926,1.0,0.0004413604881809,0.0004413604881809,0.996,0.9268571428571428,0.9379714285714286,0.9526514285714286,0.1944639619106229,-0.1030012571428571,2.0,1.0,1.0,0.5783132530120482,-0.47243956847967067,-0.881363066014649,-0.9955262728085589,-0.09448513188803238,5.0,0.6956521739130435,24.0,0.0,0.0,0.0,0.0,0.0,1.0,0.0,0.0,0.0,0.0,1.0,1.0,0.0,0.0,0.0,0.0,0.0,0.0,0.0,0.0,0.0,0.0,1.0,0.0,1.0,1.0,0.0,0.8935598213877551,0.27296273142857147,3.6637693074013087,0.9999999999992281,0.22,1.1823701962081288,1.0,1.0,1.0,0.07178009841008667,1.0,1.0,1.0,0.0,0.7213740334856062
h107_strict_antitoxic_core_c44_a045_a0ea1eec,23,3,id01,2024-08-03,2024-08-02,Q3,2,0.5825405612758282,0.5795370659761659,1.8534940263270627e-05,0.2811657142857143,0.6352171428571428,0.1250753999999999,0.8544285714285714,0.9097142857142856,0.3286348571428571,0.0,1.0,0,3.0,5.4,1.0,1.0,-0.0020563557839757,-1.3985871682512395e-09,-5.640630085346209e-06,0.0,0.0,0.0,1.0,0.127484423230084,0.0059622151491581,0.8485714285714285,0.2148571428571428,0.1788571428571428,1.0,1.0,episode_neighbor_q061,0.28076,0.5795635192393868,-0.0122295736452776,1.6570339673616097e-05,0.0122295736452776,1.0,0.0,1.0,0.1879783428571428,0.5577169744059128,0,0.5577169744059128,8.511330267661373e-11,0.1802285714285714,0.0011137372782469,0.0033986064699007,0.0005605465865673,0.9809565264928056,0.22,0.1387492598971923,0.2050615999999999,-0.1013098164667343,0.0012604154204444,0.5729004845201093,-0.0395164455506682,1.0,7.263366103893443e-05,7.263366103893443e-05,0.9571428571428572,0.6308571428571429,0.8040571428571429,0.9461771428571428,0.1024235537449813,0.0526738285714285,5.0,4.0,1.0,0.012048192771084338,0.0756287458844567,0.997136045279652,0.225155940522694,0.9743227403932134,0.0,0.11538461538461539,27.0,0.0,0.0,1.0,0.0,0.0,0.0,0.0,0.0,0.0,0.0,0.0,0.0,0.0,0.0,0.0,0.0,1.0,1.0,0.0,0.0,0.0,1.0,0.0,1.0,0.0,1.0,0.0,0.760780490122449,0.5840420685714287,3.0061376520171494,0.9999999999981126,0.1145614007781702,0.5243761754641578,0.0,0.0,0.0,0.017782400497800693,1.0,1.0,1.0,0.0,0.7174666796568787
h107_strict_antitoxic_core_c44_a045_a0ea1eec,709,101,id04,2024-10-24,2024-10-23,Q3,2,0.7836327157945403,0.7816403087409958,1.168048358135554e-05,0.2945942857142857,0.2851371428571428,-0.0389592857142857,0.8681142857142857,0.8714285714285714,0.3298454285714285,1.0,1.0,0,2.0,3.6,1.0,1.0,-0.0018739318165117,-2.0788438578953267e-09,-3.417201348221433e-06,0.0,0.0,0.0,1.0,0.112718299813475,0.0,0.832,0.0777142857142857,0.1788571428571428,1.0,1.0,episode_neighbor_q061,0.2406514285714286,0.7816747794316019,-0.0115100999444255,1.0263480041294848e-05,0.0115100999444255,0.0,0.0,1.0,0.1124250857142857,0.7718980136932254,1,0.7718980136932254,1.1513008166658741e-08,0.2556914285714285,0.0152658122683577,0.0015390106257885,0.0005705088303653,0.9983904531393746,0.6508571428571429,0.2558821948728312,0.3108536,-0.0679034849537958,0.0004009186480832,0.7766653504406011,-0.0406248364023611,1.0,6.144628333681901e-05,6.144628333681901e-05,0.9554285714285714,0.6377142857142857,0.8043142857142858,0.9279028571428573,0.0831692972221536,-0.0305217142857143,3.0,2.0,1.0,0.40562248995983935,0.5588441929376095,-0.8292726741066004,0.9784091409455726,0.2066774126849536,3.0,0.8076923076923077,27.0,0.0,0.0,1.0,0.0,0.0,0.0,0.0,0.0,0.0,0.0,0.0,0.0,1.0,1.0,0.0,0.0,0.0,0.0,0.0,0.0,0.0,1.0,0.0,1.0,0.0,1.0,0.0,0.7463255237551022,0.5417878857142857,3.0667222248778767,0.9999999999983062,0.12513597673666654,0.5713245898668148,0.0,0.0,0.0,0.018281176381062497,1.0,1.0,1.0,0.0,0.7109289005711915
h107_strict_antitoxic_core_c44_a045_a0ea1eec,948,135,id06,2024-07-14,2024-07-13,S1,3,0.9734003575300472,0.973869257464141,4.27031754200724e-06,0.2894857142857143,0.4153771428571429,0.3433262285714286,0.4297285714285715,0.1785714285714285,0.3458441142857142,1.0,1.0,0,2.0,1.93657810305736,1.0,1.0,0.0182668759527704,-6.783755927062974e-09,-4.27031754200724e-06,1.0,0.0,0.0,0.0,0.0,0.6721905000622236,0.1785714285714285,0.9554285714285714,0.9554285714285714,0.0,0.0,,0.5057228571428571,0.974056188023359,0.0256381782046499,7.623804536976975e-06,0.0256381782046499,1.0,0.0,1.0,0.3323978857142857,0.980817671875396,1,0.980817671875396,7.548363998751178e-07,0.7854285714285714,0.3446132577608978,0.0004295859545019,0.0005796575197187,1.0144006595078832,0.816,0.6653164722172068,0.6087560000000001,0.3344994478363832,0.0011746399717037,0.9765267673632434,0.1282437362729367,1.0,0.000120434605223,0.000120434605223,0.9697142857142858,0.8891428571428571,0.8942,0.8769542857142857,0.0101138099245203,0.1683793142857143,6.0,5.0,1.0,0.5421686746987951,-0.2618644849608063,-0.9651046531419334,-0.7137661126871386,-0.7003841348713511,5.0,0.30434782608695654,24.0,0.0,0.0,0.0,1.0,0.0,0.0,0.0,0.0,0.0,0.0,0.0,0.0,0.0,0.0,0.0,0.0,0.0,0.0,1.0,1.0,0.0,0.0,1.0,0.0,1.0,0.0,1.0,0.0,0.4472482171428571,0.886584014171012,0.9999999999916573,-0.08787984128464758,0.17019550791961327,0.0,0.0,1.0,-0.05770968132282152,0.0,1.0,1.0,0.0,0.7073491489131178
h107_strict_antitoxic_core_c44_a045_a0ea1eec,70,10,id01,2024-08-13,2024-08-12,Q1,0,0.0845240805884701,0.0842013651106576,6.737279700796961e-07,0.2023371428571428,0.602737142857143,0.3906834857142857,0.4868142857142857,0.1785714285714285,0.2460342857142857,1.0,1.0,0,2.0,1.94687670251848,1.0,1.0,-0.0041777863526295,-2.782961929837571e-09,-6.737279700796962e-07,1.0,0.0,0.0,0.0,0.0,0.1611402369820103,0.1785714285714285,0.6954285714285714,0.7005714285714286,0.0,0.0,,0.4868200000000001,0.0841553820138037,-0.0047742538749995,8.004620907220428e-07,0.0047742538749995,1.0,0.0,1.0,0.2852368,0.0754263273970388,1,0.9245736726029612,6.630912627711728e-09,0.4210057142857143,-0.0181895997749585,0.0044344727901558,0.0008266039117698,1.4465568455972857,0.9954285714285714,0.1536011274572291,0.6799027428571429,-0.123768763578473,0.0005532529424936,0.0841390992428633,-0.0049855360102926,1.0,-8.778279230181596e-07,0.0,0.4542857142857143,0.4725714285714286,0.4595142857142857,0.9854057142857144,0.2081028812496921,0.2454533714285714,1.0,0.0,1.0,0.040160642570281124,0.2496673968626068,0.968331653383204,0.6867513112135011,0.7268924518431438,0.0,0.38461538461538464,27.0,1.0,0.0,0.0,0.0,0.0,0.0,0.0,0.0,1.0,1.0,0.0,0.0,0.0,0.0,0.0,0.0,0.0,0.0,0.0,0.0,0.0,1.0,0.0,1.0,0.0,1.0,0.0,0.4528080029387756,0.3913596228571429,0.9919023337731939,0.9999999999171052,0.007905277161449448,0.024272077219253157,0.0,0.0,0.0,0.00224349120463167,1.0,1.0,1.0,0.0,0.6949944147312518
h107_strict_antitoxic_core_c44_a045_a0ea1eec,1153,164,id07,2024-07-26,2024-07-25,S3,5,0.8114316233549538,0.8129887509730154,7.939960443903438e-06,0.1875085714285714,0.5277371428571428,0.2590490857142856,0.5700857142857143,0.4445714285714285,0.306936,1.0,1.0,0,4.0,7.150759261260218,1.0,1.0,0.3695999999999992,-0.000418391461814,0.0090873447459736,0.0,0.0,0.0,1.0,0.004617974513143,0.0414269474669469,0.4314285714285714,0.4211428571428571,0.4571428571428571,1.0,1.0,seed_hardtail,0.4368742857142856,0.8129847541752478,0.0101827729204322,7.1893361767716435e-06,0.0101827729204322,1.0,0.0,1.0,0.2626705142857142,0.8276021121509791,1,0.8276021121509791,5.32025972518485e-08,0.4338171428571428,0.0361397720596656,0.001909698614804,0.0005618909675197,0.9833091931595876,0.2554285714285714,-0.1388834772158921,0.2157661714285714,0.109387949415636,0.0008741227429472,0.8204968531199776,0.060377894169503,1.0,0.0001816353473442,0.0001816353473442,0.98,0.7182857142857143,0.8542571428571428,0.9192914285714286,-0.0732481773559703,0.1178602285714285,4.0,3.0,1.0,0.6586345381526104,-0.839699808785118,-0.5430508550092121,-0.15082429716137438,0.9885605855918884,6.0,0.41379310344827586,30.0,0.0,0.0,0.0,0.0,0.0,1.0,0.0,0.0,0.0,0.0,0.0,0.0,0.0,0.0,1.0,1.0,0.0,0.0,0.0,0.0,0.0,0.0,1.0,0.0,1.0,1.0,0.0,0.7853112692244898,0.7967975657142858,0.0,0.0,0.0,0.0,1.0,1.0,1.0,-0.02717005237627635,1.0,0.0,1.0,0.0,0.6756339050285716
h107_strict_antitoxic_core_c44_a045_a0ea1eec,692,98,id04,2024-10-19,2024-10-18,S4,6,0.5214942199375637,0.5220806282002836,6.890459806063731e-07,0.1991714285714285,0.4586171428571429,0.1756905714285715,0.6144571428571429,0.6337142857142857,0.2882345142857143,1.0,1.0,0,0.0,0.0,0.0,0.0,0.0,0.0,0.0,0.0,0.0,0.0,0.0,0.0166549901710211,0.0640435912665656,0.56,0.4845714285714286,0.4805714285714286,0.0,0.0,,-0.6675114285714286,0.5220939306128404,0.0024034092933237,6.55804488269851e-07,0.0024034092933237,0.0,0.0,0.0,0.0311753714285714,0.5317358803323887,0,0.5317358803323887,1.616032067237963e-08,0.2549485714285714,0.0153557474784382,0.005842441771129,0.0005639505118782,0.9869133957869688,0.3177142857142857,0.3199408510132027,0.0963508571428571,0.041084505048586,0.0002103100861962,0.525141978301795,0.0146229027435558,1.0,1.7903928382079215e-05,1.7903928382079215e-05,0.932,0.5251428571428571,0.7487428571428572,0.8981142857142858,-0.0257287575701478,-0.0963236571428572,5.0,4.0,1.0,0.39357429718875503,0.6199605408122387,-0.7846329892604544,0.9067516281939827,0.4216651334501838,3.0,0.6923076923076923,27.0,0.0,0.0,0.0,0.0,0.0,0.0,1.0,0.0,0.0,0.0,0.0,0.0,0.0,0.0,0.0,0.0,1.0,1.0,0.0,0.0,0.0,0.0,1.0,0.0,1.0,1.0,0.0,0.6724566563265306,0.5486207771428572,9.81445982772841,0.9999999999989942,-0.06584784823628405,0.4702932394805306,0.0,0.0,0.0,-0.00658030623460011,1.0,1.0,1.0,0.0,0.6700998475427162
h107_strict_antitoxic_core_c44_a045_a0ea1eec,431,61,id03,2024-08-19,2024-08-18,S2,4,0.3710434597203731,0.3692515525433949,6.88404145421373e-06,0.2283599999999999,0.3370171428571429,0.2767198285714285,0.4746142857142857,0.1785714285714285,0.301308,0.0,1.0,0,2.0,3.6,1.0,1.0,-0.0012297659195405,-3.960982746717251e-10,-2.0161537268581498e-06,0.0,0.0,0.0,1.0,0.0,0.0512708071493512,0.1785714285714285,0.4537142857142857,0.4925714285714285,1.0,1.0,episode_neighbor_q061,0.3814771428571429,0.3692343777748191,-0.0077597792771074,6.385477044568155e-06,0.0077597792771074,0.0,0.0,1.0,0.1794704571428571,0.3557729766594964,1,0.6442270233405036,2.3844188198995762e-08,0.3532228571428571,-0.018909915898664,0.0025802703377575,0.0005574504253998,0.9755382444497758,0.1708571428571428,0.1560624955544478,0.1777734857142857,-0.0660154001721844,0.0005025283157065,0.3698048101121429,-0.0053113073079726,1.0,-6.318411186589934e-06,0.0,0.4542857142857143,0.4742857142857143,0.4644857142857143,0.9088,0.0471054842735203,0.1034401142857143,0.0,6.0,1.0,0.24497991967871485,0.9995025893658627,0.03153686495097154,-0.995526272808559,-0.09448513188803126,2.0,0.1,21.0,0.0,0.0,0.0,0.0,1.0,0.0,0.0,1.0,0.0,0.0,0.0,0.0,0.0,0.0,0.0,0.0,0.0,0.0,0.0,0.0,1.0,0.0,1.0,0.0,1.0,1.0,0.0,0.42212461714285715,0.22523829714285717,0.9949964736413532,0.999999999993669,0.10318496498591656,0.3089470541686921,0.0,0.0,0.0,0.00239008828858767,1.0,1.0,1.0,0.0,0.6647264613705423
h107_strict_antitoxic_core_c44_a045_a0ea1eec,1374,196,id08,2024-09-11,2024-09-10,Q3,2,0.2963200064304016,0.2968325774382657,6.297919104003569e-07,0.19404,0.4665371428571429,0.2008126857142857,0.5463714285714286,0.4165714285714286,0.2618688571428571,1.0,1.0,0,0.0,0.0,0.0,0.0,0.0,0.0,0.0,0.0,0.0,0.0,0.0,0.0114015618015418,0.1420097414442494,0.5114285714285715,0.6605714285714286,0.6508571428571429,0.0,0.0,,-0.6395857142857143,0.2968444829584942,0.0025140138640782,6.000243865100785e-07,0.0025140138640782,0.0,0.0,0.0,0.0459093142857142,0.3111475092637512,0,0.6888524907362488,1.316196039936255e-07,0.3977714285714286,0.0473205511205339,0.0013331809729006,0.0005779741344234,1.0114547352410452,0.7954285714285714,0.4091039252404732,0.4152299428571429,0.0701236748422622,0.0005222648125069,0.2995468779973178,0.0154272084652978,1.0,1.677373705688545e-05,1.677373705688545e-05,0.9302857142857144,0.5285714285714286,0.7481428571428572,0.8949828571428572,-0.0228031237217283,-0.0831121142857143,2.0,1.0,1.0,0.7871485943775101,-0.9728829847220697,0.23129785567159294,0.7646910926171744,-0.6443970304648774,7.0,0.7777777777777778,19.0,0.0,0.0,1.0,0.0,0.0,0.0,0.0,0.0,0.0,0.0,1.0,1.0,0.0,0.0,0.0,0.0,0.0,0.0,0.0,0.0,0.0,1.0,0.0,1.0,0.0,1.0,0.0,0.6695750318367348,0.25553450285714285,3.0177594545083983,0.9999999999957929,-0.05119812219396225,0.2342519560035995,0.0,0.0,0.0,-0.00694224380938401,1.0,1.0,1.0,0.0,0.6596078174851253
h107_strict_antitoxic_core_c44_a045_a0ea1eec,1045,149,id06,2024-08-23,2024-08-22,Q3,2,0.777022604386795,0.7775838198432127,9.094835523582034e-07,0.2452285714285714,0.7814571428571429,0.4971077142857142,0.4000428571428572,0.1785714285714285,0.3107259999999999,1.0,1.0,0,3.0,2.92297889772664,1.0,1.0,0.0032420924210658,-3.0912470261600027e-10,-9.094835523582034e-07,1.0,0.0,0.0,0.0,0.0,0.1858537712571854,0.1785714285714285,0.7365714285714285,0.7382857142857143,0.0,0.0,,0.5425857142857142,0.777621434684161,0.0034595987301866,9.42369486445216e-07,0.0034595987301866,1.0,0.0,1.0,0.3223777142857142,0.7843226988551862,1,0.7843226988551862,2.080929065056975e-08,0.3280685714285714,0.0209077107112019,0.0025222814853955,0.0005842227835737,1.0223898712541133,0.8554285714285714,0.4169258789693721,0.6592931428571428,0.0426381864788305,0.0001550105418142,0.7798976448569017,0.0166709572629812,1.0,1.4018847457442083e-05,1.4018847457442083e-05,0.9257142857142856,0.5342857142857143,0.7458,0.8927142857142858,-0.0217304757676286,0.1976028571428571,4.0,3.0,1.0,0.5983935742971888,-0.5795896608992377,-0.8149084764430339,-0.9599762679439228,0.2800813542249068,5.0,0.9130434782608695,24.0,0.0,0.0,1.0,0.0,0.0,0.0,0.0,0.0,0.0,0.0,0.0,0.0,0.0,0.0,1.0,1.0,0.0,0.0,0.0,0.0,0.0,1.0,0.0,1.0,0.0,1.0,0.0,0.6657863142857143,0.4611345714285715,3.9988341291411187,0.20292148114557262,0.011304242283591141,0.019607774310441816,0.0,1.0,1.0,-0.00750193076834154,1.0,0.0,1.0,0.0,0.6572419342857144
h107_strict_antitoxic_core_c44_a045_a0ea1eec,1025,146,id06,2024-08-20,2024-08-19,S1,3,0.8954549884000682,0.8959698352864354,1.417783483670387e-06,0.3377485714285714,0.7720971428571428,0.5372021142857144,0.4566714285714286,0.1785714285714285,0.3825,1.0,1.0,0,2.0,1.93657810305736,1.0,1.0,0.0055115996762786,-7.210063458333783e-09,-1.417783483614876e-06,1.0,0.0,0.0,0.0,0.0,0.1814867640869667,0.1785714285714285,0.7262857142857143,0.7297142857142858,0.0,0.0,,0.5688714285714286,0.8960266401379597,0.0061211893265373,1.5910230796167824e-06,0.0061211893265373,0.0,0.0,1.0,0.2748399428571428,0.9013371564884484,1,0.9013371564884484,9.526538141963833e-08,0.5840571428571429,0.0605883148573789,0.0025008685591644,0.0005691878083733,0.996078664653354,0.5982857142857143,0.5025209256459693,0.4072595428571429,0.0644567290925564,0.0001879499485854,0.8960564726868825,0.006441449137962,1.0,-1.7434042313135834e-06,0.0,0.4542857142857143,0.4811428571428571,0.4641428571428571,0.6506171428571429,-0.0038684142351774,0.1833594285714285,1.0,0.0,1.0,0.5863453815261044,-0.51629923627004,-0.8564082546466804,-0.9983886888289513,0.05674527309307293,5.0,0.782608695652174,24.0,0.0,0.0,0.0,1.0,0.0,0.0,0.0,0.0,1.0,1.0,0.0,0.0,0.0,0.0,0.0,0.0,0.0,0.0,0.0,0.0,0.0,0.0,1.0,0.0,1.0,1.0,0.0,0.3019792995918367,0.4251408571428571,18.056207045720036,0.9999999999956902,-0.008352955695592745,0.08585596667523887,1.0,1.0,1.0,-0.0028986521120829,1.0,1.0,1.0,0.0,0.6556169571422538
h107_strict_antitoxic_core_c44_a045_a0ea1eec,25,3,id01,2024-08-03,2024-08-02,S2,4,0.5721461430128739,0.5692474001812561,1.715308439897978e-05,0.2180971428571428,0.6352171428571428,0.3477841714285714,0.5611428571428572,0.3691428571428571,0.3218999999999999,1.0,1.0,0,5.0,7.336578103057359,2.0,1.0,-0.0045744897704276,1.6196692702711706e-08,-8.370109973930818e-06,1.0,0.0,0.0,1.0,0.0001871254477728,0.0892358213118884,0.3691428571428571,0.544,0.5702857142857143,1.0,1.0,episode_neighbor_q061,0.3902228571428571,0.5692316505717384,-0.0118957751476015,1.5778730495630278e-05,0.0118957751476015,0.0,1.0,1.0,0.3099222857142856,0.5357652634458991,0,0.5357652634458991,3.1176136068665625e-07,0.5889828571428573,-0.0664376594808012,0.0026440532442489,0.0005465666907475,0.9564917088082932,0.0862857142857142,0.1311660561303977,0.1272876571428571,-0.147306970124154,0.0026866827580642,0.5585371896174742,-0.0553853490059162,1.0,0.0002149934652126,0.0002149934652126,0.984,0.6965714285714286,0.852,0.9302285714285716,0.0808693106433528,0.0812617142857142,5.0,4.0,1.0,0.012048192771084338,0.0756287458844567,0.997136045279652,0.225155940522694,0.9743227403932134,0.0,0.11538461538461539,27.0,0.0,0.0,0.0,0.0,1.0,0.0,0.0,0.0,0.0,0.0,0.0,0.0,0.0,0.0,0.0,0.0,1.0,1.0,0.0,0.0,0.0,0.0,1.0,0.0,1.0,1.0,0.0,0.792554742857143,0.3774747428571429,0.0,0.0,0.0,0.0,0.0,0.0,0.0,0.02492340705266229,1.0,0.0,1.0,0.0,0.648677312
h107_strict_antitoxic_core_c44_a045_a0ea1eec,1057,151,id06,2024-08-25,2024-08-24,Q1,0,0.2931200235617892,0.2940047415236316,1.8877009515527732e-06,0.3332628571428572,0.7080171428571429,0.4039888571428572,0.5654857142857144,0.4817142857142857,0.3501362285714285,1.0,1.0,0,1.0,0.98640079466928,1.0,1.0,0.0042660984396376,-1.0020730809332893e-08,-1.8877009515527732e-06,1.0,0.0,0.0,0.0,0.0069087191295727,0.1085813693048932,0.46,0.5908571428571429,0.5965714285714285,0.0,0.0,,0.4900228571428571,0.2940407945891951,0.0044397867305515,1.860541860465581e-06,0.0044397867305515,1.0,0.0,1.0,0.2779978285714286,0.3160480568474452,1,0.6839519431525547,3.543989487264716e-07,0.5622057142857144,0.0767078893727275,0.0004647756016188,0.000563572964942,0.9862526886486588,0.3011428571428571,0.2390823668590611,0.2716846857142857,0.1082853490810346,0.001250143867855,0.2941165191992924,0.0048045551477717,1.0,-2.0308272858926557e-06,0.0,0.4542857142857143,0.4708571428571428,0.4616571428571429,0.8998400000000001,-0.0315774597083073,0.2318356571428572,6.0,5.0,1.0,0.606425702811245,-0.6199605408122385,-0.7846329892604547,-0.9067516281939827,0.42166513345018397,5.0,1.0,24.0,1.0,0.0,0.0,0.0,0.0,0.0,0.0,0.0,0.0,0.0,0.0,0.0,0.0,0.0,0.0,0.0,0.0,0.0,1.0,1.0,0.0,1.0,0.0,1.0,0.0,1.0,0.0,0.4154175634285715,0.5168146514285716,11.74689253346193,0.9999999999990178,-0.056338218785209546,0.5024455169649946,1.0,1.0,1.0,-0.002162049816497265,1.0,1.0,1.0,0.0,0.642418963885577
h107_strict_antitoxic_core_c44_a045_a0ea1eec,975,139,id06,2024-07-19,2024-07-18,Q3,2,0.7439595438752091,0.7399677023608381,4.16859280448767e-05,0.3280228571428571,0.5280971428571429,-0.0332376571428571,0.9586285714285714,0.9811428571428572,0.3647565714285714,0.0,1.0,0,0.0,0.0,0.0,0.0,0.0,0.0,0.0,0.0,0.0,0.0,0.0,0.3736466735880533,0.0,0.9617142857142856,0.0777142857142857,0.1788571428571428,0.0,0.0,,-0.8055971428571429,0.7400840689307989,-0.020245643390468,3.5750219449570686e-05,0.020245643390468,0.0,0.0,0.0,0.0240670285714286,0.7314817680775492,1,0.7314817680775492,5.469611738723606e-07,0.7339085714285715,0.0994963433248757,0.0056064356772304,0.0005687243082713,0.9952675394748086,0.5782857142857143,0.415144879432044,0.2598524571428571,-0.0644977115049467,0.0004044507406137,0.7354432689956294,-0.0442335008621266,1.0,1.6260783992305683e-05,1.6260783992305683e-05,0.9297142857142856,0.6497142857142857,0.784,0.973,0.1639940548298225,-0.1154598857142857,4.0,3.0,1.0,0.5582329317269076,-0.3577789366275639,-0.9338063142352645,-0.8901457403773956,-0.4556759384562435,5.0,0.4782608695652174,24.0,0.0,0.0,1.0,0.0,0.0,0.0,0.0,0.0,0.0,0.0,0.0,0.0,0.0,0.0,1.0,1.0,0.0,0.0,0.0,0.0,0.0,1.0,0.0,1.0,0.0,1.0,0.0,0.7628320000000001,0.44296686857142864,2.971552713505406,0.999999999996314,0.05934148175669029,0.2791622987126774,0.0,1.0,1.0,0.01990507538795697,1.0,1.0,1.0,0.0,0.6393651756566268
h107_strict_antitoxic_core_c44_a045_a0ea1eec,711,101,id04,2024-10-24,2024-10-23,S2,4,0.6305675213766556,0.6351957309635454,4.6056233272473435e-05,0.40848,0.2851371428571428,0.0570570571428571,0.8619714285714286,0.7348571428571429,0.431514,1.0,1.0,0,2.0,3.6,1.0,1.0,0.0031871957880652,-8.016758951310297e-09,-1.3494262026292336e-05,0.0,0.0,0.0,1.0,0.1430243648380504,0.0,0.864,0.0777142857142857,0.1788571428571428,1.0,1.0,episode_neighbor_q061,0.2902457142857143,0.6351331487720179,0.0196499092186098,4.078936731355398e-05,0.0196499092186098,0.0,0.0,1.0,0.1718045142857143,0.6650419717950932,1,0.6650419717950932,2.0352761501509134e-09,0.2512571428571428,0.0057090605648272,0.0032792381022682,0.0005442750479921,0.9524813339863182,0.0817142857142857,0.014203639104959,0.0529656,0.1511926641849309,0.0025867160051563,0.6505488060127224,0.086800161993173,1.0,0.0004744196611539,0.0004744196611539,0.9988571428571428,0.8005714285714286,0.9029428571428572,0.9670914285714286,-0.1454836036201037,0.0032533714285713,3.0,2.0,1.0,0.40562248995983935,0.5588441929376095,-0.8292726741066004,0.9784091409455726,0.2066774126849536,3.0,0.8076923076923077,27.0,0.0,0.0,0.0,0.0,1.0,0.0,0.0,0.0,0.0,0.0,0.0,0.0,1.0,1.0,0.0,0.0,0.0,0.0,0.0,0.0,0.0,0.0,1.0,0.0,1.0,1.0,0.0,0.8732282976326531,0.6843005942857143,0.0,0.0,0.0,0.0,0.0,0.0,0.0,-0.03906007289692785,1.0,0.0,1.0,0.0,0.6124065684571428
h107_strict_antitoxic_core_c44_a045_a0ea1eec,1152,164,id07,2024-07-26,2024-07-25,S2,4,0.7538345402841149,0.7500709494352068,3.8035724328921994e-05,0.2278685714285714,0.5277371428571428,0.1399890285714284,0.7647714285714287,0.7068571428571429,0.339762,1.0,1.0,0,4.0,7.150759261260218,1.0,1.0,-0.0090085858636104,1.1216877966442056e-08,-2.598463029362642e-05,0.0,0.0,0.0,1.0,0.0840149022542807,0.0082219878324713,0.7925714285714286,0.24,0.1788571428571428,1.0,1.0,seed_q061_companion,0.2385142857142857,0.7501270305095151,-0.0198790915093278,3.358262319086425e-05,0.0198790915093278,0.0,1.0,1.0,0.2436715999999999,0.7215187706973304,1,0.7215187706973304,5.40396334747948e-09,0.3106057142857142,-0.0097533200951613,0.0028053014211901,0.0005328107600353,0.9324188300618762,0.0531428571428571,0.0354539206980433,0.0710665142857142,-0.1671612547593745,0.0027367644722983,0.7358102184035964,-0.0948644755418399,1.0,0.0004966030815453,0.0004966030815453,1.0,0.8205714285714286,0.9102571428571428,0.9704057142857144,0.1574079346642131,0.0213868571428571,4.0,3.0,1.0,0.6586345381526104,-0.839699808785118,-0.5430508550092121,-0.15082429716137438,0.9885605855918884,6.0,0.41379310344827586,30.0,0.0,0.0,0.0,0.0,1.0,0.0,0.0,0.0,0.0,0.0,0.0,0.0,0.0,0.0,1.0,1.0,0.0,0.0,0.0,0.0,0.0,0.0,1.0,0.0,1.0,1.0,0.0,0.8833187328979593,0.36941297142857143,0.0,0.0,0.0,0.0,1.0,1.0,1.0,0.042689013993827955,1.0,0.0,1.0,0.0,0.6111842565714285
h107_strict_antitoxic_core_c44_a045_a0ea1eec,979,139,id06,2024-07-19,2024-07-18,S4,6,0.8268174475003207,0.8280647752584297,5.443071396993293e-06,0.2987828571428571,0.5280971428571429,-0.0621637714285713,0.8908857142857144,0.8897142857142857,0.3496909714285714,1.0,1.0,0,0.0,0.0,0.0,0.0,0.0,0.0,0.0,0.0,0.0,0.0,0.0,0.3410531498239687,0.0,0.9548571428571428,0.0777142857142857,0.1788571428571428,0.0,0.0,,-0.7669400000000001,0.8279578930664663,0.0079853695822413,4.14051900110568e-06,0.0079853695822413,0.0,0.0,0.0,0.0013515428571428,0.8320067417020486,0,0.8320067417020486,8.242813150596908e-08,0.4974857142857143,-0.0463207552654163,0.0051338467753729,0.0005824135970977,1.0192237949209952,0.8422857142857143,0.7491083425639209,0.3983379428571428,0.0366790192570158,9.478581098798512e-05,0.8300902641257938,0.0230294411245872,1.0,1.1516764712005134e-05,1.1516764712005134e-05,0.9228571428571428,0.5622857142857143,0.7513428571428572,0.9256342857142856,-0.0829997745224322,-0.1207928,4.0,3.0,1.0,0.5582329317269076,-0.3577789366275639,-0.9338063142352645,-0.8901457403773956,-0.4556759384562435,5.0,0.4782608695652174,24.0,0.0,0.0,0.0,0.0,0.0,0.0,1.0,0.0,0.0,0.0,0.0,0.0,0.0,0.0,1.0,1.0,0.0,0.0,0.0,0.0,0.0,0.0,1.0,0.0,1.0,1.0,0.0,0.6954687088979592,0.4912916914285715,3.974071712354741,0.9999999999986805,-0.1239564793729138,0.6572857947236307,0.0,1.0,1.0,-0.01036324850606424,1.0,1.0,1.0,0.0,0.6085573943998153
h107_strict_antitoxic_core_c44_a045_a0ea1eec,776,110,id05,2024-10-02,2024-10-01,S4,6,0.4438495786612846,0.4451675276483861,3.517651817719347e-06,0.2391714285714286,0.2893571428571428,-0.0912718571428571,0.8011428571428572,0.8748571428571429,0.3034004571428571,0.0,1.0,0,0.0,0.0,0.0,0.0,0.0,0.0,0.0,0.0,0.0,0.0,0.0,0.1517560969078651,0.0055488407941821,0.8748571428571429,0.2114285714285714,0.1788571428571428,0.0,0.0,,-0.8335457142857143,0.4451219697262338,0.0051530909657626,2.983565084324624e-06,0.0051530909657626,0.0,0.0,0.0,-0.068577,0.4632074008694939,0,0.536792599130506,7.647812904665928e-08,0.2794971428571428,0.0331756448528687,0.0011639351142216,0.0005573933773258,0.975438410320314,0.168,0.5618931275998716,-0.0022037142857142,0.0781161866856486,0.0007569947114121,0.4480957780680643,0.0171855610708425,1.0,1.46086126527889e-05,1.46086126527889e-05,0.9274285714285714,0.5394285714285715,0.7487999999999999,0.9094228571428572,-0.04494054183278,-0.1995107428571428,2.0,1.0,1.0,0.44176706827309237,0.3577789366275641,-0.9338063142352645,0.8901457403773968,-0.45567593845624127,4.0,0.15,21.0,0.0,0.0,0.0,0.0,0.0,0.0,1.0,0.0,0.0,0.0,1.0,1.0,0.0,0.0,0.0,0.0,0.0,0.0,0.0,0.0,0.0,0.0,1.0,0.0,1.0,1.0,0.0,0.6809758354285714,0.47316624,7.092422022000161,0.9999999999988293,-0.07828254192084216,0.47584522976756954,0.0,0.0,0.0,-0.007733502481879126,1.0,1.0,1.0,0.0,0.6056743773712648
h107_strict_antitoxic_core_c44_a045_a0ea1eec,958,136,id06,2024-07-16,2024-07-15,S4,6,0.8793211893789878,0.8800493904202091,2.5029338155957426e-06,0.3645828571428571,0.5588971428571429,0.1084819428571429,0.7967428571428572,0.7268571428571429,0.3787347428571428,1.0,1.0,0,0.0,0.0,0.0,0.0,0.0,0.0,0.0,0.0,0.0,0.0,0.0,0.1594115670323823,0.0,0.8822857142857143,0.0777142857142857,0.1788571428571428,0.0,0.0,,-0.7095342857142858,0.8799999511198453,0.0064120263061722,1.9788838113155016e-06,0.0064120263061722,0.0,0.0,0.0,0.0212581142857142,0.8834973597348148,1,0.8834973597348148,8.471331549768475e-09,0.3511542857142857,-0.0171551486596812,0.0031343608795367,0.0005683629451615,0.9946351540327674,0.5531428571428572,0.5888697722476787,0.1944567999999999,0.039956691866398,8.300913775149965e-05,0.8807134130136618,0.0131857083159114,1.0,2.441039736456041e-07,2.441039736456041e-07,0.9085714285714286,0.5165714285714286,0.7216285714285715,0.9087942857142858,-0.0571118405260793,-0.0966108571428571,1.0,0.0,1.0,0.5461847389558233,-0.2861316735085688,-0.9581903075147368,-0.7646910926171749,-0.6443970304648767,5.0,0.34782608695652173,24.0,0.0,0.0,0.0,0.0,0.0,0.0,1.0,0.0,1.0,1.0,0.0,0.0,0.0,0.0,0.0,0.0,0.0,0.0,0.0,0.0,0.0,0.0,1.0,0.0,1.0,1.0,0.0,0.6558119221224491,0.47814422857142863,14.774026075731031,0.9999999999995725,-0.10292196867709782,0.8604718556778779,0.0,1.0,1.0,-0.00593356874216013,1.0,1.0,1.0,0.0,0.6033851131427973
h107_strict_antitoxic_core_c44_a045_a0ea1eec,492,70,id03,2024-09-16,2024-09-15,Q3,2,0.7379400612256236,0.7355869958106938,1.4288337799372997e-05,0.3116914285714286,0.6828971428571429,0.2207168285714285,0.8332285714285714,0.8417142857142857,0.3441497142857141,0.0,1.0,0,3.0,5.4,1.0,1.0,-0.0020221380359516,-3.134488404904697e-09,-4.346254514286939e-06,0.0,0.0,0.0,1.0,0.0731579621258778,0.0472847466857211,0.7742857142857142,0.44,0.1788571428571428,1.0,1.0,episode_neighbor_q061,0.3316057142857143,0.7355915224463873,-0.012109554749387,1.2950746220652398e-05,0.012109554749387,0.0,0.0,1.0,0.1411393714285714,0.7328617364915871,1,0.7328617364915871,2.4116037798910797e-07,0.5565599999999999,0.065736169256795,0.0009675930385018,0.0005668389182423,0.9919681069240556,0.4594285714285714,0.2781616572872293,0.2739041142857143,-0.0260986599217263,6.640444775363186e-05,0.7351021332494506,-0.0146242487539178,1.0,-1.3618258931202831e-05,0.0,0.4542857142857143,0.5257142857142857,0.4838571428571429,0.9333028571428572,0.0918348291785213,0.0667148571428571,0.0,6.0,1.0,0.28112449799196787,0.9809388143902331,-0.19431686088109762,-0.8327815731637613,0.553601708269484,2.0,0.55,21.0,0.0,0.0,1.0,0.0,0.0,0.0,0.0,1.0,0.0,0.0,0.0,0.0,0.0,0.0,0.0,0.0,0.0,0.0,0.0,0.0,1.0,1.0,0.0,1.0,0.0,1.0,0.0,0.45158525387755105,0.5586044000000001,4.778974186440193,0.9999999999991234,0.15516569795535648,0.8586378981718341,0.0,0.0,0.0,0.00658091193926301,1.0,1.0,1.0,0.0,0.601921553714163
h107_strict_antitoxic_core_c44_a045_a0ea1eec,26,3,id01,2024-08-03,2024-08-02,S3,5,0.8471588175105197,0.8457006217293793,8.18971166594018e-06,0.4064057142857143,0.6352171428571428,0.3304578857142856,0.7424857142857143,0.5605714285714286,0.4222368000000001,1.0,1.0,0,3.0,5.4,1.0,1.0,-0.0018696886191682,-1.1270390153788149e-08,-2.4905323716314003e-06,0.0,0.0,0.0,1.0,0.0480622967605667,0.015694640802377,0.7165714285714285,0.2914285714285714,0.1788571428571428,1.0,1.0,episode_neighbor_q061,0.4191085714285713,0.8457331265649423,-0.0109690140357172,7.123247512452746e-06,0.0109690140357172,1.0,0.0,1.0,0.2510595428571429,0.8234554286315896,0,0.8234554286315896,2.462636087542324e-07,0.5833828571428571,-0.078488862604821,0.0014556419035197,0.0005606780079834,0.9811865139709982,0.224,-0.4210886724244468,0.1978046857142856,-0.1725527733104697,0.002084496255886,0.8388965362598467,-0.0624482332364555,1.0,0.0001671083610534,0.0001671083610534,0.9777142857142858,0.7234285714285714,0.8534285714285715,0.9311657142857144,0.0940639107056486,0.1089394285714285,5.0,4.0,1.0,0.012048192771084338,0.0756287458844567,0.997136045279652,0.225155940522694,0.9743227403932134,0.0,0.11538461538461539,27.0,0.0,0.0,0.0,0.0,0.0,1.0,0.0,0.0,0.0,0.0,0.0,0.0,0.0,0.0,0.0,0.0,1.0,1.0,0.0,0.0,0.0,0.0,1.0,0.0,1.0,1.0,0.0,0.7946834253061226,0.3646882285714286,0.0,0.0,0.0,0.0,0.0,0.0,0.0,0.028101704956404974,1.0,0.0,1.0,0.0,0.5960860731428572
h107_strict_antitoxic_core_c44_a045_a0ea1eec,429,61,id03,2024-08-19,2024-08-18,Q3,2,0.769391940972039,0.7691873343964346,1.1794978560519809e-07,0.1801828571428571,0.3370171428571429,0.0740792571428571,0.6702571428571429,0.7508571428571429,0.2411588571428571,1.0,1.0,0,2.0,3.6,1.0,1.0,-0.000184451677063,-5.6483338269916636e-11,-3.4533000903280715e-08,0.0,0.0,0.0,1.0,0.0259545843659137,0.1152267987939449,0.6217142857142857,0.6057142857142858,0.572,1.0,1.0,episode_neighbor_q061,0.3079257142857142,0.769159963715853,-0.0013069844411823,1.3796569509061385e-07,0.0013069844411823,0.0,0.0,1.0,0.0993245714285714,0.7570030321951982,0,0.7570030321951982,9.349604647858497e-08,0.3282628571428571,-0.0431694753420197,0.0002337820502099,0.000570936680997,0.9991391917449192,0.6605714285714286,0.4307766506520007,0.3147865142857143,-0.0685626666458385,0.0004272632394869,0.7692349173091595,-0.0008847885427687,1.0,-1.357899670484386e-07,0.0,0.4542857142857143,0.4502857142857143,0.4517142857142857,0.8968457142857144,0.0253931913038187,0.0444745142857143,0.0,6.0,1.0,0.24497991967871485,0.9995025893658627,0.03153686495097154,-0.995526272808559,-0.09448513188803126,2.0,0.1,21.0,0.0,0.0,1.0,0.0,0.0,0.0,0.0,1.0,0.0,0.0,0.0,0.0,0.0,0.0,0.0,0.0,0.0,0.0,0.0,0.0,1.0,1.0,0.0,1.0,0.0,1.0,0.0,0.4051180212244898,0.5751226514285716,2.030774582190286,0.9999999997719006,0.0014032262735842623,0.00557763684509385,0.0,0.0,0.0,0.000398154844245915,1.0,1.0,1.0,0.0,0.5925580324252091
h107_strict_antitoxic_core_c44_a045_a0ea1eec,611,87,id04,2024-09-20,2024-09-19,Q3,2,0.5262087064141104,0.4031233706084962,0.0304304469211165,0.9348114285714284,0.668777142857143,0.7881529714285713,0.1240714285714285,0.1785714285714285,0.8152031428571428,1.0,0.0,0,22.0,22.431145652442883,4.0,1.0,-0.4072494561356441,-3.989143441440897e-06,-0.0251820984505949,1.0,1.0,1.0,1.0,0.0,0.9885766213058652,0.1785714285714285,0.9634285714285714,0.9634285714285714,1.0,1.0,episode_neighbor_q061,0.9533771428571428,0.4029349868617871,-0.4981817796394002,0.0278136487247597,0.4981817796394002,1.0,0.0,1.0,0.8573636571428571,0.419631020310157,1,0.580368979689843,1.5853105358177886e-05,0.7328342857142858,-0.4292192695252339,0.0005435105833482,0.0010115451373047,1.7702039902832445,0.9982857142857144,0.8022865849717844,0.9528608000000002,-0.4292192695252339,0.0227834373001778,0.3990894487263206,-0.5141915147230045,1.0,-0.0304934232336979,0.0,0.4542857142857143,0.9765714285714284,0.6928285714285715,0.0,0.0,0.6056266285714283,4.0,3.0,1.0,0.3493975903614458,0.8112359912185924,-0.5847188782240471,0.2981979110466653,0.9545040627715552,3.0,0.2692307692307692,27.0,0.0,0.0,1.0,0.0,0.0,0.0,0.0,0.0,0.0,0.0,0.0,0.0,0.0,0.0,1.0,1.0,0.0,0.0,0.0,0.0,0.0,1.0,0.0,1.0,0.0,0.0,0.0,0.0,0.5456060914285715,0.0,0.0,0.0,0.0,0.0,0.0,0.0,0.23138618162535204,0.0,0.0,0.0,0.0,0.5924996995428572
h107_strict_antitoxic_core_c44_a045_a0ea1eec,968,138,id06,2024-07-18,2024-07-17,Q3,2,0.4927743691253319,0.4321963733197079,0.0073676515867672,0.9622742857142856,0.804777142857143,0.8663614285714285,0.1166428571428571,0.1785714285714285,0.8454457142857141,1.0,0.0,0,21.0,18.02115831398056,3.0,1.0,-0.2479050465070215,-4.869222831107984e-06,-0.0073187635516054,1.0,1.0,1.0,0.0,0.0,0.5367815247005342,0.1785714285714285,0.9417142857142856,0.9417142857142856,0.0,0.0,,0.9483,0.4320874115109612,-0.2444350683948596,0.0067324416316876,0.2444350683948596,1.0,0.0,1.0,0.8550852571428571,0.4360948678280086,1,0.5639051321719915,3.847802575600601e-06,0.7243085714285715,-0.2281216897973225,0.0008046320250879,0.0007550391546993,1.3213185207239284,0.9914285714285714,0.7421036097512338,0.9632077714285716,-0.2281216897973225,0.0064473979151725,0.4256380249591344,-0.2707660019641498,1.0,-0.0073092992823815,0.0,0.4542857142857143,0.9651428571428572,0.6885428571428572,0.0,0.0,0.6166021714285713,3.0,2.0,1.0,0.5542168674698795,-0.33410417149738975,-0.9425361545256727,-0.853134203527277,-0.5216915092004841,5.0,0.43478260869565216,24.0,0.0,0.0,1.0,0.0,0.0,0.0,0.0,0.0,0.0,0.0,0.0,0.0,1.0,1.0,0.0,0.0,0.0,0.0,0.0,0.0,0.0,1.0,0.0,1.0,0.0,0.0,0.0,0.0,0.5428922171428573,0.0,0.0,0.0,0.0,0.0,1.0,1.0,0.12184470088386741,0.0,0.0,0.0,0.0,0.5885020574857144
h107_strict_antitoxic_core_c44_a045_a0ea1eec,1439,205,id09,2024-08-10,2024-08-09,S2,4,0.9120536048553756,0.9524343227195132,0.012027099290587,0.8584742857142857,0.8066571428571427,0.8175920571428572,0.0274428571428571,0.1785714285714285,0.8632620000000001,1.0,0.0,0,21.0,18.02115831398056,3.0,1.0,0.6490062439222484,-1.5318121967302172e-06,-0.0118541525444851,1.0,1.0,1.0,0.0,0.0,1.0589320542453886,0.1785714285714285,0.9657142857142856,0.9657142857142856,0.0,0.0,,0.9371514285714284,0.9525571197901866,0.6606523251430052,0.0111652114288583,0.6606523251430052,1.0,0.0,1.0,0.8605213714285714,0.9431289736918376,1,0.9431289736918376,4.7269402041339305e-06,0.9137371428571428,0.4694457523056781,0.002730271286216,0.0006684961072955,1.1698681877671544,0.9685714285714284,0.9435114948642572,0.9415397714285716,0.4694457523056763,0.0068064155075672,0.9553148887972904,0.7234293663893068,1.0,-0.0120206742516204,0.0,0.4542857142857143,0.9794285714285714,0.6936,0.0,0.0,0.6202340571428571,5.0,4.0,1.0,0.8232931726907631,-0.8958239295217159,0.4444091440286438,0.188124862368634,-0.9821451197042026,8.0,0.15384615384615385,27.0,0.0,0.0,0.0,0.0,1.0,0.0,0.0,0.0,0.0,0.0,0.0,0.0,0.0,0.0,0.0,0.0,1.0,1.0,0.0,0.0,0.0,0.0,1.0,0.0,1.0,0.0,0.0,0.0,0.38891769142857147,0.0,0.0,0.0,0.0,0.0,0.0,0.0,-0.28,0.0,0.0,0.0,0.0,0.5867001058285713
h107_strict_antitoxic_core_c44_a045_a0ea1eec,1035,147,id06,2024-08-21,2024-08-20,S4,6,0.9780412979073642,0.9935494323404732,0.0077285250950121,0.8813599999999999,0.920377142857143,0.8830274857142857,0.0335,0.1785714285714285,0.8490305142857144,1.0,0.0,0,21.0,18.02115831398056,3.0,1.0,1.2574985491553623,-1.913659426005037e-06,-0.0077073418657896,1.0,1.0,1.0,0.0,0.0,1.4115710139943694,0.1785714285714285,0.9702857142857144,0.9702857142857144,0.0,0.0,,0.9457742857142856,0.993606667824628,1.249697437865755,0.0072928676104191,1.249697437865755,1.0,0.0,1.0,0.8772686857142857,0.9906452113728228,1,0.9906452113728228,3.023280155981197e-06,0.9254285714285714,0.8660797102732007,0.0030526428651128,0.0006523648018112,1.1416384031697693,0.96,0.9635016154171602,0.9486580571428572,0.8660797102731892,0.0047025708388338,0.9945708961793568,1.414148921534395,1.0,-0.007718364174707,0.0,0.4542857142857143,0.9851428571428572,0.6948,0.0,0.0,0.6353376,2.0,1.0,1.0,0.5903614457831325,-0.5377429062990121,-0.8431088700310844,-0.9912377749919374,0.13208964164170217,5.0,0.8260869565217391,24.0,0.0,0.0,0.0,0.0,0.0,0.0,1.0,0.0,0.0,0.0,1.0,1.0,0.0,0.0,0.0,0.0,0.0,0.0,0.0,0.0,0.0,0.0,1.0,0.0,1.0,0.0,0.0,0.0,0.33042804571428575,0.0,0.0,0.0,0.0,0.0,1.0,1.0,-0.28,0.0,0.0,0.0,0.0,0.5841569712
h107_strict_antitoxic_core_c44_a045_a0ea1eec,900,128,id06,2024-07-07,2024-07-06,S2,4,0.9672789969212284,0.9887277680058654,0.0096723050225968,0.9303085714285716,0.7328571428571429,0.8165893142857141,0.0314142857142857,0.1785714285714285,0.8980200000000002,1.0,0.0,0,21.0,18.02115831398056,3.0,1.0,1.0728414939112352,-3.93954068051405e-06,-0.009549006647589,1.0,1.0,1.0,0.0,0.0,0.8383714548008615,0.1785714285714285,0.9611428571428572,0.9611428571428572,0.0,0.0,,0.9537342857142858,0.9887873776150952,1.0929693747486282,0.0090723333461645,1.0929693747486282,1.0,0.0,1.0,0.8601229714285714,0.9792934354891086,1,0.9792934354891086,1.6142882268254e-06,0.8669257142857142,0.4699107471588504,0.0015858372094438,0.0006275532418043,1.0982181731575424,0.9445714285714286,0.7595762272780189,0.9269741714285716,0.4699107471588504,0.0026141183796018,0.9849605617042408,0.7954558268743406,1.0,-0.0091954838252304,0.0,0.4542857142857143,0.9805714285714284,0.6936857142857142,0.0,0.0,0.6198330285714285,6.0,5.0,1.0,0.5140562248995983,-0.08820309663897628,-0.996102511663983,-0.2618644849608052,-0.9651046531419337,5.0,0.0,24.0,0.0,0.0,0.0,0.0,1.0,0.0,0.0,0.0,0.0,0.0,0.0,0.0,0.0,0.0,0.0,0.0,0.0,0.0,1.0,1.0,0.0,0.0,1.0,0.0,1.0,0.0,0.0,0.0,0.3507975885714286,0.0,0.0,0.0,0.0,0.0,0.0,1.0,-0.28,0.0,0.0,0.0,0.0,0.584113902057143
h107_strict_antitoxic_core_c44_a045_a0ea1eec,696,99,id04,2024-10-20,2024-10-19,S1,3,0.8934898455052352,0.8587259520627866,0.0058257971844545,0.9298857142857142,0.850937142857143,0.8727941142857143,0.0350714285714285,0.1785714285714285,0.8796946285714287,1.0,0.0,0,23.0,21.62115831398056,4.0,1.0,-0.2813973391071742,-2.7377805693174696e-06,-0.0050959595142602,1.0,1.0,1.0,1.0,0.0,0.5366966914999547,0.1785714285714285,0.9411428571428572,0.9411428571428572,1.0,1.0,episode_neighbor_q061,0.97028,0.8586419675376304,-0.322838517365682,0.0052966735371283,0.322838517365682,1.0,0.0,1.0,0.8794441142857142,0.8707320377805283,1,0.8707320377805283,1.6239376909568245e-06,0.9122971428571428,-0.2194478375405908,0.0038746844726688,0.000684000863104,1.197001510432082,0.9771428571428572,0.7508383003819002,0.9505657142857143,-0.2194478375405908,0.0025668856760896,0.8571548186257751,-0.3350374836304692,1.0,-0.0058438239245996,0.0,0.4542857142857143,0.9708571428571428,0.6895714285714285,0.0,0.0,0.6262330285714286,6.0,5.0,1.0,0.39759036144578314,0.5999661014486956,-0.8000254227913345,0.9360447378142726,0.35188101513183373,3.0,0.7307692307692307,27.0,0.0,0.0,0.0,1.0,0.0,0.0,0.0,0.0,0.0,0.0,0.0,0.0,0.0,0.0,0.0,0.0,0.0,0.0,1.0,1.0,0.0,0.0,1.0,0.0,1.0,0.0,0.0,0.0,0.43332044571428574,0.0,0.0,0.0,0.0,0.0,0.0,0.0,0.15076686763371114,0.0,0.0,0.0,0.0,0.5837739306285713
h107_strict_antitoxic_core_c44_a045_a0ea1eec,971,138,id06,2024-07-18,2024-07-17,S3,5,0.9951216136908172,0.9996862736136602,0.0037142326506797,0.8294171428571429,0.804777142857143,0.8018034857142857,0.0383,0.1785714285714285,0.8674930285714286,1.0,0.0,0,21.0,18.02115831398056,3.0,1.0,2.7927174053603614,-1.18473429816903e-06,-0.0037069743742507,1.0,1.0,1.0,0.0,0.0,2.389923684337805,0.1785714285714285,0.9725714285714284,0.9725714285714284,0.0,0.0,,0.9218714285714288,0.9999007351958354,3.899569755768672,0.0028929077620198,3.899569755768672,1.0,0.0,1.0,0.8390424000000001,0.9988552238486972,1,0.9988552238486972,1.3739272166667756e-06,0.8265257142857143,1.4533502665542055,0.0006635475421704,0.0006615255715621,1.1576697502336823,0.964,0.9587990848660464,0.9210134857142857,1.453350266554109,0.002081131844824,0.9993030157128252,1.950000000000211,1.0,-0.0039995308157317,0.0,0.4542857142857143,0.9942857142857144,0.6940285714285714,0.0,0.0,0.5995530285714284,3.0,2.0,1.0,0.5542168674698795,-0.33410417149738975,-0.9425361545256727,-0.853134203527277,-0.5216915092004841,5.0,0.43478260869565216,24.0,0.0,0.0,0.0,0.0,0.0,1.0,0.0,0.0,0.0,0.0,0.0,0.0,1.0,1.0,0.0,0.0,0.0,0.0,0.0,0.0,0.0,0.0,1.0,0.0,1.0,0.0,0.0,0.0,0.3521295885714286,0.0,0.0,0.0,0.0,0.0,1.0,1.0,-0.28,0.0,0.0,0.0,0.0,0.5826990277714287
h107_strict_antitoxic_core_c44_a045_a0ea1eec,907,129,id06,2024-07-08,2024-07-07,S2,4,0.993291558834372,0.999999,0.0067212260474213,0.8325428571428574,0.663397142857143,0.7361856571428573,0.0337285714285714,0.1785714285714285,0.8205600000000001,1.0,0.0,0,21.0,18.02115831398056,3.0,1.0,8.705748307653971,-1.6592991212819532e-06,-0.0067211388694605,1.0,1.0,1.0,0.0,0.0,2.313016074177314,0.1785714285714285,0.972,0.972,0.0,0.0,,0.9199457142857144,0.999999,8.817851931739384,0.0041084943232471,8.817851931739384,1.0,0.0,1.0,0.8326750571428573,0.9980490201008262,1,0.9980490201008262,1.6075012400699606e-06,0.8285600000000001,1.239813008491657,0.0005924975408954,0.0006793590845076,1.1888783978883517,0.9742857142857144,0.8502780544107282,0.918816285714286,1.239813008491657,0.002359308102114,0.9990400391428256,1.9499999999999869,1.0,-0.0057686719851668,0.0,0.4542857142857143,0.9937142857142856,0.6962571428571428,0.0,0.0,0.5935030857142856,0.0,6.0,1.0,0.5180722891566265,-0.11330767760126977,-0.9935599479631849,-0.33410417149738914,-0.942536154525673,5.0,0.043478260869565216,24.0,0.0,0.0,0.0,0.0,1.0,0.0,0.0,1.0,0.0,0.0,0.0,0.0,0.0,0.0,0.0,0.0,0.0,0.0,0.0,0.0,1.0,0.0,1.0,0.0,1.0,0.0,0.0,0.0,0.34432459428571427,0.0,0.0,0.0,0.0,0.0,0.0,1.0,-0.28,0.0,0.0,0.0,0.0,0.5820115398857143
h107_strict_antitoxic_core_c44_a045_a0ea1eec,928,132,id06,2024-07-11,2024-07-10,S2,4,0.9060132637497244,0.8721560499542845,0.0061154788500604,0.9231542857142856,0.7058171428571429,0.7999392571428572,0.0303285714285714,0.1785714285714285,0.8963100000000002,1.0,0.0,0,21.0,18.02115831398056,3.0,1.0,-0.3410484862642166,-3.0258789664251337e-06,-0.0060088819034933,1.0,1.0,1.0,0.0,0.0,0.5081951484664704,0.1785714285714285,0.9365714285714286,0.9365714285714286,0.0,0.0,,0.9430314285714286,0.8720827174576656,-0.3463998232477117,0.005553844607174,0.3463998232477117,1.0,0.0,1.0,0.8480548571428572,0.8876223814492518,1,0.8876223814492518,1.1515506365796744e-06,0.8992800000000001,-0.1992186652269651,0.0037721372653179,0.000606368514901,1.0611449010768448,0.916,0.7099482938546317,0.9049830857142857,-0.1992186652269651,0.001880179766582,0.8737863834663921,-0.3310401847201558,1.0,-0.006127748277621,0.0,0.4542857142857143,0.9697142857142858,0.6894857142857144,0.0,0.0,0.6095702857142856,3.0,2.0,1.0,0.5301204819277109,-0.1881248623686337,-0.9821451197042027,-0.5377429062990122,-0.8431088700310843,5.0,0.17391304347826086,24.0,0.0,0.0,0.0,0.0,1.0,0.0,0.0,0.0,0.0,0.0,0.0,0.0,1.0,1.0,0.0,0.0,0.0,0.0,0.0,0.0,0.0,0.0,1.0,0.0,1.0,0.0,0.0,0.0,0.4298787428571429,0.0,0.0,0.0,0.0,0.0,0.0,1.0,0.14896808312407012,0.0,0.0,0.0,0.0,0.5817428491428572
h107_strict_antitoxic_core_c44_a045_a0ea1eec,985,140,id06,2024-07-21,2024-07-20,S3,5,0.9960938897116238,0.9994360496623552,0.0022563299510225,0.7471828571428571,0.846017142857143,0.7809168571428573,0.0581,0.1785714285714285,0.7976077714285714,1.0,0.0,0,20.0,17.07462788718024,3.0,1.0,1.9773236135034031,-5.643157321854331e-07,-0.0022497631459697,1.0,1.0,1.0,0.0,0.0,2.797396225979214,0.1785714285714285,0.9731428571428572,0.9731428571428572,0.0,0.0,,0.8877171428571428,0.9997839511038686,2.8984902804483257,0.0021865743548928,2.8984902804483257,1.0,0.0,1.0,0.8155360000000001,0.999340701250878,1,0.999340701250878,1.3796026850999152e-06,0.8205142857142858,1.7823748207134749,0.0005218145881424,0.0006893869476057,1.2064271583100126,0.9788571428571428,0.9221938853693972,0.9168865142857144,1.7823748207134749,0.0020791253897543,0.9994423935962836,1.9499999999998732,1.0,-0.0029347017901949,0.0,0.4542857142857143,0.9931428571428572,0.6901714285714287,0.0,0.0,0.5783679999999999,6.0,5.0,1.0,0.5622489959839357,-0.3812259022574715,-0.9244819151546323,-0.9220586030376131,-0.3870502972022183,5.0,0.5217391304347826,24.0,0.0,0.0,0.0,0.0,0.0,1.0,0.0,0.0,0.0,0.0,0.0,0.0,0.0,0.0,0.0,0.0,0.0,0.0,1.0,1.0,0.0,0.0,1.0,0.0,1.0,0.0,0.0,0.0,0.3472910857142857,0.0,0.0,0.0,0.0,0.0,1.0,1.0,-0.28,0.0,0.0,0.0,0.0,0.579636958857143
h107_strict_antitoxic_core_c44_a045_a0ea1eec,382,54,id02,2024-10-12,2024-10-11,S2,4,0.9874623635995506,0.9992950594187844,0.0098742249193968,0.9167085714285712,0.6424971428571429,0.7666969714285714,0.0287285714285714,0.1785714285714285,0.902598,0.0,0.0,0,21.0,18.02115831398056,3.0,1.0,2.905901483795855,-2.5628818118615666e-06,-0.0098584093385148,1.0,1.0,1.0,0.0,0.0,1.6932211119844371,0.1785714285714285,0.9714285714285714,0.9714285714285714,0.0,0.0,,0.8954885714285715,0.9993466279617036,2.9663069176814068,0.0070766000211994,2.9663069176814068,1.0,0.0,1.0,0.8070653142857142,0.9942038257892696,1,0.9942038257892696,1.5448430236901651e-06,0.8076,0.7783408100811409,0.0001651915372231,0.0006508057775055,1.1389101106347974,0.9582857142857144,0.8241037085701726,0.9242318857142856,0.7783408100811409,0.0022924595925309,0.9979857885812212,1.839107922345402,1.0,-0.0093990313812459,0.0,0.4542857142857143,0.9868571428571428,0.695657142857143,0.0,0.0,0.5572281142857143,5.0,4.0,1.0,0.21686746987951808,0.9784091409455727,0.20667741268495293,-0.8112359912185921,-0.5847188782240472,1.0,0.8709677419354839,32.0,0.0,0.0,0.0,0.0,1.0,0.0,0.0,0.0,0.0,0.0,0.0,0.0,0.0,0.0,0.0,0.0,1.0,1.0,0.0,0.0,0.0,0.0,1.0,0.0,1.0,0.0,0.0,0.0,0.34549709714285715,0.0,0.0,0.0,0.0,0.0,0.0,0.0,-0.28,0.0,0.0,0.0,0.0,0.5790773316571428
h107_strict_antitoxic_core_c44_a045_a0ea1eec,462,66,id03,2024-08-25,2024-08-24,Q1,0,0.9886989098935578,0.9978929376656788,0.0056976127330777,0.8410285714285715,0.7341371428571428,0.7740702285714285,0.1028142857142857,0.1785714285714285,0.730296,1.0,0.0,0,21.0,18.02115831398056,3.0,1.0,1.7388160146681897,-1.8413327385680252e-06,-0.0056740140527999,1.0,1.0,1.0,0.0,0.0,1.68917295877494,0.1785714285714285,0.9708571428571428,0.9708571428571428,0.0,0.0,,0.9192942857142858,0.998045968035896,1.764413767952396,0.0050860018210053,1.764413767952396,1.0,0.0,1.0,0.8379572571428571,0.9954543316550662,1,0.9954543316550662,1.7360245153498692e-06,0.85136,0.9175338245864824,0.0010509213261166,0.000680195679253,1.1903424386927912,0.9748571428571428,0.8754604930177537,0.9296114285714284,0.9175338245864824,0.002638596871644,0.9971574587582456,1.3887195788628954,1.0,-0.0058052412643954,0.0,0.4542857142857143,0.9828571428571428,0.6930857142857143,0.0,0.0,0.5995947428571426,6.0,5.0,1.0,0.26506024096385544,0.995526272808559,-0.09448513188803123,-0.9599762679439228,0.2800813542249071,2.0,0.35,21.0,1.0,0.0,0.0,0.0,0.0,0.0,0.0,0.0,0.0,0.0,0.0,0.0,0.0,0.0,0.0,0.0,0.0,0.0,1.0,1.0,0.0,1.0,0.0,1.0,0.0,0.0,0.0,0.0,0.30333376,0.0,0.0,0.0,0.0,0.0,0.0,0.0,-0.28,0.0,0.0,0.0,0.0,0.5789437997714287
h107_strict_antitoxic_core_c44_a045_a0ea1eec,222,31,id02,2024-08-30,2024-08-29,S3,5,0.9388626524625228,0.9644562205261924,0.0066618384143601,0.74976,0.2874571428571428,0.5159902285714286,0.0533857142857142,0.1785714285714285,0.7415341714285715,1.0,0.0,0,21.0,18.02115831398056,3.0,1.0,0.5615248186519778,-1.3627029731787917e-06,-0.0065646324415975,1.0,1.0,1.0,0.0,0.0,1.046223563846541,0.1785714285714285,0.9651428571428572,0.9651428571428572,0.0,0.0,,0.8259742857142858,0.9645822236697276,0.5729349620308506,0.0062012796200706,0.5729349620308506,1.0,0.0,1.0,0.7728410857142858,0.958935602413836,1,0.958935602413836,2.486733482312751e-06,0.8530742857142857,0.4191361481361237,0.0011858139409817,0.000656833950814,1.1494594139246397,0.9611428571428572,0.8761583685658579,0.8700369142857143,0.4191361481361211,0.0039431499294933,0.9663967609401212,0.6274057461803211,1.0,-0.0066839606103932,0.0,0.4542857142857143,0.9782857142857144,0.6923142857142857,0.0,0.0,0.539584342857143,4.0,3.0,1.0,0.12449799196787148,0.70487290445108,0.7093336228959535,0.7137661126871392,-0.7003841348713505,1.0,0.12903225806451613,32.0,0.0,0.0,0.0,0.0,0.0,1.0,0.0,0.0,0.0,0.0,0.0,0.0,0.0,0.0,1.0,1.0,0.0,0.0,0.0,0.0,0.0,0.0,1.0,0.0,1.0,0.0,0.0,0.0,0.36261272,0.0,0.0,0.0,0.0,0.0,0.0,0.0,-0.28,0.0,0.0,0.0,0.0,0.5779496378285714
h107_strict_antitoxic_core_c44_a045_a0ea1eec,1551,221,id09,2024-09-13,2024-09-12,S2,4,0.8841649877845671,0.922945066590478,0.0082070597227701,0.8457542857142857,0.740097142857143,0.7794361714285714,0.0289285714285714,0.1785714285714285,0.8195640000000002,1.0,0.0,0,21.0,18.02115831398056,3.0,1.0,0.4444573064299744,-1.9553422674408746e-06,-0.0080829364066375,1.0,1.0,1.0,0.0,0.0,0.6118901797269488,0.1785714285714285,0.9508571428571428,0.9508571428571428,0.0,0.0,,0.9345742857142856,0.9230204286219184,0.4516344744235088,0.007563371208552,0.4516344744235088,1.0,0.0,1.0,0.8472892571428572,0.9093613374357834,1,0.9093613374357834,2.186106352932775e-06,0.8517485714285715,0.2733848521698698,0.0013384058190184,0.0005517191963823,0.9655085936690796,0.1068571428571428,0.7448540883247737,0.4567059428571428,0.2733848521698698,0.003319605767072,0.921924066934974,0.4363041964725052,1.0,-0.0082326702383372,0.0,0.4542857142857143,0.9737142857142858,0.6914571428571428,0.0,0.0,0.608500457142857,4.0,3.0,1.0,0.8875502008032129,-0.649208168055833,0.7606107772899285,-0.8531342035272759,-0.5216915092004858,8.0,0.7692307692307693,27.0,0.0,0.0,0.0,0.0,1.0,0.0,0.0,0.0,0.0,0.0,0.0,0.0,0.0,0.0,1.0,1.0,0.0,0.0,0.0,0.0,0.0,0.0,1.0,0.0,1.0,0.0,0.0,0.0,0.35046433142857136,0.0,0.0,0.0,0.0,0.0,0.0,0.0,-0.19633688841262734,0.0,0.0,0.0,0.0,0.5777553969142858
h107_strict_antitoxic_core_c44_a045_a0ea1eec,1020,145,id06,2024-08-15,2024-08-14,S3,5,0.9287371041949244,0.9089850431629808,0.0027261164221769,0.8974057142857143,0.7951771428571428,0.8290942285714284,0.0467285714285714,0.1785714285714285,0.8912345142857142,1.0,0.0,0,21.0,18.02115831398056,3.0,1.0,-0.2675828115112105,-2.3877879138627275e-06,-0.0027106703475388,1.0,1.0,1.0,0.0,0.0,0.4584844927696639,0.1785714285714285,0.9308571428571428,0.9308571428571428,0.0,0.0,,0.9351171428571428,0.9089117140154698,-0.2670311609784908,0.0024857385523719,0.2670311609784908,1.0,0.0,1.0,0.8271529142857142,0.9139825171084348,1,0.9139825171084348,9.070811609935956e-07,0.7949714285714287,-0.2041890359376106,0.0008662176810626,0.0006260282627155,1.0955494597522266,0.9411428571428572,0.6539392245900708,0.9030121142857144,-0.2041890359376106,0.0015495594707994,0.9083703932655922,-0.2735521338475872,1.0,-0.0027439017062468,0.0,0.4542857142857143,0.9657142857142856,0.681,0.0,0.0,0.5915470857142856,3.0,2.0,1.0,0.5823293172690763,-0.4945268361343749,-0.8691623601738199,-0.9998209226697378,-0.01892412724101922,5.0,0.7391304347826086,24.0,0.0,0.0,0.0,0.0,0.0,1.0,0.0,0.0,0.0,0.0,0.0,0.0,1.0,1.0,0.0,0.0,0.0,0.0,0.0,0.0,0.0,0.0,1.0,0.0,1.0,0.0,0.0,0.0,0.4535889942857143,0.0,0.0,0.0,0.0,0.0,1.0,1.0,0.12309846023141424,0.0,0.0,0.0,0.0,0.5776749964571429
h107_strict_antitoxic_core_c44_a045_a0ea1eec,271,38,id02,2024-09-06,2024-09-05,S3,5,0.9381766551384754,0.9649408082535323,0.007255246807769,0.8371828571428572,0.4722371428571428,0.6466814285714286,0.0311857142857142,0.1785714285714285,0.8312914285714287,1.0,0.0,0,21.0,18.02115831398056,3.0,1.0,0.5872889315005463,-2.2206415230682877e-06,-0.0071500011980899,1.0,1.0,1.0,0.0,0.0,0.7914307797071927,0.1785714285714285,0.96,0.96,0.0,0.0,,0.8903514285714286,0.965024446458076,0.597846865645399,0.0067309021402214,0.597846865645399,1.0,0.0,1.0,0.8110674571428571,0.9551020275185064,1,0.9551020275185064,1.6119202909290188e-06,0.8516571428571431,0.3377683111825309,0.0014471141831827,0.0006240397121934,1.0920694963384774,0.9388571428571428,0.792276794166565,0.886765657142857,0.3377683111825309,0.002714794553419,0.9627084038169696,0.531325347034,1.0,-0.0072289050687871,0.0,0.4542857142857143,0.9771428571428572,0.6920571428571427,0.0,0.0,0.5748812571428571,4.0,3.0,1.0,0.15261044176706828,0.8185485315550061,0.574437378213799,0.26186448496080655,-0.9651046531419334,1.0,0.3548387096774194,32.0,0.0,0.0,0.0,0.0,0.0,1.0,0.0,0.0,0.0,0.0,0.0,0.0,0.0,0.0,1.0,1.0,0.0,0.0,0.0,0.0,0.0,0.0,1.0,0.0,1.0,0.0,0.0,0.0,0.3613424114285715,0.0,0.0,0.0,0.0,0.0,0.0,0.0,-0.2390964061653,0.0,0.0,0.0,0.0,0.5769701836571429
h107_strict_antitoxic_core_c44_a045_a0ea1eec,712,101,id04,2024-10-24,2024-10-23,S3,5,0.5985678443948091,0.5949757787867281,2.6823204138270995e-05,0.4350971428571429,0.2851371428571428,0.0728218285714285,0.8586857142857144,0.7891428571428571,0.4478544,1.0,1.0,0,2.0,3.6,1.0,1.0,-0.0023884013055135,-1.3590613160226084e-08,-7.850986091795242e-06,0.0,0.0,0.0,1.0,0.1501826026592619,0.0,0.8731428571428571,0.0777142857142857,0.1788571428571428,1.0,1.0,episode_neighbor_q061,0.300017142857143,0.5950352391736862,-0.0146807578935629,2.3606540972331835e-05,0.0146807578935629,0.0,0.0,1.0,0.1534447428571428,0.5667489819210876,0,0.5667489819210876,3.089772441430781e-09,0.1851314285714285,-0.0067237187628424,0.0026193531991609,0.000547560354719,0.9582306207583589,0.0891428571428571,0.2210232850591308,0.0573596571428571,-0.1309021195892789,0.0020900936627149,0.5807285253599261,-0.0737365615849622,1.0,0.0003957733909997,0.0003957733909997,0.9954285714285714,0.7662857142857142,0.8879428571428571,0.9601028571428571,0.1241784008264365,-0.0109716571428571,3.0,2.0,1.0,0.40562248995983935,0.5588441929376095,-0.8292726741066004,0.9784091409455726,0.2066774126849536,3.0,0.8076923076923077,27.0,0.0,0.0,0.0,0.0,0.0,1.0,0.0,0.0,0.0,0.0,0.0,0.0,1.0,1.0,0.0,0.0,0.0,0.0,0.0,0.0,0.0,0.0,1.0,0.0,1.0,1.0,0.0,0.852516474122449,0.3539314057142858,0.0,0.0,0.0,0.0,0.0,0.0,0.0,0.03318145271323299,1.0,0.0,1.0,0.0,0.5749155229714286
h107_strict_antitoxic_core_c44_a045_a0ea1eec,255,36,id02,2024-09-04,2024-09-03,S1,3,0.982714851520107,0.9927184606757892,0.0037594235479764,0.8497885714285716,0.4225371428571429,0.6281488571428573,0.0424999999999999,0.1785714285714285,0.7869445714285715,1.0,0.0,0,21.0,18.02115831398056,3.0,1.0,0.8627594320815112,-2.6346525034087808e-06,-0.0037090013387871,1.0,1.0,1.0,0.0,0.0,0.9339706506577584,0.1785714285714285,0.9628571428571427,0.9628571428571427,0.0,0.0,,0.8790028571428573,0.9927889320659216,0.8844296920500474,0.0035459533260061,0.8844296920500474,1.0,0.0,1.0,0.7939652,0.9896594302090752,1,0.9896594302090752,1.0038015380373418e-06,0.8346742857142857,0.5208145661953045,0.0011729113133881,0.0005925214970185,1.0369126197824736,0.892,0.8386954609253857,0.8479597714285716,0.5208145661952939,0.0016563564552156,0.9926086327734628,0.859552397251881,1.0,-0.0038191712895304,0.0,0.4542857142857143,0.9811428571428572,0.6897428571428572,0.0,0.0,0.5592773714285713,2.0,1.0,1.0,0.14457831325301204,0.7885283215303658,0.6149984440179537,0.40443013959587726,-0.9145688941717072,1.0,0.2903225806451613,32.0,0.0,0.0,0.0,1.0,0.0,0.0,0.0,0.0,0.0,0.0,1.0,1.0,0.0,0.0,0.0,0.0,0.0,0.0,0.0,0.0,0.0,0.0,1.0,0.0,1.0,0.0,0.0,0.0,0.29370202285714286,0.0,0.0,0.0,0.0,0.0,0.0,0.0,-0.28,0.0,0.0,0.0,0.0,0.5742441884571429
h107_strict_antitoxic_core_c44_a045_a0ea1eec,1746,249,id10,2024-09-27,2024-09-26,S1,3,0.3773608752980388,0.3127624333247269,0.0091155735311322,0.8831542857142858,0.5179971428571428,0.690814,0.0579857142857142,0.1785714285714285,0.8190133714285714,1.0,0.0,0,17.0,15.930570287203524,3.0,1.0,-0.2939231827999586,-2.795253214332239e-06,-0.0090611184928648,1.0,1.0,1.0,0.0,0.0,0.3527314826131513,0.1785714285714285,0.8868571428571429,0.8891428571428571,0.0,0.0,,0.9020028571428572,0.3127202863588021,-0.2866670861255017,0.0083244644712191,0.2866670861255017,1.0,0.0,1.0,0.8175011142857144,0.3517481831738587,0,0.6482518168261413,8.558704452463823e-07,0.7679314285714286,-0.1105985578415615,0.0022617089568091,0.0005574550632375,0.975546360665676,0.1714285714285714,0.7820470506375558,0.4687496571428571,-0.1105985578415618,0.0014092884301611,0.3302356311675493,-0.2063543903564975,1.0,-0.0084276613096818,0.0,0.4542857142857143,0.9502857142857144,0.6845142857142857,0.0,0.0,0.5828673142857143,4.0,3.0,1.0,1.0,-2.4492935982947064e-16,1.0,-7.347880794884119e-16,1.0,9.0,1.0,22.0,0.0,0.0,0.0,1.0,0.0,0.0,0.0,0.0,0.0,0.0,0.0,0.0,0.0,0.0,1.0,1.0,0.0,0.0,0.0,0.0,0.0,0.0,1.0,0.0,1.0,0.0,0.0,0.0,0.4493535885714286,0.0,0.0,0.0,0.0,0.0,0.0,0.0,0.09285947566042388,0.0,0.0,0.0,0.0,0.5736555649142857
h107_strict_antitoxic_core_c44_a045_a0ea1eec,1154,164,id07,2024-07-26,2024-07-25,S4,6,0.3773264958983826,0.3806992444389726,2.417989854019975e-05,0.3498857142857143,0.5277371428571428,-0.0450253714285713,0.9542,0.92,0.3851811428571428,1.0,1.0,0,4.0,7.150759261260218,1.0,1.0,0.006397676751739,-1.1884740666293036e-08,-1.652587185190865e-05,0.0,0.0,0.0,1.0,0.3149601376641728,0.0,0.9497142857142856,0.0777142857142857,0.1788571428571428,1.0,1.0,seed_q061_companion,0.2868685714285713,0.3806108503006162,0.0139551743480836,2.086447315363671e-05,0.0139551743480836,0.0,1.0,1.0,0.2017081142857142,0.3827457929282127,0,0.6172542070717872,4.143843838059222e-07,0.6303542857142858,-0.0798121694974146,0.0046721907240113,0.0005578411478312,0.9762220087046362,0.1765714285714285,0.6369021237462911,0.1225257142857142,0.0230015601792245,6.238347097342611e-05,0.3820022291534626,0.0198530550945121,1.0,-1.8827635697604705e-05,0.0,0.4542857142857143,0.5508571428571428,0.4944,0.9444742857142856,-0.1028137296766391,0.088597257142857,4.0,3.0,1.0,0.6586345381526104,-0.839699808785118,-0.5430508550092121,-0.15082429716137438,0.9885605855918884,6.0,0.41379310344827586,30.0,0.0,0.0,0.0,0.0,0.0,0.0,1.0,0.0,0.0,0.0,0.0,0.0,0.0,0.0,1.0,1.0,0.0,0.0,0.0,0.0,0.0,0.0,1.0,0.0,1.0,1.0,0.0,0.4669480868571428,0.39203521142857145,3.9507382397950694,0.9999999999987492,-0.13154132963861961,0.7488556161924332,1.0,1.0,1.0,-0.008933874792530445,1.0,1.0,1.0,0.0,0.5722043025141106
h107_strict_antitoxic_core_c44_a045_a0ea1eec,19,2,id01,2024-08-02,2024-08-01,S3,5,0.8949298069616637,0.9238245894751468,0.0048590636056385,0.7982857142857144,0.7792171428571428,0.7750060000000001,0.0334714285714285,0.1785714285714285,0.8156345142857143,0.0,0.0,0,21.0,18.02115831398056,3.0,1.0,0.3636414151437421,-1.259540735479484e-06,-0.0048440330571184,1.0,1.0,1.0,0.0,0.0,0.7295960136088543,0.1785714285714285,0.9588571428571429,0.9588571428571429,0.0,0.0,,0.8786828571428572,0.9239265087917272,0.3548160146143146,0.0044847657168957,0.3548160146143146,1.0,0.0,1.0,0.7976782285714286,0.9176693794114882,1,0.9176693794114882,1.7953716038551268e-06,0.8478628571428571,0.2689774182149458,0.0013828585159422,0.0006169096853354,1.0795919493370372,0.928,0.9200792538785046,0.9046702857142858,0.2689774182149458,0.0029468076138846,0.924671230985472,0.3654594726171827,1.0,-0.0048911831714462,0.0,0.4542857142857143,0.972,0.6891428571428572,0.0,0.0,0.5499460571428569,4.0,3.0,1.0,0.008032128514056224,0.050445931592278684,0.9987267934654538,0.1508242971613738,0.9885605855918885,0.0,0.07692307692307693,27.0,0.0,0.0,0.0,0.0,0.0,1.0,0.0,0.0,0.0,0.0,0.0,0.0,0.0,0.0,1.0,1.0,0.0,0.0,0.0,0.0,0.0,0.0,1.0,0.0,1.0,0.0,0.0,0.0,0.3502088914285715,0.0,0.0,0.0,0.0,0.0,0.0,0.0,-0.1644567626777322,0.0,0.0,0.0,0.0,0.5718531641142858
h107_strict_antitoxic_core_c44_a045_a0ea1eec,921,131,id06,2024-07-10,2024-07-09,S2,4,0.8829916701436188,0.8543097895781325,0.0037298200377897,0.86828,0.6308571428571428,0.7370014285714286,0.0366999999999999,0.1785714285714285,0.816018,1.0,0.0,0,20.0,17.52959496159584,3.0,1.0,-0.2599301853930716,-2.8767822634616726e-06,-0.0036950639691605,1.0,1.0,1.0,0.0,0.0,0.2958628776992405,0.1785714285714285,0.852,0.8537142857142858,0.0,0.0,,0.9172371428571428,0.8542791247044027,-0.2525056338707956,0.0033867345068676,0.2525056338707956,1.0,0.0,1.0,0.8147021142857142,0.8701878582610055,1,0.8701878582610055,4.528033927965582e-07,0.6949257142857144,-0.1184498637795092,7.346668543350976e-05,0.0005683521573283,0.9946162753246508,0.552,0.6066943449030647,0.6450393142857143,-0.1184498637795092,0.0007695809073315,0.8562991706716148,-0.2361843901434779,1.0,-0.0037210426188708,0.0,0.4542857142857143,0.956,0.6817714285714287,0.0,0.0,0.5802987428571427,2.0,1.0,1.0,0.5261044176706827,-0.16328447069351223,-0.9865790295918212,-0.47243956847967045,-0.8813630660146491,5.0,0.13043478260869565,24.0,0.0,0.0,0.0,0.0,1.0,0.0,0.0,0.0,0.0,0.0,1.0,1.0,0.0,0.0,0.0,0.0,0.0,0.0,0.0,0.0,0.0,0.0,1.0,0.0,1.0,0.0,0.0,0.0,0.4148430171428571,0.0,0.0,0.0,0.0,0.0,0.0,1.0,0.10628297556456505,0.0,0.0,0.0,0.0,0.571491482057143
h107_strict_antitoxic_core_c44_a045_a0ea1eec,1445,206,id09,2024-08-11,2024-08-10,S1,3,0.8593895130538292,0.896012637862829,0.006017119918278,0.8613085714285715,0.5541171428571429,0.6974203999999999,0.0339571428571428,0.1785714285714285,0.793752342857143,1.0,0.0,0,20.0,17.52959496159584,3.0,1.0,0.3512745226635049,-2.9880647027433073e-06,-0.0059808330839065,1.0,1.0,1.0,0.0,0.0,0.3646066886664514,0.1785714285714285,0.8965714285714286,0.8977142857142857,0.0,0.0,,0.9112428571428572,0.896045402401653,0.3438081368130574,0.0055192217092008,0.3438081368130574,1.0,0.0,1.0,0.8195053428571429,0.8804225136725433,1,0.8804225136725433,1.139066945780523e-06,0.819337142857143,0.1862086340977282,0.0013820427728314,0.000575241482177,1.0066725938098096,0.7525714285714286,0.633434531464573,0.8036601714285715,0.1862086340977282,0.0019132923930704,0.8946623280708841,0.3290465418064565,1.0,-0.0060181905384057,0.0,0.4542857142857143,0.9691428571428572,0.6892285714285714,0.0,0.0,0.5832802285714286,6.0,5.0,1.0,0.8273092369477911,-0.8843258556188788,0.4668701972539456,0.11330767760127093,-0.9935599479631848,8.0,0.19230769230769232,27.0,0.0,0.0,0.0,1.0,0.0,0.0,0.0,0.0,0.0,0.0,0.0,0.0,0.0,0.0,0.0,0.0,0.0,0.0,1.0,1.0,0.0,0.0,1.0,0.0,1.0,0.0,0.0,0.0,0.31626230857142856,0.0,0.0,0.0,0.0,0.0,0.0,0.0,-0.14807094381290542,0.0,0.0,0.0,0.0,0.5714007798857145
h107_strict_antitoxic_core_c44_a045_a0ea1eec,24,3,id01,2024-08-03,2024-08-02,S1,3,0.8856649411247233,0.884269699592085,9.57829480535688e-06,0.3897885714285715,0.6352171428571428,0.0773217714285714,0.9170857142857144,0.872,0.3982313142857143,1.0,1.0,0,3.0,5.4,1.0,1.0,-0.0022843066139102,-1.023657469904827e-08,-2.9117981057794986e-06,0.0,0.0,0.0,1.0,0.2406994082492063,0.0,0.9257142857142856,0.0777142857142857,0.1788571428571428,1.0,1.0,episode_neighbor_q061,0.3248571428571428,0.8843445253579758,-0.0129744625034478,7.806096574636268e-06,0.0129744625034478,0.0,1.0,1.0,0.2032936,0.8820840042998885,1,0.8820840042998885,9.344356289733132e-08,0.4318628571428572,0.0561513585022945,0.0001448418096032,0.0005651349325084,0.9889861318897074,0.3668571428571429,0.7227631446137076,0.1976734857142857,-0.0348906338605639,6.274948159712412e-05,0.8838282129387657,-0.0180127622696133,1.0,-7.28027584134816e-06,0.0,0.4542857142857143,0.5417142857142857,0.4852285714285714,0.9233085714285716,0.0910419923628584,0.0897802285714285,5.0,4.0,1.0,0.012048192771084338,0.0756287458844567,0.997136045279652,0.225155940522694,0.9743227403932134,0.0,0.11538461538461539,27.0,0.0,0.0,0.0,1.0,0.0,0.0,0.0,0.0,0.0,0.0,0.0,0.0,0.0,0.0,0.0,0.0,1.0,1.0,0.0,0.0,0.0,0.0,1.0,0.0,1.0,1.0,0.0,0.44801569910204087,0.43306448000000003,0.9833040141543777,0.9999999999948533,0.12843999999986938,0.3572783414179953,0.0,0.0,0.0,0.008105743021325985,1.0,1.0,1.0,0.0,0.571065389027851
h107_strict_antitoxic_core_c44_a045_a0ea1eec,1602,228,id10,2024-08-05,2024-08-04,S4,6,0.8382240324012181,0.8902981384436013,0.0110458845686129,0.8456000000000001,0.544837142857143,0.6857303428571431,0.0474142857142857,0.1785714285714285,0.7945100571428573,0.0,0.0,0,21.0,18.02115831398056,3.0,1.0,0.4426253170228201,-2.047665710391798e-06,-0.0108774659178672,1.0,1.0,1.0,0.0,0.0,0.6297769256385469,0.1785714285714285,0.9525714285714286,0.9525714285714286,0.0,0.0,,0.8636142857142856,0.8903609619726655,0.4493605138219296,0.0101554042959463,0.4493605138219296,1.0,0.0,1.0,0.7814396857142858,0.8771232615638195,1,0.8771232615638195,4.204074528514908e-06,0.96088,0.3203928607712167,0.006663814926041,0.0005410496545625,0.9468368954844152,0.0708571428571428,0.7615649861695206,0.4223385714285714,0.3203928607712167,0.0059932953296318,0.8944306670690979,0.4917465239810072,1.0,-0.0109873673182059,0.0,0.4542857142857143,0.976,0.6924857142857144,0.0,0.0,0.5344861714285714,0.0,6.0,1.0,0.9156626506024096,-0.5054532658565812,0.8628539830324226,-0.9998209226697378,-0.018924127241019467,9.0,0.0,22.0,0.0,0.0,0.0,0.0,0.0,0.0,1.0,1.0,0.0,0.0,0.0,0.0,0.0,0.0,0.0,0.0,0.0,0.0,0.0,0.0,1.0,0.0,1.0,0.0,1.0,0.0,0.0,0.0,0.3241829028571429,0.0,0.0,0.0,0.0,0.0,0.0,0.0,-0.22128593579145325,0.0,0.0,0.0,0.0,0.5710231254857144
h107_strict_antitoxic_core_c44_a045_a0ea1eec,795,113,id05,2024-10-07,2024-10-06,S2,4,0.2280191339382252,0.1852688184617634,0.0054469246426024,0.8414057142857143,0.7425371428571429,0.7782409714285714,0.0503571428571428,0.1785714285714285,0.7976160000000001,0.0,0.0,0,16.0,13.13939844098144,3.0,1.0,-0.2610573198802019,-2.7477631126037636e-06,-0.0054309698321993,1.0,1.0,1.0,0.0,0.0,0.293541002492221,0.1785714285714285,0.8497142857142858,0.8502857142857143,0.0,0.0,,0.8906771428571427,0.1852361910744718,-0.2617363283416729,0.0049825115709704,0.2617363283416729,1.0,0.0,1.0,0.7948754285714286,0.2046340387485835,1,0.7953659612514165,9.283643683119276e-07,0.7256457142857142,-0.1380489117700263,0.0001697123823337,0.0005481520345104,0.9592660603932652,0.0925714285714285,0.6026699952029279,0.4414852571428572,-0.1380489117700261,0.0015930661698523,0.1905485774566525,-0.2269193816647683,1.0,-0.0053633153415276,0.0,0.4542857142857143,0.9531428571428572,0.6838285714285715,0.0,1.1102230246251563e-16,0.5488205714285713,0.0,6.0,1.0,0.4538152610441767,0.286131673508569,-0.9581903075147367,0.7646910926171754,-0.6443970304648762,4.0,0.3,21.0,0.0,0.0,0.0,0.0,1.0,0.0,0.0,1.0,0.0,0.0,0.0,0.0,0.0,0.0,0.0,0.0,0.0,0.0,0.0,0.0,1.0,0.0,1.0,0.0,1.0,0.0,0.0,0.0,0.43830548571428574,0.0,0.0,0.0,0.0,0.0,0.0,0.0,0.10211372174914574,0.0,0.0,0.0,0.0,0.570672744
h107_strict_antitoxic_core_c44_a045_a0ea1eec,283,40,id02,2024-09-08,2024-09-07,S1,3,0.9898682589348432,0.9957189521601064,0.0021799324609271,0.80764,0.5563771428571428,0.6708076000000001,0.0520142857142857,0.1785714285714285,0.7592355428571429,1.0,0.0,0,17.0,15.930570287203524,3.0,1.0,0.8831084684277509,-1.5313689549841764e-06,-0.002168145322913,1.0,1.0,1.0,0.0,0.0,1.2323046212013884,0.1785714285714285,0.9691428571428572,0.9691428571428572,0.0,0.0,,0.8808942857142857,0.9959109815332748,0.9134542332303052,0.0021831392549893,0.9134542332303052,1.0,0.0,1.0,0.7841479428571428,0.9943763433627908,1,0.9943763433627908,7.378997775872979e-07,0.7817028571428571,0.5932349637151946,0.000175110009538,0.0005974392644149,1.0455187127261825,0.9028571428571428,0.832951503919758,0.8508973714285716,0.593234963715175,0.0012077378211554,0.9953599473101438,0.786480019263899,1.0,-0.0023166340179372,0.0,0.4542857142857143,0.98,0.6822857142857143,0.0,0.0,0.5513906285714285,6.0,5.0,1.0,0.1606425702811245,0.8464843789012082,0.5324135575623856,0.11330767760127002,-0.9935599479631849,1.0,0.41935483870967744,32.0,0.0,0.0,0.0,1.0,0.0,0.0,0.0,0.0,0.0,0.0,0.0,0.0,0.0,0.0,0.0,0.0,0.0,0.0,1.0,1.0,0.0,0.0,1.0,0.0,1.0,0.0,0.0,0.0,0.2863533485714286,0.0,0.0,0.0,0.0,0.0,0.0,0.0,-0.28,0.0,0.0,0.0,0.0,0.5705845561142858
h107_strict_antitoxic_core_c44_a045_a0ea1eec,215,30,id02,2024-08-29,2024-08-28,S3,5,0.8598852237511999,0.8916879268873098,0.004499259456149,0.7590514285714286,0.4711771428571429,0.6082044,0.0380714285714285,0.1785714285714285,0.7530253714285715,1.0,0.0,0,21.0,18.02115831398056,3.0,1.0,0.2953494542420071,-1.4836765681384065e-06,-0.0044772782142818,1.0,1.0,1.0,0.0,0.0,0.4468002038657642,0.1785714285714285,0.9268571428571428,0.9268571428571428,0.0,0.0,,0.8609171428571428,0.891738921195878,0.2942906917333741,0.0041292264625568,0.2942906917333741,1.0,0.0,1.0,0.7878240000000001,0.8822217818471676,1,0.8822217818471676,1.2182572287147468e-06,0.7088,0.1993031264368554,0.0002542783717159,0.0006307560403334,1.103823070583567,0.9457142857142856,0.6789085194322553,0.8760038857142858,0.1993031264368554,0.0021709910486811,0.8946449997304444,0.3247543862099868,1.0,-0.0044698114593009,0.0,0.4542857142857143,0.9685714285714284,0.6876,0.0,0.0,0.5542228571428571,3.0,2.0,1.0,0.12048192771084337,0.6867513112135011,0.7268924518431438,0.7646910926171746,-0.6443970304648771,1.0,0.0967741935483871,32.0,0.0,0.0,0.0,0.0,0.0,1.0,0.0,0.0,0.0,0.0,0.0,0.0,1.0,1.0,0.0,0.0,0.0,0.0,0.0,0.0,0.0,0.0,1.0,0.0,1.0,0.0,0.0,0.0,0.34711657142857144,0.0,0.0,0.0,0.0,0.0,0.0,0.0,-0.14613947379449407,0.0,0.0,0.0,0.0,0.5704931314285714
h107_strict_antitoxic_core_c44_a045_a0ea1eec,256,36,id02,2024-09-04,2024-09-03,S2,4,0.948772238755665,0.9666350532395496,0.0037238433016245,0.845,0.4225371428571429,0.6258165142857144,0.0425285714285714,0.1785714285714285,0.805026,1.0,0.0,0,21.0,18.02115831398056,3.0,1.0,0.4413537064576182,-2.470363125141443e-06,-0.0036680832116189,1.0,1.0,1.0,0.0,0.0,0.5401319949444804,0.1785714285714285,0.9428571428571428,0.9428571428571428,0.0,0.0,,0.8752885714285714,0.9667018548032718,0.4495012609387832,0.0034484810961725,0.4495012609387832,1.0,0.0,1.0,0.7902741142857143,0.9601847385208327,1,0.9601847385208327,8.747702178215603e-07,0.7838057142857143,0.2639882372780051,0.0003346825954703,0.0005879212475464,1.0288621832063396,0.8748571428571429,0.6049954567502761,0.8395565714285714,0.2639882372780024,0.0014461727192127,0.96613621215755,0.4320714208466003,1.0,-0.0037488852458244,0.0,0.4542857142857143,0.9731428571428572,0.687,0.0,0.0,0.5565130285714285,2.0,1.0,1.0,0.14457831325301204,0.7885283215303658,0.6149984440179537,0.40443013959587726,-0.9145688941717072,1.0,0.2903225806451613,32.0,0.0,0.0,0.0,0.0,1.0,0.0,0.0,0.0,0.0,0.0,1.0,1.0,0.0,0.0,0.0,0.0,0.0,0.0,0.0,0.0,0.0,0.0,1.0,0.0,1.0,0.0,0.0,0.0,0.30510558857142855,0.0,0.0,0.0,0.0,0.0,0.0,0.0,-0.19443213938097012,0.0,0.0,0.0,0.0,0.5689927192
h107_strict_antitoxic_core_c44_a045_a0ea1eec,986,140,id06,2024-07-21,2024-07-20,S4,6,0.8348399209834176,0.8011519555138755,0.003912383692871,0.93988,0.846017142857143,0.8747223428571429,0.0426142857142857,0.1785714285714285,0.8807087999999998,1.0,0.0,0,21.0,18.02115831398056,3.0,1.0,-0.2318372685785802,-3.511078359480149e-06,-0.0038856453219518,1.0,1.0,1.0,0.0,0.0,0.2874977809711064,0.1785714285714285,0.8468571428571429,0.8474285714285714,0.0,0.0,,0.94514,0.8011352177176342,-0.2269201794290354,0.003552052278778,0.2269201794290354,1.0,0.0,1.0,0.8514494857142858,0.8153756299545389,1,0.8153756299545389,7.658777788830294e-07,0.8343314285714286,-0.1349992416914005,0.0033759475654263,0.000587625128646,1.0283439751306622,0.8742857142857143,0.8007194657841186,0.887158742857143,-0.1349992416914005,0.0013330575899455,0.7970620788933861,-0.2522923740853717,1.0,-0.0038646394329915,0.0,0.4542857142857143,0.9617142857142856,0.684,0.0,0.0,0.6137076571428571,6.0,5.0,1.0,0.5622489959839357,-0.3812259022574715,-0.9244819151546323,-0.9220586030376131,-0.3870502972022183,5.0,0.5217391304347826,24.0,0.0,0.0,0.0,0.0,0.0,0.0,1.0,0.0,0.0,0.0,0.0,0.0,0.0,0.0,0.0,0.0,0.0,0.0,1.0,1.0,0.0,0.0,1.0,0.0,1.0,0.0,0.0,0.0,0.2937850514285715,0.0,0.0,0.0,0.0,0.0,1.0,1.0,0.11353156833841727,0.0,0.0,0.0,0.0,0.5684329947428571
h107_strict_antitoxic_core_c44_a045_a0ea1eec,227,32,id02,2024-08-31,2024-08-30,S1,3,0.9818631015384331,0.9905046419304432,0.0025345798639905,0.8284571428571429,0.3422571428571428,0.5784027999999999,0.0669,0.1785714285714285,0.75072,1.0,0.0,0,21.0,18.02115831398056,3.0,1.0,0.6664298659393604,-2.8556481311107e-06,-0.002521334008921,1.0,1.0,1.0,0.0,0.0,0.723407639870633,0.1785714285714285,0.9577142857142856,0.9577142857142856,0.0,0.0,,0.85242,0.990569196226614,0.6627949561746012,0.0023798649353238,0.6627949561746012,1.0,0.0,1.0,0.7612271428571428,0.9869328323095355,1,0.9869328323095355,4.711807740349032e-07,0.7435200000000001,0.3329957450667389,0.0001680780036962,0.0005811960570867,1.017093099901885,0.8348571428571429,0.8095745505593984,0.7930005714285715,0.33299574506673,0.0007987826712324,0.990249580412558,0.6291432554614116,1.0,-0.0025717953613389,0.0,0.4542857142857143,0.9788571428571428,0.6836571428571429,0.0,0.0,0.530054857142857,5.0,4.0,1.0,0.1285140562248996,0.7225457018570788,0.6913231579571607,0.658752745101794,-0.752359502379581,1.0,0.16129032258064516,32.0,0.0,0.0,0.0,1.0,0.0,0.0,0.0,0.0,0.0,0.0,0.0,0.0,0.0,0.0,0.0,0.0,1.0,1.0,0.0,0.0,0.0,0.0,1.0,0.0,1.0,0.0,0.0,0.0,0.2640597714285714,0.0,0.0,0.0,0.0,0.0,0.0,0.0,-0.28,0.0,0.0,0.0,0.0,0.5676600011428571
h107_strict_antitoxic_core_c44_a045_a0ea1eec,1453,207,id09,2024-08-12,2024-08-11,S2,4,0.8109870673810248,0.8480105380524938,0.0047216517464435,0.7338,0.4920571428571429,0.6061822285714287,0.0468428571428571,0.1785714285714285,0.6949139999999999,1.0,0.0,0,21.0,18.02115831398056,3.0,1.0,0.2691620020681672,-1.5525280729168483e-06,-0.0047032859131313,1.0,1.0,1.0,0.0,0.0,0.4645825917684889,0.1785714285714285,0.932,0.932,0.0,0.0,,0.8609114285714284,0.8480725262337904,0.2631262294480325,0.0043291181176714,0.2631262294480325,1.0,0.0,1.0,0.7858299999999999,0.839549576655029,1,0.839549576655029,1.5654277879390309e-06,0.7982742857142857,0.1984438555104222,0.0017659400591333,0.0005912355806179,1.0346622660813778,0.8862857142857142,0.7413817820924691,0.8465645714285713,0.1984438555104222,0.0027730216472034,0.8489970696851381,0.2703198239252762,1.0,-0.0047346193786228,0.0,0.4542857142857143,0.9645714285714284,0.6868285714285713,0.0,0.0,0.5526417142857142,0.0,6.0,1.0,0.8313253012048193,-0.8722647273621936,0.4890339920698335,0.03784147671767047,-0.9992837548163315,8.0,0.23076923076923078,27.0,0.0,0.0,0.0,0.0,1.0,0.0,0.0,1.0,0.0,0.0,0.0,0.0,0.0,0.0,0.0,0.0,0.0,0.0,0.0,0.0,1.0,0.0,1.0,0.0,1.0,0.0,0.0,0.0,0.3192784571428572,0.0,0.0,0.0,0.0,0.0,0.0,0.0,-0.1216439207663743,0.0,0.0,0.0,0.0,0.5669894005714288
h107_strict_antitoxic_core_c44_a045_a0ea1eec,1714,244,id10,2024-09-21,2024-09-20,S4,6,0.8163255342948061,0.8558269659939024,0.0055304896050966,0.7848857142857142,0.5386171428571429,0.6532551428571429,0.0511285714285714,0.1785714285714285,0.7644054857142858,1.0,0.0,0,21.0,18.02115831398056,3.0,1.0,0.2940483063133723,-1.164096447367105e-06,-0.0054961256311521,1.0,1.0,1.0,0.0,0.0,0.6044017371724247,0.1785714285714285,0.9497142857142856,0.9497142857142856,0.0,0.0,,0.8754371428571428,0.8559296260757733,0.2902380403215645,0.0050830611888748,0.2902380403215645,1.0,0.0,1.0,0.8032982285714285,0.846779022026624,1,0.846779022026624,1.998104188241326e-06,0.8748457142857144,0.2179103539400944,0.0025528620624133,0.000543003344783,0.950255853370298,0.0754285714285714,0.8209617832278775,0.4123394285714286,0.2179103539400944,0.0032381136841711,0.8540250326679603,0.2748771233305582,1.0,-0.0055456411792499,0.0,0.4542857142857143,0.9662857142857144,0.687857142857143,0.0,0.0,0.5686746285714285,5.0,4.0,1.0,0.9799196787148594,-0.1258339115993703,0.9920513226096732,-0.3695318309407569,0.9292180723175653,9.0,0.7619047619047619,22.0,0.0,0.0,0.0,0.0,0.0,0.0,1.0,0.0,0.0,0.0,0.0,0.0,0.0,0.0,0.0,0.0,1.0,1.0,0.0,0.0,0.0,0.0,1.0,0.0,1.0,0.0,0.0,0.0,0.28088174857142856,0.0,0.0,0.0,0.0,0.0,0.0,0.0,-0.1236947054987512,0.0,0.0,0.0,0.0,0.5664414069714286
