kbsooo/etri/hitl/h107_h088_antipode_toxicity_solver_hsjepa/h107_selected_cells.csv
candidate_id,flat_index,row,subject_id,sleep_date,lifelog_date,target,target_index,h057_prob,q061,cell_q061_gain,public_score,invariant_score,private_safe_score,latent_shortcut_energy,bad_pressure_rank,h068_cell_health,outside_h069_cell,outside_h070_cell,is_h050_null,source_count,source_weight,source_family_count,source_consensus,source_mean_move,source_action_delta,source_posterior_delta,hit_h071,hit_h074,hit_h076,hit_h079,h080_bad_same_raw,h080_bad_opp_raw,h080_bad_same_rank,h080_bad_opp_rank,h080_bad_margin_rank,h079_cell,h079_row,h079_role,h080_cell_score,h085_q,h085_q_move,h085_q_gain,h085_abs_q_move,h082_cell,h084_dark_cell,source_agrees_h085,h085_cell_score,q_hard,best_world_y,confidence,hard_gain,combined_score,hard_logit_delta,binary_shock,h086_resp_weight,h086_resp_lift,h086_resp_rank,h086_equation_alignment,h086_resp_action_score,hard_logit_move,hard_diag_gain,h088_prob,h088_logit_move,h088_active,h088_q_delta,h088_q_bad,h088_bad_rank,h088_move_abs_rank,h088_toxicity,h057_positive_weight,h057_positive_logit_move,h095_safe_cell_score,sleep_dow,lifelog_dow,date_gap_days,row_norm,row_sin1,row_cos1,row_sin3,row_cos3,subject_idx,within_subject_norm,subject_block_size,target_Q1,target_Q2,target_Q3,target_S1,target_S2,target_S3,target_S4,sleep_dow_0,lifelog_dow_0,sleep_dow_1,lifelog_dow_1,sleep_dow_2,lifelog_dow_2,sleep_dow_3,lifelog_dow_3,sleep_dow_4,lifelog_dow_4,sleep_dow_5,lifelog_dow_5,sleep_dow_6,lifelog_dow_6,is_q,is_s,is_subjective_quality,is_objective_stage,h057_h088_anti_conflict,h057_h088_same_conflict,conflict_strength,h098_frontier_cell_score,h106_vote_weight,h106_vote_consensus,h106_move,h106_score,h106_seed_row,h106_seed_neighbor,h106_seed_subject,h107_move,h107_align_h057,h107_align_h106,h107_align_or_consensus,h107_q2_penalty,h107_antipode_score,h097_move_col
h107_strict_antitoxic_core_c44_a045_a0ea1eec,6,0,id01,2024-07-31,2024-07-30,S4,6,0.5084298008946088,0.5091151839410136,9.39781743536372e-07,0.1482914285714285,0.5036571428571429,0.3172508,0.4932142857142857,0.1785714285714285,0.2109301714285714,1.0,1.0,0,0.0,0.0,0.0,0.0,0.0,0.0,0.0,0.0,0.0,0.0,0.0,0.0,0.1856015952715258,0.1785714285714285,0.7337142857142858,0.736,0.0,0.0,,-0.5764400000000001,0.5091590368126224,0.0029178468760701,9.681413111195525e-07,0.0029178468760701,0.0,0.0,0.0,0.0957847428571428,0.5223625210687107,1,0.5223625210687107,1.4679869777242745e-07,0.45888,0.045010420029887,0.0019122187266242,0.000551777393772,0.9656104391011492,0.108,0.502682123038882,0.0688006857142857,0.0557874001969457,0.000388523838803,0.5114968799282992,0.0122732280433281,1.0,9.8721686667691e-06,9.8721686667691e-06,0.9217142857142856,0.5114285714285715,0.7346857142857143,0.8756571428571429,-0.0107769801670586,-0.0351718857142857,2.0,1.0,1.0,0.0,0.0,1.0,0.0,1.0,0.0,0.0,27.0,0.0,0.0,0.0,0.0,0.0,0.0,1.0,0.0,0.0,0.0,1.0,1.0,0.0,0.0,0.0,0.0,0.0,0.0,0.0,0.0,0.0,0.0,1.0,0.0,1.0,1.0,0.0,0.6433327934693878,0.57472224,14.624286960576873,0.9999999999987573,-0.03576487004711348,0.3033194861948564,0.0,0.0,0.0,-0.005522952619497645,1.0,1.0,1.0,0.0,0.7364385202283975,h107_move
h107_strict_antitoxic_core_c44_a045_a0ea1eec,23,3,id01,2024-08-03,2024-08-02,Q3,2,0.5825405612758282,0.5795370659761659,1.8534940263270627e-05,0.2811657142857143,0.6352171428571428,0.1250753999999999,0.8544285714285714,0.9097142857142856,0.3286348571428571,0.0,1.0,0,3.0,5.4,1.0,1.0,-0.0020563557839757,-1.3985871682512395e-09,-5.640630085346209e-06,0.0,0.0,0.0,1.0,0.127484423230084,0.0059622151491581,0.8485714285714285,0.2148571428571428,0.1788571428571428,1.0,1.0,episode_neighbor_q061,0.28076,0.5795635192393868,-0.0122295736452776,1.6570339673616097e-05,0.0122295736452776,1.0,0.0,1.0,0.1879783428571428,0.5577169744059128,0,0.5577169744059128,8.511330267661373e-11,0.1802285714285714,0.0011137372782469,0.0033986064699007,0.0005605465865673,0.9809565264928056,0.22,0.1387492598971923,0.2050615999999999,-0.1013098164667343,0.0012604154204444,0.5729004845201093,-0.0395164455506682,1.0,7.263366103893443e-05,7.263366103893443e-05,0.9571428571428572,0.6308571428571429,0.8040571428571429,0.9461771428571428,0.1024235537449813,0.0526738285714285,5.0,4.0,1.0,0.012048192771084338,0.0756287458844567,0.997136045279652,0.225155940522694,0.9743227403932134,0.0,0.11538461538461539,27.0,0.0,0.0,1.0,0.0,0.0,0.0,0.0,0.0,0.0,0.0,0.0,0.0,0.0,0.0,0.0,0.0,1.0,1.0,0.0,0.0,0.0,1.0,0.0,1.0,0.0,1.0,0.0,0.760780490122449,0.5840420685714287,3.0061376520171494,0.9999999999981126,0.1145614007781702,0.5243761754641578,0.0,0.0,0.0,0.017782400497800693,1.0,1.0,1.0,0.0,0.7174666796568787,h107_move
h107_strict_antitoxic_core_c44_a045_a0ea1eec,24,3,id01,2024-08-03,2024-08-02,S1,3,0.8856649411247233,0.884269699592085,9.57829480535688e-06,0.3897885714285715,0.6352171428571428,0.0773217714285714,0.9170857142857144,0.872,0.3982313142857143,1.0,1.0,0,3.0,5.4,1.0,1.0,-0.0022843066139102,-1.023657469904827e-08,-2.9117981057794986e-06,0.0,0.0,0.0,1.0,0.2406994082492063,0.0,0.9257142857142856,0.0777142857142857,0.1788571428571428,1.0,1.0,episode_neighbor_q061,0.3248571428571428,0.8843445253579758,-0.0129744625034478,7.806096574636268e-06,0.0129744625034478,0.0,1.0,1.0,0.2032936,0.8820840042998885,1,0.8820840042998885,9.344356289733132e-08,0.4318628571428572,0.0561513585022945,0.0001448418096032,0.0005651349325084,0.9889861318897074,0.3668571428571429,0.7227631446137076,0.1976734857142857,-0.0348906338605639,6.274948159712412e-05,0.8838282129387657,-0.0180127622696133,1.0,-7.28027584134816e-06,0.0,0.4542857142857143,0.5417142857142857,0.4852285714285714,0.9233085714285716,0.0910419923628584,0.0897802285714285,5.0,4.0,1.0,0.012048192771084338,0.0756287458844567,0.997136045279652,0.225155940522694,0.9743227403932134,0.0,0.11538461538461539,27.0,0.0,0.0,0.0,1.0,0.0,0.0,0.0,0.0,0.0,0.0,0.0,0.0,0.0,0.0,0.0,0.0,1.0,1.0,0.0,0.0,0.0,0.0,1.0,0.0,1.0,1.0,0.0,0.44801569910204087,0.43306448000000003,0.9833040141543777,0.9999999999948533,0.12843999999986938,0.3572783414179953,0.0,0.0,0.0,0.008105743021325985,1.0,1.0,1.0,0.0,0.571065389027851,h107_move
h107_strict_antitoxic_core_c44_a045_a0ea1eec,70,10,id01,2024-08-13,2024-08-12,Q1,0,0.0845240805884701,0.0842013651106576,6.737279700796961e-07,0.2023371428571428,0.602737142857143,0.3906834857142857,0.4868142857142857,0.1785714285714285,0.2460342857142857,1.0,1.0,0,2.0,1.94687670251848,1.0,1.0,-0.0041777863526295,-2.782961929837571e-09,-6.737279700796962e-07,1.0,0.0,0.0,0.0,0.0,0.1611402369820103,0.1785714285714285,0.6954285714285714,0.7005714285714286,0.0,0.0,,0.4868200000000001,0.0841553820138037,-0.0047742538749995,8.004620907220428e-07,0.0047742538749995,1.0,0.0,1.0,0.2852368,0.0754263273970388,1,0.9245736726029612,6.630912627711728e-09,0.4210057142857143,-0.0181895997749585,0.0044344727901558,0.0008266039117698,1.4465568455972857,0.9954285714285714,0.1536011274572291,0.6799027428571429,-0.123768763578473,0.0005532529424936,0.0841390992428633,-0.0049855360102926,1.0,-8.778279230181596e-07,0.0,0.4542857142857143,0.4725714285714286,0.4595142857142857,0.9854057142857144,0.2081028812496921,0.2454533714285714,1.0,0.0,1.0,0.040160642570281124,0.2496673968626068,0.968331653383204,0.6867513112135011,0.7268924518431438,0.0,0.38461538461538464,27.0,1.0,0.0,0.0,0.0,0.0,0.0,0.0,0.0,1.0,1.0,0.0,0.0,0.0,0.0,0.0,0.0,0.0,0.0,0.0,0.0,0.0,1.0,0.0,1.0,0.0,1.0,0.0,0.4528080029387756,0.3913596228571429,0.9919023337731939,0.9999999999171052,0.007905277161449448,0.024272077219253157,0.0,0.0,0.0,0.00224349120463167,1.0,1.0,1.0,0.0,0.6949944147312518,h107_move
h107_strict_antitoxic_core_c44_a045_a0ea1eec,249,35,id02,2024-09-03,2024-09-02,S2,4,0.8823122084998396,0.881625272331127,2.2683932919820293e-06,0.3141771428571429,0.3170571428571428,0.3076631428571429,0.5137285714285714,0.1785714285714285,0.362382,1.0,1.0,0,0.0,0.0,0.0,0.0,0.0,0.0,0.0,0.0,0.0,0.0,0.0,0.0,0.2800586053484107,0.1785714285714285,0.8428571428571429,0.844,0.0,0.0,,-0.5605257142857143,0.8815578212908938,-0.0072449921663491,2.4887918590454916e-06,0.0072449921663491,0.0,0.0,0.0,0.1059947428571428,0.8728222570809246,1,0.8728222570809246,1.6048527488541938e-07,0.6375885714285714,-0.0718540747710767,0.0025778289398956,0.0005714536940665,1.000043964616444,0.6754285714285714,0.6785783715599005,0.3989555428571429,-0.0883644115187145,0.0004239501228325,0.8792503666371515,-0.0291602558011754,1.0,2.2478691047267407e-05,2.2478691047267407e-05,0.9377142857142856,0.5857142857142857,0.7718571428571429,0.8785085714285715,0.0165103367476378,-0.0347169142857142,1.0,0.0,1.0,0.14056224899598393,0.7727602671207603,0.6346980144599881,0.4724395684796713,-0.8813630660146488,1.0,0.25806451612903225,32.0,0.0,0.0,0.0,0.0,1.0,0.0,0.0,0.0,1.0,1.0,0.0,0.0,0.0,0.0,0.0,0.0,0.0,0.0,0.0,0.0,0.0,0.0,1.0,0.0,1.0,1.0,0.0,0.6780831159183675,0.25910259428571436,6.8829819973598285,0.9999999999974618,0.03720551369592912,0.24257410029100665,0.0,0.0,0.0,0.01312211511052893,1.0,1.0,1.0,0.0,0.7419237141710733,h107_move
h107_strict_antitoxic_core_c44_a045_a0ea1eec,429,61,id03,2024-08-19,2024-08-18,Q3,2,0.769391940972039,0.7691873343964346,1.1794978560519809e-07,0.1801828571428571,0.3370171428571429,0.0740792571428571,0.6702571428571429,0.7508571428571429,0.2411588571428571,1.0,1.0,0,2.0,3.6,1.0,1.0,-0.000184451677063,-5.6483338269916636e-11,-3.4533000903280715e-08,0.0,0.0,0.0,1.0,0.0259545843659137,0.1152267987939449,0.6217142857142857,0.6057142857142858,0.572,1.0,1.0,episode_neighbor_q061,0.3079257142857142,0.769159963715853,-0.0013069844411823,1.3796569509061385e-07,0.0013069844411823,0.0,0.0,1.0,0.0993245714285714,0.7570030321951982,0,0.7570030321951982,9.349604647858497e-08,0.3282628571428571,-0.0431694753420197,0.0002337820502099,0.000570936680997,0.9991391917449192,0.6605714285714286,0.4307766506520007,0.3147865142857143,-0.0685626666458385,0.0004272632394869,0.7692349173091595,-0.0008847885427687,1.0,-1.357899670484386e-07,0.0,0.4542857142857143,0.4502857142857143,0.4517142857142857,0.8968457142857144,0.0253931913038187,0.0444745142857143,0.0,6.0,1.0,0.24497991967871485,0.9995025893658627,0.03153686495097154,-0.995526272808559,-0.09448513188803126,2.0,0.1,21.0,0.0,0.0,1.0,0.0,0.0,0.0,0.0,1.0,0.0,0.0,0.0,0.0,0.0,0.0,0.0,0.0,0.0,0.0,0.0,0.0,1.0,1.0,0.0,1.0,0.0,1.0,0.0,0.4051180212244898,0.5751226514285716,2.030774582190286,0.9999999997719006,0.0014032262735842623,0.00557763684509385,0.0,0.0,0.0,0.000398154844245915,1.0,1.0,1.0,0.0,0.5925580324252091,h107_move
h107_strict_antitoxic_core_c44_a045_a0ea1eec,430,61,id03,2024-08-19,2024-08-18,S1,3,0.604026200472991,0.6063203145082555,1.1009521791116583e-05,0.3882685714285714,0.3370171428571429,0.0654890857142856,0.7873714285714286,0.684,0.3785540571428571,1.0,1.0,0,2.0,3.6,1.0,1.0,0.0015362066480787,-1.5536985231547174e-08,-3.224407648327876e-06,0.0,0.0,0.0,1.0,0.1413535464138461,0.0,0.8622857142857143,0.0777142857142857,0.1788571428571428,1.0,1.0,episode_neighbor_q061,0.2920571428571428,0.6062772068060069,0.0094206983426381,9.646010099229052e-06,0.0094206983426381,0.0,0.0,1.0,0.1293242857142857,0.6074964413452014,0,0.6074964413452014,1.993561071952924e-07,0.5617257142857143,-0.0547320393639781,0.0057171149923169,0.0005577874228806,0.9761279900412012,0.1754285714285714,0.6818286787726655,0.0789510857142856,0.0145311845062691,2.520043883824652e-05,0.6055727655873674,0.0064705280329236,1.0,-9.560522133300609e-06,0.0,0.4542857142857143,0.4817142857142857,0.4683428571428571,0.9234285714285716,-0.0692632238702473,0.071728,0.0,6.0,1.0,0.24497991967871485,0.9995025893658627,0.03153686495097154,-0.995526272808559,-0.09448513188803126,2.0,0.1,21.0,0.0,0.0,0.0,1.0,0.0,0.0,0.0,1.0,0.0,0.0,0.0,0.0,0.0,0.0,0.0,0.0,0.0,0.0,0.0,0.0,1.0,0.0,1.0,0.0,1.0,1.0,0.0,0.43248117551020415,0.4628745142857143,5.034311681599859,0.9999999999982955,-0.07574491563303028,0.42039732539322217,0.0,0.0,0.0,-0.00291173761481562,1.0,1.0,1.0,0.0,0.56111088457119,h107_move
h107_strict_antitoxic_core_c44_a045_a0ea1eec,431,61,id03,2024-08-19,2024-08-18,S2,4,0.3710434597203731,0.3692515525433949,6.88404145421373e-06,0.2283599999999999,0.3370171428571429,0.2767198285714285,0.4746142857142857,0.1785714285714285,0.301308,0.0,1.0,0,2.0,3.6,1.0,1.0,-0.0012297659195405,-3.960982746717251e-10,-2.0161537268581498e-06,0.0,0.0,0.0,1.0,0.0,0.0512708071493512,0.1785714285714285,0.4537142857142857,0.4925714285714285,1.0,1.0,episode_neighbor_q061,0.3814771428571429,0.3692343777748191,-0.0077597792771074,6.385477044568155e-06,0.0077597792771074,0.0,0.0,1.0,0.1794704571428571,0.3557729766594964,1,0.6442270233405036,2.3844188198995762e-08,0.3532228571428571,-0.018909915898664,0.0025802703377575,0.0005574504253998,0.9755382444497758,0.1708571428571428,0.1560624955544478,0.1777734857142857,-0.0660154001721844,0.0005025283157065,0.3698048101121429,-0.0053113073079726,1.0,-6.318411186589934e-06,0.0,0.4542857142857143,0.4742857142857143,0.4644857142857143,0.9088,0.0471054842735203,0.1034401142857143,0.0,6.0,1.0,0.24497991967871485,0.9995025893658627,0.03153686495097154,-0.995526272808559,-0.09448513188803126,2.0,0.1,21.0,0.0,0.0,0.0,0.0,1.0,0.0,0.0,1.0,0.0,0.0,0.0,0.0,0.0,0.0,0.0,0.0,0.0,0.0,0.0,0.0,1.0,0.0,1.0,0.0,1.0,1.0,0.0,0.42212461714285715,0.22523829714285717,0.9949964736413532,0.999999999993669,0.10318496498591656,0.3089470541686921,0.0,0.0,0.0,0.00239008828858767,1.0,1.0,1.0,0.0,0.6647264613705423,h107_move
h107_strict_antitoxic_core_c44_a045_a0ea1eec,492,70,id03,2024-09-16,2024-09-15,Q3,2,0.7379400612256236,0.7355869958106938,1.4288337799372997e-05,0.3116914285714286,0.6828971428571429,0.2207168285714285,0.8332285714285714,0.8417142857142857,0.3441497142857141,0.0,1.0,0,3.0,5.4,1.0,1.0,-0.0020221380359516,-3.134488404904697e-09,-4.346254514286939e-06,0.0,0.0,0.0,1.0,0.0731579621258778,0.0472847466857211,0.7742857142857142,0.44,0.1788571428571428,1.0,1.0,episode_neighbor_q061,0.3316057142857143,0.7355915224463873,-0.012109554749387,1.2950746220652398e-05,0.012109554749387,0.0,0.0,1.0,0.1411393714285714,0.7328617364915871,1,0.7328617364915871,2.4116037798910797e-07,0.5565599999999999,0.065736169256795,0.0009675930385018,0.0005668389182423,0.9919681069240556,0.4594285714285714,0.2781616572872293,0.2739041142857143,-0.0260986599217263,6.640444775363186e-05,0.7351021332494506,-0.0146242487539178,1.0,-1.3618258931202831e-05,0.0,0.4542857142857143,0.5257142857142857,0.4838571428571429,0.9333028571428572,0.0918348291785213,0.0667148571428571,0.0,6.0,1.0,0.28112449799196787,0.9809388143902331,-0.19431686088109762,-0.8327815731637613,0.553601708269484,2.0,0.55,21.0,0.0,0.0,1.0,0.0,0.0,0.0,0.0,1.0,0.0,0.0,0.0,0.0,0.0,0.0,0.0,0.0,0.0,0.0,0.0,0.0,1.0,1.0,0.0,1.0,0.0,1.0,0.0,0.45158525387755105,0.5586044000000001,4.778974186440193,0.9999999999991234,0.15516569795535648,0.8586378981718341,0.0,0.0,0.0,0.00658091193926301,1.0,1.0,1.0,0.0,0.601921553714163,h107_move
h107_strict_antitoxic_core_c44_a045_a0ea1eec,692,98,id04,2024-10-19,2024-10-18,S4,6,0.5214942199375637,0.5220806282002836,6.890459806063731e-07,0.1991714285714285,0.4586171428571429,0.1756905714285715,0.6144571428571429,0.6337142857142857,0.2882345142857143,1.0,1.0,0,0.0,0.0,0.0,0.0,0.0,0.0,0.0,0.0,0.0,0.0,0.0,0.0166549901710211,0.0640435912665656,0.56,0.4845714285714286,0.4805714285714286,0.0,0.0,,-0.6675114285714286,0.5220939306128404,0.0024034092933237,6.55804488269851e-07,0.0024034092933237,0.0,0.0,0.0,0.0311753714285714,0.5317358803323887,0,0.5317358803323887,1.616032067237963e-08,0.2549485714285714,0.0153557474784382,0.005842441771129,0.0005639505118782,0.9869133957869688,0.3177142857142857,0.3199408510132027,0.0963508571428571,0.041084505048586,0.0002103100861962,0.525141978301795,0.0146229027435558,1.0,1.7903928382079215e-05,1.7903928382079215e-05,0.932,0.5251428571428571,0.7487428571428572,0.8981142857142858,-0.0257287575701478,-0.0963236571428572,5.0,4.0,1.0,0.39357429718875503,0.6199605408122387,-0.7846329892604544,0.9067516281939827,0.4216651334501838,3.0,0.6923076923076923,27.0,0.0,0.0,0.0,0.0,0.0,0.0,1.0,0.0,0.0,0.0,0.0,0.0,0.0,0.0,0.0,0.0,1.0,1.0,0.0,0.0,0.0,0.0,1.0,0.0,1.0,1.0,0.0,0.6724566563265306,0.5486207771428572,9.81445982772841,0.9999999999989942,-0.06584784823628405,0.4702932394805306,0.0,0.0,0.0,-0.00658030623460011,1.0,1.0,1.0,0.0,0.6700998475427162,h107_move
h107_strict_antitoxic_core_c44_a045_a0ea1eec,709,101,id04,2024-10-24,2024-10-23,Q3,2,0.7836327157945403,0.7816403087409958,1.168048358135554e-05,0.2945942857142857,0.2851371428571428,-0.0389592857142857,0.8681142857142857,0.8714285714285714,0.3298454285714285,1.0,1.0,0,2.0,3.6,1.0,1.0,-0.0018739318165117,-2.0788438578953267e-09,-3.417201348221433e-06,0.0,0.0,0.0,1.0,0.112718299813475,0.0,0.832,0.0777142857142857,0.1788571428571428,1.0,1.0,episode_neighbor_q061,0.2406514285714286,0.7816747794316019,-0.0115100999444255,1.0263480041294848e-05,0.0115100999444255,0.0,0.0,1.0,0.1124250857142857,0.7718980136932254,1,0.7718980136932254,1.1513008166658741e-08,0.2556914285714285,0.0152658122683577,0.0015390106257885,0.0005705088303653,0.9983904531393746,0.6508571428571429,0.2558821948728312,0.3108536,-0.0679034849537958,0.0004009186480832,0.7766653504406011,-0.0406248364023611,1.0,6.144628333681901e-05,6.144628333681901e-05,0.9554285714285714,0.6377142857142857,0.8043142857142858,0.9279028571428573,0.0831692972221536,-0.0305217142857143,3.0,2.0,1.0,0.40562248995983935,0.5588441929376095,-0.8292726741066004,0.9784091409455726,0.2066774126849536,3.0,0.8076923076923077,27.0,0.0,0.0,1.0,0.0,0.0,0.0,0.0,0.0,0.0,0.0,0.0,0.0,1.0,1.0,0.0,0.0,0.0,0.0,0.0,0.0,0.0,1.0,0.0,1.0,0.0,1.0,0.0,0.7463255237551022,0.5417878857142857,3.0667222248778767,0.9999999999983062,0.12513597673666654,0.5713245898668148,0.0,0.0,0.0,0.018281176381062497,1.0,1.0,1.0,0.0,0.7109289005711915,h107_move
h107_strict_antitoxic_core_c44_a045_a0ea1eec,770,110,id05,2024-10-02,2024-10-01,Q1,0,0.4457613572912907,0.4446197321658457,2.638097124085803e-06,0.2371828571428571,0.2893571428571428,0.2574944571428571,0.4836714285714286,0.1785714285714285,0.2760210285714286,1.0,1.0,0,0.0,0.0,0.0,0.0,0.0,0.0,0.0,0.0,0.0,0.0,0.0,0.0,0.1055051425367162,0.1785714285714285,0.5851428571428572,0.6034285714285714,0.0,0.0,,-0.606377142857143,0.4446010323705447,-0.0046977710067961,2.479994732684787e-06,0.0046977710067961,0.0,0.0,0.0,0.0907273428571428,0.4292185546786456,1,0.5707814453213543,6.006279015544573e-08,0.2898971428571428,-0.0295269485120191,0.0011591776230444,0.0005626725428305,0.984676949953438,0.2708571428571428,0.4847610851958686,0.1221519428571428,-0.0672285164342494,0.0005552949648749,0.442110294817913,-0.0147902736155348,1.0,9.846046346573267e-06,9.846046346573267e-06,0.9205714285714286,0.5262857142857142,0.7383428571428572,0.90416,0.0377015679222298,-0.0382115428571428,2.0,1.0,1.0,0.44176706827309237,0.3577789366275641,-0.9338063142352645,0.8901457403773968,-0.45567593845624127,4.0,0.15,21.0,1.0,0.0,0.0,0.0,0.0,0.0,0.0,0.0,0.0,0.0,1.0,1.0,0.0,0.0,0.0,0.0,0.0,0.0,0.0,0.0,0.0,1.0,0.0,1.0,0.0,1.0,0.0,0.6675800777142857,0.28291313142857144,7.385517813154017,0.9999999999985814,0.06203632545477096,0.4149590645640044,0.0,0.0,0.0,0.0066556231269906604,1.0,1.0,1.0,0.0,0.7244461957712299,h107_move
h107_strict_antitoxic_core_c44_a045_a0ea1eec,776,110,id05,2024-10-02,2024-10-01,S4,6,0.4438495786612846,0.4451675276483861,3.517651817719347e-06,0.2391714285714286,0.2893571428571428,-0.0912718571428571,0.8011428571428572,0.8748571428571429,0.3034004571428571,0.0,1.0,0,0.0,0.0,0.0,0.0,0.0,0.0,0.0,0.0,0.0,0.0,0.0,0.1517560969078651,0.0055488407941821,0.8748571428571429,0.2114285714285714,0.1788571428571428,0.0,0.0,,-0.8335457142857143,0.4451219697262338,0.0051530909657626,2.983565084324624e-06,0.0051530909657626,0.0,0.0,0.0,-0.068577,0.4632074008694939,0,0.536792599130506,7.647812904665928e-08,0.2794971428571428,0.0331756448528687,0.0011639351142216,0.0005573933773258,0.975438410320314,0.168,0.5618931275998716,-0.0022037142857142,0.0781161866856486,0.0007569947114121,0.4480957780680643,0.0171855610708425,1.0,1.46086126527889e-05,1.46086126527889e-05,0.9274285714285714,0.5394285714285715,0.7487999999999999,0.9094228571428572,-0.04494054183278,-0.1995107428571428,2.0,1.0,1.0,0.44176706827309237,0.3577789366275641,-0.9338063142352645,0.8901457403773968,-0.45567593845624127,4.0,0.15,21.0,0.0,0.0,0.0,0.0,0.0,0.0,1.0,0.0,0.0,0.0,1.0,1.0,0.0,0.0,0.0,0.0,0.0,0.0,0.0,0.0,0.0,0.0,1.0,0.0,1.0,1.0,0.0,0.6809758354285714,0.47316624,7.092422022000161,0.9999999999988293,-0.07828254192084216,0.47584522976756954,0.0,0.0,0.0,-0.007733502481879126,1.0,1.0,1.0,0.0,0.6056743773712648,h107_move
h107_strict_antitoxic_core_c44_a045_a0ea1eec,948,135,id06,2024-07-14,2024-07-13,S1,3,0.9734003575300472,0.973869257464141,4.27031754200724e-06,0.2894857142857143,0.4153771428571429,0.3433262285714286,0.4297285714285715,0.1785714285714285,0.3458441142857142,1.0,1.0,0,2.0,1.93657810305736,1.0,1.0,0.0182668759527704,-6.783755927062974e-09,-4.27031754200724e-06,1.0,0.0,0.0,0.0,0.0,0.6721905000622236,0.1785714285714285,0.9554285714285714,0.9554285714285714,0.0,0.0,,0.5057228571428571,0.974056188023359,0.0256381782046499,7.623804536976975e-06,0.0256381782046499,1.0,0.0,1.0,0.3323978857142857,0.980817671875396,1,0.980817671875396,7.548363998751178e-07,0.7854285714285714,0.3446132577608978,0.0004295859545019,0.0005796575197187,1.0144006595078832,0.816,0.6653164722172068,0.6087560000000001,0.3344994478363832,0.0011746399717037,0.9765267673632434,0.1282437362729367,1.0,0.000120434605223,0.000120434605223,0.9697142857142858,0.8891428571428571,0.8942,0.8769542857142857,0.0101138099245203,0.1683793142857143,6.0,5.0,1.0,0.5421686746987951,-0.2618644849608063,-0.9651046531419334,-0.7137661126871386,-0.7003841348713511,5.0,0.30434782608695654,24.0,0.0,0.0,0.0,1.0,0.0,0.0,0.0,0.0,0.0,0.0,0.0,0.0,0.0,0.0,0.0,0.0,0.0,0.0,1.0,1.0,0.0,0.0,1.0,0.0,1.0,0.0,1.0,0.0,0.4472482171428571,0.886584014171012,0.9999999999916573,-0.08787984128464758,0.17019550791961327,0.0,0.0,1.0,-0.05770968132282152,0.0,1.0,1.0,0.0,0.7073491489131178,h107_move
h107_strict_antitoxic_core_c44_a045_a0ea1eec,949,135,id06,2024-07-14,2024-07-13,S2,4,0.9120002370412033,0.9128559625035724,4.575502052239777e-06,0.3906628571428571,0.4153771428571429,0.2220676,0.6870285714285714,0.6325714285714286,0.400656,0.0,1.0,0,0.0,0.0,0.0,0.0,0.0,0.0,0.0,0.0,0.0,0.0,0.0,0.0306072182800029,0.0387905347810696,0.6485714285714286,0.4114285714285714,0.3845714285714285,0.0,0.0,,-0.6916942857142857,0.9128484616979826,0.0106153362211465,4.091754492618893e-06,0.0106153362211465,0.0,0.0,0.0,0.0204137714285714,0.9250982584531292,1,0.9250982584531292,2.2462660630838865e-07,0.7114057142857144,0.1055641087159346,0.0028894661390598,0.0005657735831001,0.9901037704252228,0.4017142857142857,0.1604154161182626,0.1480686857142857,0.1754166861823174,0.0011206919463118,0.916900949362351,0.062660043836634,1.0,0.0001017187385513,0.0001017187385513,0.9645714285714284,0.7251428571428571,0.8401142857142857,0.9117314285714286,-0.0698525774663827,-0.1410235428571428,6.0,5.0,1.0,0.5421686746987951,-0.2618644849608063,-0.9651046531419334,-0.7137661126871386,-0.7003841348713511,5.0,0.30434782608695654,24.0,0.0,0.0,0.0,0.0,1.0,0.0,0.0,0.0,0.0,0.0,0.0,0.0,0.0,0.0,0.0,0.0,0.0,0.0,1.0,1.0,0.0,0.0,1.0,0.0,1.0,1.0,0.0,0.765958597877551,0.5573068457142858,2.8910092992246947,0.9999999999980714,-0.11658093768966464,0.5244759131335283,0.0,0.0,1.0,-0.0281970197264853,1.0,1.0,1.0,0.0,0.7242802243425872,h107_move
h107_strict_antitoxic_core_c44_a045_a0ea1eec,958,136,id06,2024-07-16,2024-07-15,S4,6,0.8793211893789878,0.8800493904202091,2.5029338155957426e-06,0.3645828571428571,0.5588971428571429,0.1084819428571429,0.7967428571428572,0.7268571428571429,0.3787347428571428,1.0,1.0,0,0.0,0.0,0.0,0.0,0.0,0.0,0.0,0.0,0.0,0.0,0.0,0.1594115670323823,0.0,0.8822857142857143,0.0777142857142857,0.1788571428571428,0.0,0.0,,-0.7095342857142858,0.8799999511198453,0.0064120263061722,1.9788838113155016e-06,0.0064120263061722,0.0,0.0,0.0,0.0212581142857142,0.8834973597348148,1,0.8834973597348148,8.471331549768475e-09,0.3511542857142857,-0.0171551486596812,0.0031343608795367,0.0005683629451615,0.9946351540327674,0.5531428571428572,0.5888697722476787,0.1944567999999999,0.039956691866398,8.300913775149965e-05,0.8807134130136618,0.0131857083159114,1.0,2.441039736456041e-07,2.441039736456041e-07,0.9085714285714286,0.5165714285714286,0.7216285714285715,0.9087942857142858,-0.0571118405260793,-0.0966108571428571,1.0,0.0,1.0,0.5461847389558233,-0.2861316735085688,-0.9581903075147368,-0.7646910926171749,-0.6443970304648767,5.0,0.34782608695652173,24.0,0.0,0.0,0.0,0.0,0.0,0.0,1.0,0.0,1.0,1.0,0.0,0.0,0.0,0.0,0.0,0.0,0.0,0.0,0.0,0.0,0.0,0.0,1.0,0.0,1.0,1.0,0.0,0.6558119221224491,0.47814422857142863,14.774026075731031,0.9999999999995725,-0.10292196867709782,0.8604718556778779,0.0,1.0,1.0,-0.00593356874216013,1.0,1.0,1.0,0.0,0.6033851131427973,h107_move
h107_strict_antitoxic_core_c44_a045_a0ea1eec,975,139,id06,2024-07-19,2024-07-18,Q3,2,0.7439595438752091,0.7399677023608381,4.16859280448767e-05,0.3280228571428571,0.5280971428571429,-0.0332376571428571,0.9586285714285714,0.9811428571428572,0.3647565714285714,0.0,1.0,0,0.0,0.0,0.0,0.0,0.0,0.0,0.0,0.0,0.0,0.0,0.0,0.3736466735880533,0.0,0.9617142857142856,0.0777142857142857,0.1788571428571428,0.0,0.0,,-0.8055971428571429,0.7400840689307989,-0.020245643390468,3.5750219449570686e-05,0.020245643390468,0.0,0.0,0.0,0.0240670285714286,0.7314817680775492,1,0.7314817680775492,5.469611738723606e-07,0.7339085714285715,0.0994963433248757,0.0056064356772304,0.0005687243082713,0.9952675394748086,0.5782857142857143,0.415144879432044,0.2598524571428571,-0.0644977115049467,0.0004044507406137,0.7354432689956294,-0.0442335008621266,1.0,1.6260783992305683e-05,1.6260783992305683e-05,0.9297142857142856,0.6497142857142857,0.784,0.973,0.1639940548298225,-0.1154598857142857,4.0,3.0,1.0,0.5582329317269076,-0.3577789366275639,-0.9338063142352645,-0.8901457403773956,-0.4556759384562435,5.0,0.4782608695652174,24.0,0.0,0.0,1.0,0.0,0.0,0.0,0.0,0.0,0.0,0.0,0.0,0.0,0.0,0.0,1.0,1.0,0.0,0.0,0.0,0.0,0.0,1.0,0.0,1.0,0.0,1.0,0.0,0.7628320000000001,0.44296686857142864,2.971552713505406,0.999999999996314,0.05934148175669029,0.2791622987126774,0.0,1.0,1.0,0.01990507538795697,1.0,1.0,1.0,0.0,0.6393651756566268,h107_move
h107_strict_antitoxic_core_c44_a045_a0ea1eec,979,139,id06,2024-07-19,2024-07-18,S4,6,0.8268174475003207,0.8280647752584297,5.443071396993293e-06,0.2987828571428571,0.5280971428571429,-0.0621637714285713,0.8908857142857144,0.8897142857142857,0.3496909714285714,1.0,1.0,0,0.0,0.0,0.0,0.0,0.0,0.0,0.0,0.0,0.0,0.0,0.0,0.3410531498239687,0.0,0.9548571428571428,0.0777142857142857,0.1788571428571428,0.0,0.0,,-0.7669400000000001,0.8279578930664663,0.0079853695822413,4.14051900110568e-06,0.0079853695822413,0.0,0.0,0.0,0.0013515428571428,0.8320067417020486,0,0.8320067417020486,8.242813150596908e-08,0.4974857142857143,-0.0463207552654163,0.0051338467753729,0.0005824135970977,1.0192237949209952,0.8422857142857143,0.7491083425639209,0.3983379428571428,0.0366790192570158,9.478581098798512e-05,0.8300902641257938,0.0230294411245872,1.0,1.1516764712005134e-05,1.1516764712005134e-05,0.9228571428571428,0.5622857142857143,0.7513428571428572,0.9256342857142856,-0.0829997745224322,-0.1207928,4.0,3.0,1.0,0.5582329317269076,-0.3577789366275639,-0.9338063142352645,-0.8901457403773956,-0.4556759384562435,5.0,0.4782608695652174,24.0,0.0,0.0,0.0,0.0,0.0,0.0,1.0,0.0,0.0,0.0,0.0,0.0,0.0,0.0,1.0,1.0,0.0,0.0,0.0,0.0,0.0,0.0,1.0,0.0,1.0,1.0,0.0,0.6954687088979592,0.4912916914285715,3.974071712354741,0.9999999999986805,-0.1239564793729138,0.6572857947236307,0.0,1.0,1.0,-0.01036324850606424,1.0,1.0,1.0,0.0,0.6085573943998153,h107_move
h107_strict_antitoxic_core_c44_a045_a0ea1eec,1003,143,id06,2024-08-13,2024-08-12,Q3,2,0.7974211568605402,0.7976028404050293,1.0219184443105437e-07,0.1975142857142857,0.7239771428571429,0.3612903428571428,0.4418571428571428,0.428,0.2734751428571428,1.0,1.0,0,9.0,6.528504425976319,2.0,1.0,0.0011250688438861,-5.3973778056587786e-11,-1.0219184443105437e-07,1.0,1.0,0.0,0.0,0.0036869899416043,0.2033244741112442,0.4194285714285714,0.7645714285714286,0.7622857142857142,0.0,0.0,,0.4938285714285715,0.7976486346250319,0.0014087668147091,1.4579317042517914e-07,0.0014087668147091,0.0,0.0,1.0,0.2141395999999999,0.8042915887861274,0,0.8042915887861274,6.427869809191278e-08,0.4171542857142857,0.038301195431796,0.0034032669145295,0.000583616319535,1.02132855918633,0.8502857142857143,0.3996342215272672,0.5556594285714285,0.0430822151337688,0.0001473572723578,0.801907638378985,0.02800623506122,1.0,5.662968595832041e-05,5.662968595832041e-05,0.9542857142857144,0.5817142857142857,0.7860285714285715,0.8718800000000001,-0.0047810197019728,0.0492705142857143,1.0,0.0,1.0,0.5742971887550201,-0.4500514963711879,-0.8930026039234458,-0.9855293386108991,-0.16950493425609692,5.0,0.6521739130434783,24.0,0.0,0.0,1.0,0.0,0.0,0.0,0.0,0.0,1.0,1.0,0.0,0.0,0.0,0.0,0.0,0.0,0.0,0.0,0.0,0.0,0.0,1.0,0.0,1.0,0.0,1.0,0.0,0.685322590857143,0.32353276571428574,8.574774156156407,0.9999999999927149,-0.010405405660680826,0.07743414315076068,0.0,1.0,1.0,-0.012602805777548999,1.0,1.0,1.0,0.0,0.7495745347418372,h107_move
h107_strict_antitoxic_core_c44_a045_a0ea1eec,1013,144,id06,2024-08-14,2024-08-13,S3,5,0.9522076528619444,0.951030851055967,1.509834010707256e-05,0.4260571428571428,0.670817142857143,0.0757880857142856,0.9469714285714286,0.9308571428571428,0.4453364571428572,1.0,1.0,0,0.0,0.0,0.0,0.0,0.0,0.0,0.0,0.0,0.0,0.0,0.0,0.337421922395201,0.0,0.9537142857142856,0.0777142857142857,0.1788571428571428,0.0,0.0,,-0.7011571428571429,0.9511648346262598,-0.0226808888572636,1.0793325352420611e-05,0.0226808888572636,0.0,0.0,0.0,0.0697650857142857,0.9463979428642126,1,0.9463979428642126,7.913949188770699e-08,0.5184228571428572,0.0736220453953238,0.0012356743014629,0.0005537828437696,0.969119976596906,0.1251428571428571,0.5912107460614958,0.0202428571428571,-0.1208419165152991,0.0003573805720112,0.9444020832456476,-0.1595113298001926,1.0,0.0004413604881809,0.0004413604881809,0.996,0.9268571428571428,0.9379714285714286,0.9526514285714286,0.1944639619106229,-0.1030012571428571,2.0,1.0,1.0,0.5783132530120482,-0.47243956847967067,-0.881363066014649,-0.9955262728085589,-0.09448513188803238,5.0,0.6956521739130435,24.0,0.0,0.0,0.0,0.0,0.0,1.0,0.0,0.0,0.0,0.0,1.0,1.0,0.0,0.0,0.0,0.0,0.0,0.0,0.0,0.0,0.0,0.0,1.0,0.0,1.0,1.0,0.0,0.8935598213877551,0.27296273142857147,3.6637693074013087,0.9999999999992281,0.22,1.1823701962081288,1.0,1.0,1.0,0.07178009841008667,1.0,1.0,1.0,0.0,0.7213740334856062,h107_move
h107_strict_antitoxic_core_c44_a045_a0ea1eec,1025,146,id06,2024-08-20,2024-08-19,S1,3,0.8954549884000682,0.8959698352864354,1.417783483670387e-06,0.3377485714285714,0.7720971428571428,0.5372021142857144,0.4566714285714286,0.1785714285714285,0.3825,1.0,1.0,0,2.0,1.93657810305736,1.0,1.0,0.0055115996762786,-7.210063458333783e-09,-1.417783483614876e-06,1.0,0.0,0.0,0.0,0.0,0.1814867640869667,0.1785714285714285,0.7262857142857143,0.7297142857142858,0.0,0.0,,0.5688714285714286,0.8960266401379597,0.0061211893265373,1.5910230796167824e-06,0.0061211893265373,0.0,0.0,1.0,0.2748399428571428,0.9013371564884484,1,0.9013371564884484,9.526538141963833e-08,0.5840571428571429,0.0605883148573789,0.0025008685591644,0.0005691878083733,0.996078664653354,0.5982857142857143,0.5025209256459693,0.4072595428571429,0.0644567290925564,0.0001879499485854,0.8960564726868825,0.006441449137962,1.0,-1.7434042313135834e-06,0.0,0.4542857142857143,0.4811428571428571,0.4641428571428571,0.6506171428571429,-0.0038684142351774,0.1833594285714285,1.0,0.0,1.0,0.5863453815261044,-0.51629923627004,-0.8564082546466804,-0.9983886888289513,0.05674527309307293,5.0,0.782608695652174,24.0,0.0,0.0,0.0,1.0,0.0,0.0,0.0,0.0,1.0,1.0,0.0,0.0,0.0,0.0,0.0,0.0,0.0,0.0,0.0,0.0,0.0,0.0,1.0,0.0,1.0,1.0,0.0,0.3019792995918367,0.4251408571428571,18.056207045720036,0.9999999999956902,-0.008352955695592745,0.08585596667523887,1.0,1.0,1.0,-0.0028986521120829,1.0,1.0,1.0,0.0,0.6556169571422538,h107_move
h107_strict_antitoxic_core_c44_a045_a0ea1eec,1057,151,id06,2024-08-25,2024-08-24,Q1,0,0.2931200235617892,0.2940047415236316,1.8877009515527732e-06,0.3332628571428572,0.7080171428571429,0.4039888571428572,0.5654857142857144,0.4817142857142857,0.3501362285714285,1.0,1.0,0,1.0,0.98640079466928,1.0,1.0,0.0042660984396376,-1.0020730809332893e-08,-1.8877009515527732e-06,1.0,0.0,0.0,0.0,0.0069087191295727,0.1085813693048932,0.46,0.5908571428571429,0.5965714285714285,0.0,0.0,,0.4900228571428571,0.2940407945891951,0.0044397867305515,1.860541860465581e-06,0.0044397867305515,1.0,0.0,1.0,0.2779978285714286,0.3160480568474452,1,0.6839519431525547,3.543989487264716e-07,0.5622057142857144,0.0767078893727275,0.0004647756016188,0.000563572964942,0.9862526886486588,0.3011428571428571,0.2390823668590611,0.2716846857142857,0.1082853490810346,0.001250143867855,0.2941165191992924,0.0048045551477717,1.0,-2.0308272858926557e-06,0.0,0.4542857142857143,0.4708571428571428,0.4616571428571429,0.8998400000000001,-0.0315774597083073,0.2318356571428572,6.0,5.0,1.0,0.606425702811245,-0.6199605408122385,-0.7846329892604547,-0.9067516281939827,0.42166513345018397,5.0,1.0,24.0,1.0,0.0,0.0,0.0,0.0,0.0,0.0,0.0,0.0,0.0,0.0,0.0,0.0,0.0,0.0,0.0,0.0,0.0,1.0,1.0,0.0,1.0,0.0,1.0,0.0,1.0,0.0,0.4154175634285715,0.5168146514285716,11.74689253346193,0.9999999999990178,-0.056338218785209546,0.5024455169649946,1.0,1.0,1.0,-0.002162049816497265,1.0,1.0,1.0,0.0,0.642418963885577,h107_move
h107_strict_antitoxic_core_c44_a045_a0ea1eec,1148,164,id07,2024-07-26,2024-07-25,Q1,0,0.5726236359257583,0.5785182382955152,7.107495999258973e-05,0.3531828571428571,0.5277371428571428,-0.0308976285714285,0.9647428571428572,0.9491428571428572,0.3696770285714286,1.0,1.0,0,4.0,7.150759261260218,1.0,1.0,0.0107728068932244,-1.2662505403575502e-08,-4.8598608335352806e-05,0.0,0.0,0.0,1.0,0.2847313265208278,0.0,0.9405714285714286,0.0777142857142857,0.1788571428571428,1.0,1.0,seed_q061_companion,0.2934971428571428,0.5784324143683724,0.023777970260246,6.281269137575762e-05,0.023777970260246,0.0,1.0,1.0,0.2427167428571428,0.6057356549616199,0,0.6057356549616199,2.395791371501162e-07,0.5222971428571428,-0.0601479714388651,0.0028665154478622,0.0005256559126248,0.919897847093514,0.0462857142857142,0.2934742653132805,0.0831499428571428,0.1368584367882453,0.0022566059611043,0.5926098562501864,0.082201326412172,1.0,0.0003458175576152,0.0003458175576152,0.9942857142857144,0.7868571428571428,0.8911714285714286,0.9825542857142858,-0.1970064082271105,0.0275415999999998,4.0,3.0,1.0,0.6586345381526104,-0.839699808785118,-0.5430508550092121,-0.15082429716137438,0.9885605855918884,6.0,0.41379310344827586,30.0,1.0,0.0,0.0,0.0,0.0,0.0,0.0,0.0,0.0,0.0,0.0,0.0,0.0,0.0,1.0,1.0,0.0,0.0,0.0,0.0,0.0,1.0,0.0,1.0,0.0,1.0,0.0,0.8756243064489797,0.6744735314285715,4.887968748948608,0.9999999999993625,-0.2086259551103846,1.3058082026752087,1.0,1.0,1.0,-0.0369905968854774,1.0,1.0,1.0,0.0,0.7631344180570536,h107_move
h107_strict_antitoxic_core_c44_a045_a0ea1eec,1154,164,id07,2024-07-26,2024-07-25,S4,6,0.3773264958983826,0.3806992444389726,2.417989854019975e-05,0.3498857142857143,0.5277371428571428,-0.0450253714285713,0.9542,0.92,0.3851811428571428,1.0,1.0,0,4.0,7.150759261260218,1.0,1.0,0.006397676751739,-1.1884740666293036e-08,-1.652587185190865e-05,0.0,0.0,0.0,1.0,0.3149601376641728,0.0,0.9497142857142856,0.0777142857142857,0.1788571428571428,1.0,1.0,seed_q061_companion,0.2868685714285713,0.3806108503006162,0.0139551743480836,2.086447315363671e-05,0.0139551743480836,0.0,1.0,1.0,0.2017081142857142,0.3827457929282127,0,0.6172542070717872,4.143843838059222e-07,0.6303542857142858,-0.0798121694974146,0.0046721907240113,0.0005578411478312,0.9762220087046362,0.1765714285714285,0.6369021237462911,0.1225257142857142,0.0230015601792245,6.238347097342611e-05,0.3820022291534626,0.0198530550945121,1.0,-1.8827635697604705e-05,0.0,0.4542857142857143,0.5508571428571428,0.4944,0.9444742857142856,-0.1028137296766391,0.088597257142857,4.0,3.0,1.0,0.6586345381526104,-0.839699808785118,-0.5430508550092121,-0.15082429716137438,0.9885605855918884,6.0,0.41379310344827586,30.0,0.0,0.0,0.0,0.0,0.0,0.0,1.0,0.0,0.0,0.0,0.0,0.0,0.0,0.0,1.0,1.0,0.0,0.0,0.0,0.0,0.0,0.0,1.0,0.0,1.0,1.0,0.0,0.4669480868571428,0.39203521142857145,3.9507382397950694,0.9999999999987492,-0.13154132963861961,0.7488556161924332,1.0,1.0,1.0,-0.008933874792530445,1.0,1.0,1.0,0.0,0.5722043025141106,h107_move
h107_strict_antitoxic_core_c44_a045_a0ea1eec,1374,196,id08,2024-09-11,2024-09-10,Q3,2,0.2963200064304016,0.2968325774382657,6.297919104003569e-07,0.19404,0.4665371428571429,0.2008126857142857,0.5463714285714286,0.4165714285714286,0.2618688571428571,1.0,1.0,0,0.0,0.0,0.0,0.0,0.0,0.0,0.0,0.0,0.0,0.0,0.0,0.0114015618015418,0.1420097414442494,0.5114285714285715,0.6605714285714286,0.6508571428571429,0.0,0.0,,-0.6395857142857143,0.2968444829584942,0.0025140138640782,6.000243865100785e-07,0.0025140138640782,0.0,0.0,0.0,0.0459093142857142,0.3111475092637512,0,0.6888524907362488,1.316196039936255e-07,0.3977714285714286,0.0473205511205339,0.0013331809729006,0.0005779741344234,1.0114547352410452,0.7954285714285714,0.4091039252404732,0.4152299428571429,0.0701236748422622,0.0005222648125069,0.2995468779973178,0.0154272084652978,1.0,1.677373705688545e-05,1.677373705688545e-05,0.9302857142857144,0.5285714285714286,0.7481428571428572,0.8949828571428572,-0.0228031237217283,-0.0831121142857143,2.0,1.0,1.0,0.7871485943775101,-0.9728829847220697,0.23129785567159294,0.7646910926171744,-0.6443970304648774,7.0,0.7777777777777778,19.0,0.0,0.0,1.0,0.0,0.0,0.0,0.0,0.0,0.0,0.0,1.0,1.0,0.0,0.0,0.0,0.0,0.0,0.0,0.0,0.0,0.0,1.0,0.0,1.0,0.0,1.0,0.0,0.6695750318367348,0.25553450285714285,3.0177594545083983,0.9999999999957929,-0.05119812219396225,0.2342519560035995,0.0,0.0,0.0,-0.00694224380938401,1.0,1.0,1.0,0.0,0.6596078174851253,h107_move
h107_strict_antitoxic_core_c44_a045_a0ea1eec,1651,235,id10,2024-08-18,2024-08-17,S4,6,0.694453103168171,0.692519258745744,8.80199338038068e-06,0.3776571428571428,0.5461771428571429,0.3415236571428572,0.6363714285714286,0.4611428571428571,0.4020548571428571,1.0,1.0,0,2.0,1.93657810305736,1.0,1.0,-0.0090977656768795,-1.5153059639965843e-08,-8.80199338038068e-06,1.0,0.0,0.0,0.0,0.0110276853229074,0.0677063922836001,0.5062857142857143,0.4914285714285714,0.5017142857142857,0.0,0.0,,0.4595371428571428,0.6925099213035104,-0.0091416161705367,8.086645592486619e-06,0.0091416161705367,0.0,0.0,1.0,0.2121241714285714,0.6754200404553632,1,0.6754200404553632,1.202045296033204e-07,0.5109028571428571,-0.0441077522835295,0.0031533250328787,0.000571202273135,0.999603977986322,0.6685714285714286,0.3153677382338156,0.3956851428571428,-0.0882184933543172,0.0008441006167392,0.6903194737050469,-0.0194080685379496,1.0,2.349549555136221e-06,2.349549555136221e-06,0.9131428571428571,0.5491428571428572,0.7378571428571429,0.9048857142857144,0.0441107410707876,0.0760081142857142,6.0,5.0,1.0,0.9437751004016064,-0.3459690901728594,0.9382459105399628,-0.8722647273621952,0.4890339920698307,9.0,0.3333333333333333,22.0,0.0,0.0,0.0,0.0,0.0,0.0,1.0,0.0,0.0,0.0,0.0,0.0,0.0,0.0,0.0,0.0,0.0,0.0,1.0,1.0,0.0,0.0,1.0,0.0,1.0,1.0,0.0,0.6676763877551022,0.2888579542857143,13.12458441226554,0.9999999999994155,0.08474075094718334,0.6661912815246375,0.0,0.0,0.0,0.00873363084207732,1.0,1.0,1.0,0.0,0.722184134514204,h107_move
h107_kernel_antipode_transfer_c64_a050_d46c942f,945,135,id06,2024-07-14,2024-07-13,Q1,0,0.3265168623517541,0.332467224835243,8.025667657762803e-05,0.3744571428571428,0.4153771428571429,-0.0994901714285714,0.9742571428571428,0.9685714285714284,0.3800493714285714,0.0,1.0,0,0.0,0.0,0.0,0.0,0.0,0.0,0.0,0.0,0.0,0.0,0.0,0.5725434492673942,0.0,0.9817142857142858,0.0777142857142857,0.1788571428571428,0.0,0.0,,-0.8262657142857144,0.3323169909206154,0.0262571471809444,6.938334396489054e-05,0.0262571471809444,0.0,0.0,0.0,0.0315527428571428,0.344659554634995,1,0.655340445365005,9.866239582278026e-07,0.6901028571428571,-0.123946419174583,0.0014640261314393,0.0003771091657354,0.6599410400369783,0.0062857142857142,0.7984103847618609,-0.0157502857142857,0.081383632605916,0.0007415524517681,0.335027405247487,0.0384478717404617,1.0,-5.975131469893036e-05,0.0,0.4542857142857143,0.6268571428571429,0.5252571428571429,0.9829828571428572,-0.1743681471515381,-0.0398052571428571,6.0,5.0,1.0,0.5421686746987951,-0.2618644849608063,-0.9651046531419334,-0.7137661126871386,-0.7003841348713511,5.0,0.30434782608695654,24.0,1.0,0.0,0.0,0.0,0.0,0.0,0.0,0.0,0.0,0.0,0.0,0.0,0.0,0.0,0.0,0.0,0.0,0.0,1.0,1.0,0.0,1.0,0.0,1.0,0.0,1.0,0.0,0.5163187670204081,0.42969570285714287,4.879188064368772,0.9999999999991753,-0.1615622135225939,0.8609657541070516,0.0,0.0,1.0,-0.01922393587023085,1.0,1.0,1.0,0.0,0.5544865071998847,h107_move
h107_kernel_antipode_transfer_c64_a050_d46c942f,947,135,id06,2024-07-14,2024-07-13,Q3,2,0.8233562803446187,0.8211995281478749,1.5940535035174896e-05,0.2876571428571428,0.4153771428571429,-0.0838771142857143,0.9258,0.964,0.3306977142857142,1.0,1.0,0,0.0,0.0,0.0,0.0,0.0,0.0,0.0,0.0,0.0,0.0,0.0,0.2445756176535394,0.0,0.9285714285714286,0.0777142857142857,0.1788571428571428,0.0,0.0,,-0.7948314285714286,0.8212701536208874,-0.0142775087436182,1.3569943485169931e-05,0.0142775087436182,0.0,0.0,0.0,0.0141144571428571,0.8135768926925118,0,0.8135768926925118,6.984182582356931e-08,0.3558057142857143,0.0404020375392994,0.0006730519548812,0.0005742784329964,1.0049872577438463,0.7342857142857143,0.3838669842879127,0.360628,-0.0658326085220084,0.0003241510323629,0.8192405880794565,-0.0280433228436189,1.0,-9.664076740523164e-07,0.0,0.4542857142857143,0.5822857142857143,0.4927714285714286,0.93888,0.1062346460613079,-0.0398117714285714,6.0,5.0,1.0,0.5421686746987951,-0.2618644849608063,-0.9651046531419334,-0.7137661126871386,-0.7003841348713511,5.0,0.30434782608695654,24.0,0.0,0.0,1.0,0.0,0.0,0.0,0.0,0.0,0.0,0.0,0.0,0.0,0.0,0.0,0.0,0.0,0.0,0.0,1.0,1.0,0.0,1.0,0.0,1.0,0.0,1.0,0.0,0.4626532388571429,0.4524815657142857,5.87344660832074,0.999999999999217,0.14134102214440475,0.8125913534154581,0.0,0.0,1.0,0.01402166142180945,1.0,1.0,1.0,0.0,0.538182939314176,h107_move
h107_kernel_antipode_transfer_c64_a050_d46c942f,948,135,id06,2024-07-14,2024-07-13,S1,3,0.9734003575300472,0.973869257464141,4.27031754200724e-06,0.2894857142857143,0.4153771428571429,0.3433262285714286,0.4297285714285715,0.1785714285714285,0.3458441142857142,1.0,1.0,0,2.0,1.93657810305736,1.0,1.0,0.0182668759527704,-6.783755927062974e-09,-4.27031754200724e-06,1.0,0.0,0.0,0.0,0.0,0.6721905000622236,0.1785714285714285,0.9554285714285714,0.9554285714285714,0.0,0.0,,0.5057228571428571,0.974056188023359,0.0256381782046499,7.623804536976975e-06,0.0256381782046499,1.0,0.0,1.0,0.3323978857142857,0.980817671875396,1,0.980817671875396,7.548363998751178e-07,0.7854285714285714,0.3446132577608978,0.0004295859545019,0.0005796575197187,1.0144006595078832,0.816,0.6653164722172068,0.6087560000000001,0.3344994478363832,0.0011746399717037,0.9765267673632434,0.1282437362729367,1.0,0.000120434605223,0.000120434605223,0.9697142857142858,0.8891428571428571,0.8942,0.8769542857142857,0.0101138099245203,0.1683793142857143,6.0,5.0,1.0,0.5421686746987951,-0.2618644849608063,-0.9651046531419334,-0.7137661126871386,-0.7003841348713511,5.0,0.30434782608695654,24.0,0.0,0.0,0.0,1.0,0.0,0.0,0.0,0.0,0.0,0.0,0.0,0.0,0.0,0.0,0.0,0.0,0.0,0.0,1.0,1.0,0.0,0.0,1.0,0.0,1.0,0.0,1.0,0.0,0.4472482171428571,0.886584014171012,0.9999999999916573,-0.08787984128464758,0.17019550791961327,0.0,0.0,1.0,-0.06412186813646835,0.0,1.0,1.0,0.0,0.7073491489131178,h107_move
h107_kernel_antipode_transfer_c64_a050_d46c942f,949,135,id06,2024-07-14,2024-07-13,S2,4,0.9120002370412033,0.9128559625035724,4.575502052239777e-06,0.3906628571428571,0.4153771428571429,0.2220676,0.6870285714285714,0.6325714285714286,0.400656,0.0,1.0,0,0.0,0.0,0.0,0.0,0.0,0.0,0.0,0.0,0.0,0.0,0.0,0.0306072182800029,0.0387905347810696,0.6485714285714286,0.4114285714285714,0.3845714285714285,0.0,0.0,,-0.6916942857142857,0.9128484616979826,0.0106153362211465,4.091754492618893e-06,0.0106153362211465,0.0,0.0,0.0,0.0204137714285714,0.9250982584531292,1,0.9250982584531292,2.2462660630838865e-07,0.7114057142857144,0.1055641087159346,0.0028894661390598,0.0005657735831001,0.9901037704252228,0.4017142857142857,0.1604154161182626,0.1480686857142857,0.1754166861823174,0.0011206919463118,0.916900949362351,0.062660043836634,1.0,0.0001017187385513,0.0001017187385513,0.9645714285714284,0.7251428571428571,0.8401142857142857,0.9117314285714286,-0.0698525774663827,-0.1410235428571428,6.0,5.0,1.0,0.5421686746987951,-0.2618644849608063,-0.9651046531419334,-0.7137661126871386,-0.7003841348713511,5.0,0.30434782608695654,24.0,0.0,0.0,0.0,0.0,1.0,0.0,0.0,0.0,0.0,0.0,0.0,0.0,0.0,0.0,0.0,0.0,0.0,0.0,1.0,1.0,0.0,0.0,1.0,0.0,1.0,1.0,0.0,0.765958597877551,0.5573068457142858,2.8910092992246947,0.9999999999980714,-0.11658093768966464,0.5244759131335283,0.0,0.0,1.0,-0.031330021918317,1.0,1.0,1.0,0.0,0.7242802243425872,h107_move
h107_kernel_antipode_transfer_c64_a050_d46c942f,958,136,id06,2024-07-16,2024-07-15,S4,6,0.8793211893789878,0.8800493904202091,2.5029338155957426e-06,0.3645828571428571,0.5588971428571429,0.1084819428571429,0.7967428571428572,0.7268571428571429,0.3787347428571428,1.0,1.0,0,0.0,0.0,0.0,0.0,0.0,0.0,0.0,0.0,0.0,0.0,0.0,0.1594115670323823,0.0,0.8822857142857143,0.0777142857142857,0.1788571428571428,0.0,0.0,,-0.7095342857142858,0.8799999511198453,0.0064120263061722,1.9788838113155016e-06,0.0064120263061722,0.0,0.0,0.0,0.0212581142857142,0.8834973597348148,1,0.8834973597348148,8.471331549768475e-09,0.3511542857142857,-0.0171551486596812,0.0031343608795367,0.0005683629451615,0.9946351540327674,0.5531428571428572,0.5888697722476787,0.1944567999999999,0.039956691866398,8.300913775149965e-05,0.8807134130136618,0.0131857083159114,1.0,2.441039736456041e-07,2.441039736456041e-07,0.9085714285714286,0.5165714285714286,0.7216285714285715,0.9087942857142858,-0.0571118405260793,-0.0966108571428571,1.0,0.0,1.0,0.5461847389558233,-0.2861316735085688,-0.9581903075147368,-0.7646910926171749,-0.6443970304648767,5.0,0.34782608695652173,24.0,0.0,0.0,0.0,0.0,0.0,0.0,1.0,0.0,1.0,1.0,0.0,0.0,0.0,0.0,0.0,0.0,0.0,0.0,0.0,0.0,0.0,0.0,1.0,0.0,1.0,1.0,0.0,0.6558119221224491,0.47814422857142863,14.774026075731031,0.9999999999995725,-0.10292196867709782,0.8604718556778779,0.0,1.0,1.0,-0.0065928541579557,1.0,1.0,1.0,0.0,0.6033851131427973,h107_move
h107_kernel_antipode_transfer_c64_a050_d46c942f,975,139,id06,2024-07-19,2024-07-18,Q3,2,0.7439595438752091,0.7399677023608381,4.16859280448767e-05,0.3280228571428571,0.5280971428571429,-0.0332376571428571,0.9586285714285714,0.9811428571428572,0.3647565714285714,0.0,1.0,0,0.0,0.0,0.0,0.0,0.0,0.0,0.0,0.0,0.0,0.0,0.0,0.3736466735880533,0.0,0.9617142857142856,0.0777142857142857,0.1788571428571428,0.0,0.0,,-0.8055971428571429,0.7400840689307989,-0.020245643390468,3.5750219449570686e-05,0.020245643390468,0.0,0.0,0.0,0.0240670285714286,0.7314817680775492,1,0.7314817680775492,5.469611738723606e-07,0.7339085714285715,0.0994963433248757,0.0056064356772304,0.0005687243082713,0.9952675394748086,0.5782857142857143,0.415144879432044,0.2598524571428571,-0.0644977115049467,0.0004044507406137,0.7354432689956294,-0.0442335008621266,1.0,1.6260783992305683e-05,1.6260783992305683e-05,0.9297142857142856,0.6497142857142857,0.784,0.973,0.1639940548298225,-0.1154598857142857,4.0,3.0,1.0,0.5582329317269076,-0.3577789366275639,-0.9338063142352645,-0.8901457403773956,-0.4556759384562435,5.0,0.4782608695652174,24.0,0.0,0.0,1.0,0.0,0.0,0.0,0.0,0.0,0.0,0.0,0.0,0.0,0.0,0.0,1.0,1.0,0.0,0.0,0.0,0.0,0.0,1.0,0.0,1.0,0.0,1.0,0.0,0.7628320000000001,0.44296686857142864,2.971552713505406,0.999999999996314,0.05934148175669029,0.2791622987126774,0.0,1.0,1.0,0.0221167504310633,1.0,1.0,1.0,0.0,0.6393651756566268,h107_move
h107_kernel_antipode_transfer_c64_a050_d46c942f,979,139,id06,2024-07-19,2024-07-18,S4,6,0.8268174475003207,0.8280647752584297,5.443071396993293e-06,0.2987828571428571,0.5280971428571429,-0.0621637714285713,0.8908857142857144,0.8897142857142857,0.3496909714285714,1.0,1.0,0,0.0,0.0,0.0,0.0,0.0,0.0,0.0,0.0,0.0,0.0,0.0,0.3410531498239687,0.0,0.9548571428571428,0.0777142857142857,0.1788571428571428,0.0,0.0,,-0.7669400000000001,0.8279578930664663,0.0079853695822413,4.14051900110568e-06,0.0079853695822413,0.0,0.0,0.0,0.0013515428571428,0.8320067417020486,0,0.8320067417020486,8.242813150596908e-08,0.4974857142857143,-0.0463207552654163,0.0051338467753729,0.0005824135970977,1.0192237949209952,0.8422857142857143,0.7491083425639209,0.3983379428571428,0.0366790192570158,9.478581098798512e-05,0.8300902641257938,0.0230294411245872,1.0,1.1516764712005134e-05,1.1516764712005134e-05,0.9228571428571428,0.5622857142857143,0.7513428571428572,0.9256342857142856,-0.0829997745224322,-0.1207928,4.0,3.0,1.0,0.5582329317269076,-0.3577789366275639,-0.9338063142352645,-0.8901457403773956,-0.4556759384562435,5.0,0.4782608695652174,24.0,0.0,0.0,0.0,0.0,0.0,0.0,1.0,0.0,0.0,0.0,0.0,0.0,0.0,0.0,1.0,1.0,0.0,0.0,0.0,0.0,0.0,0.0,1.0,0.0,1.0,1.0,0.0,0.6954687088979592,0.4912916914285715,3.974071712354741,0.9999999999986805,-0.1239564793729138,0.6572857947236307,0.0,1.0,1.0,-0.0115147205622936,1.0,1.0,1.0,0.0,0.6085573943998153,h107_move
h107_kernel_antipode_transfer_c64_a050_d46c942f,1003,143,id06,2024-08-13,2024-08-12,Q3,2,0.7974211568605402,0.7976028404050293,1.0219184443105437e-07,0.1975142857142857,0.7239771428571429,0.3612903428571428,0.4418571428571428,0.428,0.2734751428571428,1.0,1.0,0,9.0,6.528504425976319,2.0,1.0,0.0011250688438861,-5.3973778056587786e-11,-1.0219184443105437e-07,1.0,1.0,0.0,0.0,0.0036869899416043,0.2033244741112442,0.4194285714285714,0.7645714285714286,0.7622857142857142,0.0,0.0,,0.4938285714285715,0.7976486346250319,0.0014087668147091,1.4579317042517914e-07,0.0014087668147091,0.0,0.0,1.0,0.2141395999999999,0.8042915887861274,0,0.8042915887861274,6.427869809191278e-08,0.4171542857142857,0.038301195431796,0.0034032669145295,0.000583616319535,1.02132855918633,0.8502857142857143,0.3996342215272672,0.5556594285714285,0.0430822151337688,0.0001473572723578,0.801907638378985,0.02800623506122,1.0,5.662968595832041e-05,5.662968595832041e-05,0.9542857142857144,0.5817142857142857,0.7860285714285715,0.8718800000000001,-0.0047810197019728,0.0492705142857143,1.0,0.0,1.0,0.5742971887550201,-0.4500514963711879,-0.8930026039234458,-0.9855293386108991,-0.16950493425609692,5.0,0.6521739130434783,24.0,0.0,0.0,1.0,0.0,0.0,0.0,0.0,0.0,1.0,1.0,0.0,0.0,0.0,0.0,0.0,0.0,0.0,0.0,0.0,0.0,0.0,1.0,0.0,1.0,0.0,1.0,0.0,0.685322590857143,0.32353276571428574,8.574774156156407,0.9999999999927149,-0.010405405660680826,0.07743414315076068,0.0,1.0,1.0,-0.01400311753061,1.0,1.0,1.0,0.0,0.7495745347418372,h107_move
h107_kernel_antipode_transfer_c64_a050_d46c942f,1013,144,id06,2024-08-14,2024-08-13,S3,5,0.9522076528619444,0.951030851055967,1.509834010707256e-05,0.4260571428571428,0.670817142857143,0.0757880857142856,0.9469714285714286,0.9308571428571428,0.4453364571428572,1.0,1.0,0,0.0,0.0,0.0,0.0,0.0,0.0,0.0,0.0,0.0,0.0,0.0,0.337421922395201,0.0,0.9537142857142856,0.0777142857142857,0.1788571428571428,0.0,0.0,,-0.7011571428571429,0.9511648346262598,-0.0226808888572636,1.0793325352420611e-05,0.0226808888572636,0.0,0.0,0.0,0.0697650857142857,0.9463979428642126,1,0.9463979428642126,7.913949188770699e-08,0.5184228571428572,0.0736220453953238,0.0012356743014629,0.0005537828437696,0.969119976596906,0.1251428571428571,0.5912107460614958,0.0202428571428571,-0.1208419165152991,0.0003573805720112,0.9444020832456476,-0.1595113298001926,1.0,0.0004413604881809,0.0004413604881809,0.996,0.9268571428571428,0.9379714285714286,0.9526514285714286,0.1944639619106229,-0.1030012571428571,2.0,1.0,1.0,0.5783132530120482,-0.47243956847967067,-0.881363066014649,-0.9955262728085589,-0.09448513188803238,5.0,0.6956521739130435,24.0,0.0,0.0,0.0,0.0,0.0,1.0,0.0,0.0,0.0,0.0,1.0,1.0,0.0,0.0,0.0,0.0,0.0,0.0,0.0,0.0,0.0,0.0,1.0,0.0,1.0,1.0,0.0,0.8935598213877551,0.27296273142857147,3.6637693074013087,0.9999999999992281,0.22,1.1823701962081288,1.0,1.0,1.0,0.0797556649000963,1.0,1.0,1.0,0.0,0.7213740334856062,h107_move
h107_kernel_antipode_transfer_c64_a050_d46c942f,1025,146,id06,2024-08-20,2024-08-19,S1,3,0.8954549884000682,0.8959698352864354,1.417783483670387e-06,0.3377485714285714,0.7720971428571428,0.5372021142857144,0.4566714285714286,0.1785714285714285,0.3825,1.0,1.0,0,2.0,1.93657810305736,1.0,1.0,0.0055115996762786,-7.210063458333783e-09,-1.417783483614876e-06,1.0,0.0,0.0,0.0,0.0,0.1814867640869667,0.1785714285714285,0.7262857142857143,0.7297142857142858,0.0,0.0,,0.5688714285714286,0.8960266401379597,0.0061211893265373,1.5910230796167824e-06,0.0061211893265373,0.0,0.0,1.0,0.2748399428571428,0.9013371564884484,1,0.9013371564884484,9.526538141963833e-08,0.5840571428571429,0.0605883148573789,0.0025008685591644,0.0005691878083733,0.996078664653354,0.5982857142857143,0.5025209256459693,0.4072595428571429,0.0644567290925564,0.0001879499485854,0.8960564726868825,0.006441449137962,1.0,-1.7434042313135834e-06,0.0,0.4542857142857143,0.4811428571428571,0.4641428571428571,0.6506171428571429,-0.0038684142351774,0.1833594285714285,1.0,0.0,1.0,0.5863453815261044,-0.51629923627004,-0.8564082546466804,-0.9983886888289513,0.05674527309307293,5.0,0.782608695652174,24.0,0.0,0.0,0.0,1.0,0.0,0.0,0.0,0.0,1.0,1.0,0.0,0.0,0.0,0.0,0.0,0.0,0.0,0.0,0.0,0.0,0.0,0.0,1.0,0.0,1.0,1.0,0.0,0.3019792995918367,0.4251408571428571,18.056207045720036,0.9999999999956902,-0.008352955695592745,0.08585596667523887,1.0,1.0,1.0,-0.003220724568981,1.0,1.0,1.0,0.0,0.6556169571422538,h107_move
h107_kernel_antipode_transfer_c64_a050_d46c942f,1057,151,id06,2024-08-25,2024-08-24,Q1,0,0.2931200235617892,0.2940047415236316,1.8877009515527732e-06,0.3332628571428572,0.7080171428571429,0.4039888571428572,0.5654857142857144,0.4817142857142857,0.3501362285714285,1.0,1.0,0,1.0,0.98640079466928,1.0,1.0,0.0042660984396376,-1.0020730809332893e-08,-1.8877009515527732e-06,1.0,0.0,0.0,0.0,0.0069087191295727,0.1085813693048932,0.46,0.5908571428571429,0.5965714285714285,0.0,0.0,,0.4900228571428571,0.2940407945891951,0.0044397867305515,1.860541860465581e-06,0.0044397867305515,1.0,0.0,1.0,0.2779978285714286,0.3160480568474452,1,0.6839519431525547,3.543989487264716e-07,0.5622057142857144,0.0767078893727275,0.0004647756016188,0.000563572964942,0.9862526886486588,0.3011428571428571,0.2390823668590611,0.2716846857142857,0.1082853490810346,0.001250143867855,0.2941165191992924,0.0048045551477717,1.0,-2.0308272858926557e-06,0.0,0.4542857142857143,0.4708571428571428,0.4616571428571429,0.8998400000000001,-0.0315774597083073,0.2318356571428572,6.0,5.0,1.0,0.606425702811245,-0.6199605408122385,-0.7846329892604547,-0.9067516281939827,0.42166513345018397,5.0,1.0,24.0,1.0,0.0,0.0,0.0,0.0,0.0,0.0,0.0,0.0,0.0,0.0,0.0,0.0,0.0,0.0,0.0,0.0,0.0,1.0,1.0,0.0,1.0,0.0,1.0,0.0,1.0,0.0,0.4154175634285715,0.5168146514285716,11.74689253346193,0.9999999999990178,-0.056338218785209546,0.5024455169649946,1.0,1.0,1.0,-0.00240227757388585,1.0,1.0,1.0,0.0,0.642418963885577,h107_move
h107_kernel_antipode_transfer_c64_a050_d46c942f,1059,151,id06,2024-08-25,2024-08-24,Q3,2,0.8051517532471274,0.8030150111803502,1.4511156814778214e-05,0.3337085714285714,0.7080171428571429,0.1520932571428572,0.9230857142857144,0.956,0.3712925714285713,1.0,1.0,0,0.0,0.0,0.0,0.0,0.0,0.0,0.0,0.0,0.0,0.0,0.0,0.2271737521378298,0.006086278522037,0.9222857142857144,0.2165714285714285,0.1788571428571428,0.0,0.0,,-0.7007057142857144,0.8030744767017115,-0.0131878844070159,1.2479027673317766e-05,0.0131878844070159,0.0,0.0,0.0,0.0559329142857143,0.7951378735404838,1,0.7951378735404838,5.971452035624195e-08,0.3412114285714285,0.0361493346156307,0.0011125015620337,0.0005754150819827,1.0069763934697766,0.7565714285714286,0.4100387233611863,0.4062238857142857,-0.0626314127524751,0.0003155568519088,0.8043516859284782,-0.0050918768989105,1.0,-8.541367909509212e-06,0.0,0.4542857142857143,0.4731428571428571,0.4653428571428571,0.9348628571428572,0.0987807473681059,0.0054983999999999,6.0,5.0,1.0,0.606425702811245,-0.6199605408122385,-0.7846329892604547,-0.9067516281939827,0.42166513345018397,5.0,1.0,24.0,0.0,0.0,1.0,0.0,0.0,0.0,0.0,0.0,0.0,0.0,0.0,0.0,0.0,0.0,0.0,0.0,0.0,0.0,1.0,1.0,0.0,1.0,0.0,1.0,0.0,1.0,0.0,0.43503175297959185,0.4528153828571429,16.73032730699882,0.9999999999997499,0.15535073975430214,1.432715219230763,1.0,1.0,1.0,0.00254593844945525,1.0,1.0,1.0,0.0,0.5032804916571079,h107_move
h107_kernel_antipode_transfer_c64_a050_d46c942f,1148,164,id07,2024-07-26,2024-07-25,Q1,0,0.5726236359257583,0.5785182382955152,7.107495999258973e-05,0.3531828571428571,0.5277371428571428,-0.0308976285714285,0.9647428571428572,0.9491428571428572,0.3696770285714286,1.0,1.0,0,4.0,7.150759261260218,1.0,1.0,0.0107728068932244,-1.2662505403575502e-08,-4.8598608335352806e-05,0.0,0.0,0.0,1.0,0.2847313265208278,0.0,0.9405714285714286,0.0777142857142857,0.1788571428571428,1.0,1.0,seed_q061_companion,0.2934971428571428,0.5784324143683724,0.023777970260246,6.281269137575762e-05,0.023777970260246,0.0,1.0,1.0,0.2427167428571428,0.6057356549616199,0,0.6057356549616199,2.395791371501162e-07,0.5222971428571428,-0.0601479714388651,0.0028665154478622,0.0005256559126248,0.919897847093514,0.0462857142857142,0.2934742653132805,0.0831499428571428,0.1368584367882453,0.0022566059611043,0.5926098562501864,0.082201326412172,1.0,0.0003458175576152,0.0003458175576152,0.9942857142857144,0.7868571428571428,0.8911714285714286,0.9825542857142858,-0.1970064082271105,0.0275415999999998,4.0,3.0,1.0,0.6586345381526104,-0.839699808785118,-0.5430508550092121,-0.15082429716137438,0.9885605855918884,6.0,0.41379310344827586,30.0,1.0,0.0,0.0,0.0,0.0,0.0,0.0,0.0,0.0,0.0,0.0,0.0,0.0,0.0,1.0,1.0,0.0,0.0,0.0,0.0,0.0,1.0,0.0,1.0,0.0,1.0,0.0,0.8756243064489797,0.6744735314285715,4.887968748948608,0.9999999999993625,-0.2086259551103846,1.3058082026752087,1.0,1.0,1.0,-0.041100663206086,1.0,1.0,1.0,0.0,0.7631344180570536,h107_move
h107_kernel_antipode_transfer_c64_a050_d46c942f,1151,164,id07,2024-07-26,2024-07-25,S1,3,0.9223507042282848,0.9216005296464892,3.917279624177095e-06,0.2585542857142857,0.5277371428571428,-0.1077577142857144,0.9476857142857142,0.9794285714285714,0.3269070857142857,1.0,1.0,0,4.0,7.150759261260218,1.0,1.0,-0.0046557360965975,-2.455648310831864e-09,-2.6763739925174846e-06,0.0,0.0,0.0,1.0,0.580049688553327,0.0,0.9822857142857144,0.0777142857142857,0.1788571428571428,1.0,1.0,seed_q061_companion,0.24256,0.9217729289840444,-0.0080398963166077,2.11564951174692e-06,0.0080398963166077,0.0,1.0,1.0,0.1396150285714285,0.934273302796362,1,0.934273302796362,1.2071833231409308e-06,0.8719085714285715,0.2506320694487556,0.0026125534551015,0.0005915360823307,1.035188144078876,0.8891428571428571,0.8372818556296139,0.4899545142857143,0.1795407734626453,0.0010428642033394,0.9220945637329848,-0.0035709979341165,1.0,-1.6061254654586854e-06,0.0,0.4542857142857143,0.4657142857142857,0.4590857142857142,0.9133771428571428,0.0710912959861103,0.0364342857142856,4.0,3.0,1.0,0.6586345381526104,-0.839699808785118,-0.5430508550092121,-0.15082429716137438,0.9885605855918884,6.0,0.41379310344827586,30.0,0.0,0.0,0.0,1.0,0.0,0.0,0.0,0.0,0.0,0.0,0.0,0.0,0.0,0.0,1.0,1.0,0.0,0.0,0.0,0.0,0.0,0.0,1.0,0.0,1.0,1.0,0.0,0.4193183980408162,0.3923701142857143,3.9507382397950694,0.9999999999984063,0.1032285436670249,0.5826843582830704,1.0,1.0,1.0,0.00178549896705825,1.0,1.0,1.0,0.0,0.5238030508569198,h107_move
h107_kernel_antipode_transfer_c64_a050_d46c942f,1154,164,id07,2024-07-26,2024-07-25,S4,6,0.3773264958983826,0.3806992444389726,2.417989854019975e-05,0.3498857142857143,0.5277371428571428,-0.0450253714285713,0.9542,0.92,0.3851811428571428,1.0,1.0,0,4.0,7.150759261260218,1.0,1.0,0.006397676751739,-1.1884740666293036e-08,-1.652587185190865e-05,0.0,0.0,0.0,1.0,0.3149601376641728,0.0,0.9497142857142856,0.0777142857142857,0.1788571428571428,1.0,1.0,seed_q061_companion,0.2868685714285713,0.3806108503006162,0.0139551743480836,2.086447315363671e-05,0.0139551743480836,0.0,1.0,1.0,0.2017081142857142,0.3827457929282127,0,0.6172542070717872,4.143843838059222e-07,0.6303542857142858,-0.0798121694974146,0.0046721907240113,0.0005578411478312,0.9762220087046362,0.1765714285714285,0.6369021237462911,0.1225257142857142,0.0230015601792245,6.238347097342611e-05,0.3820022291534626,0.0198530550945121,1.0,-1.8827635697604705e-05,0.0,0.4542857142857143,0.5508571428571428,0.4944,0.9444742857142856,-0.1028137296766391,0.088597257142857,4.0,3.0,1.0,0.6586345381526104,-0.839699808785118,-0.5430508550092121,-0.15082429716137438,0.9885605855918884,6.0,0.41379310344827586,30.0,0.0,0.0,0.0,0.0,0.0,0.0,1.0,0.0,0.0,0.0,0.0,0.0,0.0,0.0,1.0,1.0,0.0,0.0,0.0,0.0,0.0,0.0,1.0,0.0,1.0,1.0,0.0,0.4669480868571428,0.39203521142857145,3.9507382397950694,0.9999999999987492,-0.13154132963861961,0.7488556161924332,1.0,1.0,1.0,-0.00992652754725605,1.0,1.0,1.0,0.0,0.5722043025141106,h107_move
h107_objective_antipode_c96_a042_a91647e7,3,0,id01,2024-07-31,2024-07-30,S1,3,0.5202725253271271,0.5236101888857627,2.2320883022897146e-05,0.3296457142857143,0.5036571428571429,0.0592980571428572,0.8507142857142858,0.7537142857142857,0.3292734857142856,1.0,1.0,0,0.0,0.0,0.0,0.0,0.0,0.0,0.0,0.0,0.0,0.0,0.0,0.166282513857259,0.0,0.8897142857142857,0.0777142857142857,0.1788571428571428,0.0,0.0,,-0.7491228571428571,0.5235543310942848,0.013152533950614,1.963802934246139e-05,0.013152533950614,0.0,0.0,0.0,0.0526722285714286,0.5367598867796822,0,0.5367598867796822,8.669450489455988e-08,0.2992457142857143,-0.0351603363907305,0.0004641149697683,0.0005472298175587,0.95765218072781,0.0885714285714285,0.4134929081993978,-0.0102653714285714,0.0661707536831843,0.0005451474145004,0.523904797882171,0.0145575658103003,1.0,-2.1333746199614367e-05,0.0,0.4542857142857143,0.5245714285714286,0.4871142857142858,0.9440457142857144,-0.1013310900739148,-0.0021125714285714,2.0,1.0,1.0,0.0,0.0,1.0,0.0,1.0,0.0,0.0,27.0,0.0,0.0,0.0,1.0,0.0,0.0,0.0,0.0,0.0,0.0,1.0,1.0,0.0,0.0,0.0,0.0,0.0,0.0,0.0,0.0,0.0,0.0,1.0,0.0,1.0,1.0,0.0,0.4598581537959185,0.36753994285714287,12.31797106000661,0.9999999999995247,-0.11103093756868547,0.8177898724323432,0.0,0.0,0.0,-0.006114177640326126,1.0,1.0,1.0,0.0,0.5239814188570765,h107_move
h107_objective_antipode_c96_a042_a91647e7,6,0,id01,2024-07-31,2024-07-30,S4,6,0.5084298008946088,0.5091151839410136,9.39781743536372e-07,0.1482914285714285,0.5036571428571429,0.3172508,0.4932142857142857,0.1785714285714285,0.2109301714285714,1.0,1.0,0,0.0,0.0,0.0,0.0,0.0,0.0,0.0,0.0,0.0,0.0,0.0,0.0,0.1856015952715258,0.1785714285714285,0.7337142857142858,0.736,0.0,0.0,,-0.5764400000000001,0.5091590368126224,0.0029178468760701,9.681413111195525e-07,0.0029178468760701,0.0,0.0,0.0,0.0957847428571428,0.5223625210687107,1,0.5223625210687107,1.4679869777242745e-07,0.45888,0.045010420029887,0.0019122187266242,0.000551777393772,0.9656104391011492,0.108,0.502682123038882,0.0688006857142857,0.0557874001969457,0.000388523838803,0.5114968799282992,0.0122732280433281,1.0,9.8721686667691e-06,9.8721686667691e-06,0.9217142857142856,0.5114285714285715,0.7346857142857143,0.8756571428571429,-0.0107769801670586,-0.0351718857142857,2.0,1.0,1.0,0.0,0.0,1.0,0.0,1.0,0.0,0.0,27.0,0.0,0.0,0.0,0.0,0.0,0.0,1.0,0.0,0.0,0.0,1.0,1.0,0.0,0.0,0.0,0.0,0.0,0.0,0.0,0.0,0.0,0.0,1.0,0.0,1.0,1.0,0.0,0.6433327934693878,0.57472224,14.624286960576873,0.9999999999987573,-0.03576487004711348,0.3033194861948564,0.0,0.0,0.0,-0.005154755778197802,1.0,1.0,1.0,0.0,0.7364385202283975,h107_move
h107_objective_antipode_c96_a042_a91647e7,23,3,id01,2024-08-03,2024-08-02,Q3,2,0.5825405612758282,0.5795370659761659,1.8534940263270627e-05,0.2811657142857143,0.6352171428571428,0.1250753999999999,0.8544285714285714,0.9097142857142856,0.3286348571428571,0.0,1.0,0,3.0,5.4,1.0,1.0,-0.0020563557839757,-1.3985871682512395e-09,-5.640630085346209e-06,0.0,0.0,0.0,1.0,0.127484423230084,0.0059622151491581,0.8485714285714285,0.2148571428571428,0.1788571428571428,1.0,1.0,episode_neighbor_q061,0.28076,0.5795635192393868,-0.0122295736452776,1.6570339673616097e-05,0.0122295736452776,1.0,0.0,1.0,0.1879783428571428,0.5577169744059128,0,0.5577169744059128,8.511330267661373e-11,0.1802285714285714,0.0011137372782469,0.0033986064699007,0.0005605465865673,0.9809565264928056,0.22,0.1387492598971923,0.2050615999999999,-0.1013098164667343,0.0012604154204444,0.5729004845201093,-0.0395164455506682,1.0,7.263366103893443e-05,7.263366103893443e-05,0.9571428571428572,0.6308571428571429,0.8040571428571429,0.9461771428571428,0.1024235537449813,0.0526738285714285,5.0,4.0,1.0,0.012048192771084338,0.0756287458844567,0.997136045279652,0.225155940522694,0.9743227403932134,0.0,0.11538461538461539,27.0,0.0,0.0,1.0,0.0,0.0,0.0,0.0,0.0,0.0,0.0,0.0,0.0,0.0,0.0,0.0,0.0,1.0,1.0,0.0,0.0,0.0,1.0,0.0,1.0,0.0,1.0,0.0,0.760780490122449,0.5840420685714287,3.0061376520171494,0.9999999999981126,0.1145614007781702,0.5243761754641578,0.0,0.0,0.0,0.016596907131280644,1.0,1.0,1.0,0.0,0.7174666796568787,h107_move
h107_objective_antipode_c96_a042_a91647e7,24,3,id01,2024-08-03,2024-08-02,S1,3,0.8856649411247233,0.884269699592085,9.57829480535688e-06,0.3897885714285715,0.6352171428571428,0.0773217714285714,0.9170857142857144,0.872,0.3982313142857143,1.0,1.0,0,3.0,5.4,1.0,1.0,-0.0022843066139102,-1.023657469904827e-08,-2.9117981057794986e-06,0.0,0.0,0.0,1.0,0.2406994082492063,0.0,0.9257142857142856,0.0777142857142857,0.1788571428571428,1.0,1.0,episode_neighbor_q061,0.3248571428571428,0.8843445253579758,-0.0129744625034478,7.806096574636268e-06,0.0129744625034478,0.0,1.0,1.0,0.2032936,0.8820840042998885,1,0.8820840042998885,9.344356289733132e-08,0.4318628571428572,0.0561513585022945,0.0001448418096032,0.0005651349325084,0.9889861318897074,0.3668571428571429,0.7227631446137076,0.1976734857142857,-0.0348906338605639,6.274948159712412e-05,0.8838282129387657,-0.0180127622696133,1.0,-7.28027584134816e-06,0.0,0.4542857142857143,0.5417142857142857,0.4852285714285714,0.9233085714285716,0.0910419923628584,0.0897802285714285,5.0,4.0,1.0,0.012048192771084338,0.0756287458844567,0.997136045279652,0.225155940522694,0.9743227403932134,0.0,0.11538461538461539,27.0,0.0,0.0,0.0,1.0,0.0,0.0,0.0,0.0,0.0,0.0,0.0,0.0,0.0,0.0,0.0,0.0,1.0,1.0,0.0,0.0,0.0,0.0,1.0,0.0,1.0,1.0,0.0,0.44801569910204087,0.43306448000000003,0.9833040141543777,0.9999999999948533,0.12843999999986938,0.3572783414179953,0.0,0.0,0.0,0.007565360153237585,1.0,1.0,1.0,0.0,0.571065389027851,h107_move
h107_objective_antipode_c96_a042_a91647e7,72,10,id01,2024-08-13,2024-08-12,Q3,2,0.6540271650616462,0.6541952273622312,6.241744099355628e-08,0.1664742857142857,0.602737142857143,0.2302518285714286,0.5890000000000001,0.4491428571428571,0.230052,1.0,1.0,0,0.0,0.0,0.0,0.0,0.0,0.0,0.0,0.0,0.0,0.0,0.0,0.0100850770282789,0.0408244641423714,0.4988571428571428,0.4182857142857142,0.4394285714285714,0.0,0.0,,-0.6395342857142857,0.6541978720697573,0.0007545083536356,5.860198104556958e-08,0.0007545083536356,0.0,0.0,0.0,0.0462374857142857,0.660758935028728,1,0.660758935028728,2.6109075210230136e-08,0.2374057142857142,0.0203862121377524,0.001085971111288,0.0005706359268388,0.9986128719680278,0.6548571428571428,0.3147640732580876,0.2738849142857143,0.029889488025075,0.0001004468135936,0.6540928845184623,0.0002904528282908,1.0,-4.00379900344916e-08,0.0,0.4542857142857143,0.444,0.4495714285714286,0.8768742857142858,-0.0095032758873225,-0.0067589714285714,1.0,0.0,1.0,0.040160642570281124,0.2496673968626068,0.968331653383204,0.6867513112135011,0.7268924518431438,0.0,0.38461538461538464,27.0,0.0,0.0,1.0,0.0,0.0,0.0,0.0,0.0,1.0,1.0,0.0,0.0,0.0,0.0,0.0,0.0,0.0,0.0,0.0,0.0,0.0,1.0,0.0,1.0,0.0,1.0,0.0,0.39421762530612253,0.27865553142857147,2.208921529408734,0.9999999999862964,-0.021473494525621552,0.08726169736970939,0.0,0.0,0.0,-0.000121990187882136,1.0,1.0,1.0,0.0,0.5449957980552244,h107_move
h107_objective_antipode_c96_a042_a91647e7,394,56,id02,2024-10-14,2024-10-13,Q3,2,0.7069956394747284,0.7081894374029917,3.4426032856638145e-06,0.31964,0.5154171428571428,0.2213924571428571,0.6876285714285715,0.548,0.3332165714285713,1.0,1.0,0,0.0,0.0,0.0,0.0,0.0,0.0,0.0,0.0,0.0,0.0,0.0,0.0367803263739192,0.03934489390002,0.672,0.4131428571428571,0.368,0.0,0.0,,-0.6593971428571429,0.7081753336653023,0.0057015383038324,3.0593224843444844e-06,0.0057015383038324,0.0,0.0,0.0,0.0495174285714285,0.713629090774197,1,0.713629090774197,5.580608700907642e-09,0.1772114285714286,-0.0098848687141418,0.0005605431876912,0.0005714496738913,1.0000369293098734,0.6748571428571428,0.3780880327563019,0.3411499428571428,0.0322384836720165,0.0001066845409199,0.7091946127024747,0.0106386996117656,1.0,-8.446723652744126e-07,0.0,0.4542857142857143,0.5057142857142857,0.4693714285714285,0.9061828571428572,-0.0421233523861583,-0.0053579428571428,0.0,6.0,1.0,0.2248995983935743,0.9875894586558354,0.15705750905917895,-0.8901457403773966,-0.4556759384562417,1.0,0.9354838709677419,32.0,0.0,0.0,1.0,0.0,0.0,0.0,0.0,1.0,0.0,0.0,0.0,0.0,0.0,0.0,0.0,0.0,0.0,0.0,0.0,0.0,1.0,1.0,0.0,1.0,0.0,1.0,0.0,0.42533634220408156,0.25314420571428575,6.285450798051906,0.9999999999988864,-0.09286151294917516,0.5569260808478006,0.0,0.0,0.0,-0.004468253836941552,1.0,1.0,1.0,0.0,0.5402162589712728,h107_move
h107_objective_antipode_c96_a042_a91647e7,429,61,id03,2024-08-19,2024-08-18,Q3,2,0.769391940972039,0.7691873343964346,1.1794978560519809e-07,0.1801828571428571,0.3370171428571429,0.0740792571428571,0.6702571428571429,0.7508571428571429,0.2411588571428571,1.0,1.0,0,2.0,3.6,1.0,1.0,-0.000184451677063,-5.6483338269916636e-11,-3.4533000903280715e-08,0.0,0.0,0.0,1.0,0.0259545843659137,0.1152267987939449,0.6217142857142857,0.6057142857142858,0.572,1.0,1.0,episode_neighbor_q061,0.3079257142857142,0.769159963715853,-0.0013069844411823,1.3796569509061385e-07,0.0013069844411823,0.0,0.0,1.0,0.0993245714285714,0.7570030321951982,0,0.7570030321951982,9.349604647858497e-08,0.3282628571428571,-0.0431694753420197,0.0002337820502099,0.000570936680997,0.9991391917449192,0.6605714285714286,0.4307766506520007,0.3147865142857143,-0.0685626666458385,0.0004272632394869,0.7692349173091595,-0.0008847885427687,1.0,-1.357899670484386e-07,0.0,0.4542857142857143,0.4502857142857143,0.4517142857142857,0.8968457142857144,0.0253931913038187,0.0444745142857143,0.0,6.0,1.0,0.24497991967871485,0.9995025893658627,0.03153686495097154,-0.995526272808559,-0.09448513188803126,2.0,0.1,21.0,0.0,0.0,1.0,0.0,0.0,0.0,0.0,1.0,0.0,0.0,0.0,0.0,0.0,0.0,0.0,0.0,0.0,0.0,0.0,0.0,1.0,1.0,0.0,1.0,0.0,1.0,0.0,0.4051180212244898,0.5751226514285716,2.030774582190286,0.9999999997719006,0.0014032262735842623,0.00557763684509385,0.0,0.0,0.0,0.000371611187962854,1.0,1.0,1.0,0.0,0.5925580324252091,h107_move
h107_objective_antipode_c96_a042_a91647e7,430,61,id03,2024-08-19,2024-08-18,S1,3,0.604026200472991,0.6063203145082555,1.1009521791116583e-05,0.3882685714285714,0.3370171428571429,0.0654890857142856,0.7873714285714286,0.684,0.3785540571428571,1.0,1.0,0,2.0,3.6,1.0,1.0,0.0015362066480787,-1.5536985231547174e-08,-3.224407648327876e-06,0.0,0.0,0.0,1.0,0.1413535464138461,0.0,0.8622857142857143,0.0777142857142857,0.1788571428571428,1.0,1.0,episode_neighbor_q061,0.2920571428571428,0.6062772068060069,0.0094206983426381,9.646010099229052e-06,0.0094206983426381,0.0,0.0,1.0,0.1293242857142857,0.6074964413452014,0,0.6074964413452014,1.993561071952924e-07,0.5617257142857143,-0.0547320393639781,0.0057171149923169,0.0005577874228806,0.9761279900412012,0.1754285714285714,0.6818286787726655,0.0789510857142856,0.0145311845062691,2.520043883824652e-05,0.6055727655873674,0.0064705280329236,1.0,-9.560522133300609e-06,0.0,0.4542857142857143,0.4817142857142857,0.4683428571428571,0.9234285714285716,-0.0692632238702473,0.071728,0.0,6.0,1.0,0.24497991967871485,0.9995025893658627,0.03153686495097154,-0.995526272808559,-0.09448513188803126,2.0,0.1,21.0,0.0,0.0,0.0,1.0,0.0,0.0,0.0,1.0,0.0,0.0,0.0,0.0,0.0,0.0,0.0,0.0,0.0,0.0,0.0,0.0,1.0,0.0,1.0,0.0,1.0,1.0,0.0,0.43248117551020415,0.4628745142857143,5.034311681599859,0.9999999999982955,-0.07574491563303028,0.42039732539322217,0.0,0.0,0.0,-0.002717621773827912,1.0,1.0,1.0,0.0,0.56111088457119,h107_move
h107_objective_antipode_c96_a042_a91647e7,431,61,id03,2024-08-19,2024-08-18,S2,4,0.3710434597203731,0.3692515525433949,6.88404145421373e-06,0.2283599999999999,0.3370171428571429,0.2767198285714285,0.4746142857142857,0.1785714285714285,0.301308,0.0,1.0,0,2.0,3.6,1.0,1.0,-0.0012297659195405,-3.960982746717251e-10,-2.0161537268581498e-06,0.0,0.0,0.0,1.0,0.0,0.0512708071493512,0.1785714285714285,0.4537142857142857,0.4925714285714285,1.0,1.0,episode_neighbor_q061,0.3814771428571429,0.3692343777748191,-0.0077597792771074,6.385477044568155e-06,0.0077597792771074,0.0,0.0,1.0,0.1794704571428571,0.3557729766594964,1,0.6442270233405036,2.3844188198995762e-08,0.3532228571428571,-0.018909915898664,0.0025802703377575,0.0005574504253998,0.9755382444497758,0.1708571428571428,0.1560624955544478,0.1777734857142857,-0.0660154001721844,0.0005025283157065,0.3698048101121429,-0.0053113073079726,1.0,-6.318411186589934e-06,0.0,0.4542857142857143,0.4742857142857143,0.4644857142857143,0.9088,0.0471054842735203,0.1034401142857143,0.0,6.0,1.0,0.24497991967871485,0.9995025893658627,0.03153686495097154,-0.995526272808559,-0.09448513188803126,2.0,0.1,21.0,0.0,0.0,0.0,0.0,1.0,0.0,0.0,1.0,0.0,0.0,0.0,0.0,0.0,0.0,0.0,0.0,0.0,0.0,0.0,0.0,1.0,0.0,1.0,0.0,1.0,1.0,0.0,0.42212461714285715,0.22523829714285717,0.9949964736413532,0.999999999993669,0.10318496498591656,0.3089470541686921,0.0,0.0,0.0,0.002230749069348492,1.0,1.0,1.0,0.0,0.6647264613705423,h107_move
h107_objective_antipode_c96_a042_a91647e7,432,61,id03,2024-08-19,2024-08-18,S3,5,0.4835789213561608,0.4814017987874172,9.490897164288192e-06,0.2929085714285714,0.3370171428571429,-0.0619744285714286,0.8623428571428573,0.8994285714285715,0.3448964571428571,1.0,1.0,0,2.0,3.6,1.0,1.0,-0.00139507150486,-2.709755271231037e-09,-2.7790419522277787e-06,0.0,0.0,0.0,1.0,0.209522601133933,0.0,0.9114285714285716,0.0777142857142857,0.1788571428571428,1.0,1.0,episode_neighbor_q061,0.2362457142857142,0.4814571944855456,-0.0084973080270469,8.20283112001885e-06,0.0084973080270469,0.0,0.0,1.0,0.1009617714285714,0.4819900669049786,0,0.5180099330950214,2.0193839847131825e-07,0.3697028571428571,0.0543884327223334,0.0008893541727483,0.0005638505649118,0.9867384885957086,0.312,0.5381676052087209,0.1506107428571428,-0.0063629664466685,5.05472920575567e-06,0.4821199420381252,-0.0058427958838835,1.0,-8.134415479310597e-06,0.0,0.4542857142857143,0.4788571428571428,0.4667142857142857,0.9184628571428572,0.0607513991690019,0.0456938285714285,0.0,6.0,1.0,0.24497991967871485,0.9995025893658627,0.03153686495097154,-0.995526272808559,-0.09448513188803126,2.0,0.1,21.0,0.0,0.0,0.0,0.0,0.0,1.0,0.0,1.0,0.0,0.0,0.0,0.0,0.0,0.0,0.0,0.0,0.0,0.0,0.0,0.0,1.0,0.0,1.0,0.0,1.0,1.0,0.0,0.42865973632653065,0.3732023542857143,9.04809699586373,0.9999999999989955,0.07151431517001515,0.47954733579681436,0.0,0.0,0.0,0.00245397427123107,1.0,1.0,1.0,0.0,0.5421952139427165,h107_move
h107_objective_antipode_c96_a042_a91647e7,492,70,id03,2024-09-16,2024-09-15,Q3,2,0.7379400612256236,0.7355869958106938,1.4288337799372997e-05,0.3116914285714286,0.6828971428571429,0.2207168285714285,0.8332285714285714,0.8417142857142857,0.3441497142857141,0.0,1.0,0,3.0,5.4,1.0,1.0,-0.0020221380359516,-3.134488404904697e-09,-4.346254514286939e-06,0.0,0.0,0.0,1.0,0.0731579621258778,0.0472847466857211,0.7742857142857142,0.44,0.1788571428571428,1.0,1.0,episode_neighbor_q061,0.3316057142857143,0.7355915224463873,-0.012109554749387,1.2950746220652398e-05,0.012109554749387,0.0,0.0,1.0,0.1411393714285714,0.7328617364915871,1,0.7328617364915871,2.4116037798910797e-07,0.5565599999999999,0.065736169256795,0.0009675930385018,0.0005668389182423,0.9919681069240556,0.4594285714285714,0.2781616572872293,0.2739041142857143,-0.0260986599217263,6.640444775363186e-05,0.7351021332494506,-0.0146242487539178,1.0,-1.3618258931202831e-05,0.0,0.4542857142857143,0.5257142857142857,0.4838571428571429,0.9333028571428572,0.0918348291785213,0.0667148571428571,0.0,6.0,1.0,0.28112449799196787,0.9809388143902331,-0.19431686088109762,-0.8327815731637613,0.553601708269484,2.0,0.55,21.0,0.0,0.0,1.0,0.0,0.0,0.0,0.0,1.0,0.0,0.0,0.0,0.0,0.0,0.0,0.0,0.0,0.0,0.0,0.0,0.0,1.0,1.0,0.0,1.0,0.0,1.0,0.0,0.45158525387755105,0.5586044000000001,4.778974186440193,0.9999999999991234,0.15516569795535648,0.8586378981718341,0.0,0.0,0.0,0.006142184476645476,1.0,1.0,1.0,0.0,0.601921553714163,h107_move
h107_objective_antipode_c96_a042_a91647e7,495,70,id03,2024-09-16,2024-09-15,S3,5,0.4339995467608516,0.432356369008125,5.497455235037307e-06,0.3251771428571428,0.6828971428571429,0.0974404857142856,0.8948,0.84,0.3792589714285714,1.0,1.0,0,3.0,5.4,1.0,1.0,-0.0011153743242252,-3.1667587096087123e-09,-1.6736124081780563e-06,0.0,0.0,0.0,1.0,0.1755262427634193,0.0,0.8954285714285715,0.0777142857142857,0.1788571428571428,1.0,1.0,episode_neighbor_q061,0.3184914285714285,0.4324045390961372,-0.006495975889984,4.713727674743318e-06,0.006495975889984,0.0,0.0,1.0,0.1380639428571428,0.4362151510812417,1,0.5637848489187582,2.42810440140853e-07,0.4231657142857142,0.0596993860989079,0.0007370478100822,0.0005856856978188,1.02494997118291,0.8657142857142858,0.4358312021880767,0.5033509714285717,0.0090142714560029,9.98797653928296e-06,0.4335600833741482,-0.0017892377075804,1.0,-2.460680098903545e-06,0.0,0.4542857142857143,0.4548571428571428,0.4573714285714285,0.9124171428571428,0.0506851146429049,0.081622857142857,0.0,6.0,1.0,0.28112449799196787,0.9809388143902331,-0.19431686088109762,-0.8327815731637613,0.553601708269484,2.0,0.55,21.0,0.0,0.0,0.0,0.0,0.0,1.0,0.0,1.0,0.0,0.0,0.0,0.0,0.0,0.0,0.0,0.0,0.0,0.0,0.0,0.0,1.0,0.0,1.0,0.0,1.0,1.0,0.0,0.4173135320816326,0.38928577142857146,9.246763475482473,0.9999999999991316,0.08095131503236347,0.5506119431452796,0.0,0.0,0.0,0.0007514798371837679,1.0,1.0,1.0,0.0,0.5387498897141643,h107_move
h107_objective_antipode_c96_a042_a91647e7,548,78,id03,2024-10-06,2024-10-05,Q3,2,0.7936544401585863,0.7937688832623561,3.999282749411749e-08,0.1934914285714286,0.5812571428571428,0.1726038857142857,0.64,0.6131428571428571,0.2588342857142857,1.0,1.0,0,0.0,0.0,0.0,0.0,0.0,0.0,0.0,0.0,0.0,0.0,0.0,0.0424170946698951,0.0477365793334812,0.6982857142857143,0.4417142857142857,0.3754285714285714,0.0,0.0,,-0.6733800000000001,0.7937590193930218,0.0006387050392127,3.039021689854593e-08,0.0006387050392127,0.0,0.0,0.0,0.0145573142857142,0.7933361205125407,0,0.7933361205125407,3.993836410772035e-09,0.2115428571428571,-0.0093434113037451,0.000990806439708,0.0005752921861245,1.0067613257180117,0.7542857142857143,0.4067481407263825,0.3583275428571429,-0.0019426259365227,3.0924676153176733e-07,0.7936832301967062,0.0001758077772848,1.0,-1.5855042945212006e-08,0.0,0.4542857142857143,0.4428571428571428,0.4491428571428572,0.8736342857142857,-0.0074007853672224,-0.0359851428571428,6.0,5.0,1.0,0.3132530120481928,0.9220586030376136,-0.38705029720221723,-0.36953183094075726,0.929218072317565,2.0,0.95,21.0,0.0,0.0,1.0,0.0,0.0,0.0,0.0,0.0,0.0,0.0,0.0,0.0,0.0,0.0,0.0,0.0,0.0,0.0,1.0,1.0,0.0,1.0,0.0,1.0,0.0,1.0,0.0,0.39238659918367347,0.24309862857142855,3.37095152842217,0.9999999999884754,-0.016731597502810083,0.07872778525595411,0.0,0.0,0.0,-7.383926645961599e-05,1.0,1.0,1.0,0.0,0.503282778284101,h107_move
h107_objective_antipode_c96_a042_a91647e7,550,78,id03,2024-10-06,2024-10-05,S2,4,0.5571285319115074,0.5589719632904865,6.888354101231009e-06,0.2467942857142857,0.5812571428571428,0.197464057142857,0.6712571428571429,0.576,0.323616,1.0,1.0,0,0.0,0.0,0.0,0.0,0.0,0.0,0.0,0.0,0.0,0.0,0.0,0.0551501937178191,0.0178002650844443,0.7331428571428571,0.3062857142857143,0.1788571428571428,0.0,0.0,,-0.6727,0.5589553514614753,0.0074071010428411,6.15604433584771e-06,0.0074071010428411,0.0,0.0,0.0,0.0522009714285714,0.5604924930897159,1,0.5604924930897159,1.626562896218322e-07,0.4884,-0.0484751610126691,0.0030189615236513,0.0005592800674707,0.9787401180738664,0.196,0.3289995002097053,0.0390667428571428,0.0136446690481986,2.2943929685714792e-05,0.5590444425260178,0.0077684973668663,1.0,-6.748650210774976e-06,0.0,0.4542857142857143,0.4914285714285714,0.4697142857142857,0.9194342857142858,-0.0621198300608678,-0.0016505142857142,6.0,5.0,1.0,0.3132530120481928,0.9220586030376136,-0.38705029720221723,-0.36953183094075726,0.929218072317565,2.0,0.95,21.0,0.0,0.0,0.0,0.0,1.0,0.0,0.0,0.0,0.0,0.0,0.0,0.0,0.0,0.0,0.0,0.0,0.0,0.0,1.0,1.0,0.0,0.0,1.0,0.0,1.0,1.0,0.0,0.4318714187755102,0.4015159200000001,12.597481333844042,0.9999999999994137,-0.08801727571023436,0.6662167365949676,0.0,0.0,0.0,-0.0032627688940838457,1.0,1.0,1.0,0.0,0.5375404732570608,h107_move
h107_objective_antipode_c96_a042_a91647e7,551,78,id03,2024-10-06,2024-10-05,S3,5,0.4287262596848446,0.4281161879117646,7.599045394046655e-07,0.2365371428571428,0.5812571428571428,0.0773638571428571,0.7985428571428572,0.7245714285714285,0.3151008,1.0,1.0,0,0.0,0.0,0.0,0.0,0.0,0.0,0.0,0.0,0.0,0.0,0.0,0.1582401932714693,0.0,0.88,0.0777142857142857,0.1788571428571428,0.0,0.0,,-0.7376028571428572,0.4281586043412561,-0.0023181008516995,5.986979474403853e-07,0.0023181008516995,0.0,0.0,0.0,-0.0074353142857142,0.4408131674241327,1,0.5591868325758673,2.7200351776194033e-07,0.4228571428571429,0.063541977905909,0.0006357751582378,0.0005690551907713,0.9958465838499426,0.5948571428571429,0.6318526509881361,0.2124987428571428,0.0491873592316087,0.0002975794832323,0.4285696820937664,-0.0006393299720927,1.0,-3.1286594048829386e-07,0.0,0.4542857142857143,0.4474285714285714,0.4512,0.8855085714285715,0.0143546186743003,-0.0550502857142857,6.0,5.0,1.0,0.3132530120481928,0.9220586030376136,-0.38705029720221723,-0.36953183094075726,0.929218072317565,2.0,0.95,21.0,0.0,0.0,0.0,0.0,0.0,1.0,0.0,0.0,0.0,0.0,0.0,0.0,0.0,0.0,0.0,0.0,0.0,0.0,1.0,1.0,0.0,0.0,1.0,0.0,1.0,1.0,0.0,0.39954146742857144,0.26216742857142855,4.008545342987358,0.9999999999946027,0.03004334068270165,0.1481143072998698,0.0,0.0,0.0,0.00026851858827893395,1.0,1.0,1.0,0.0,0.4739230114278158,h107_move
h107_objective_antipode_c96_a042_a91647e7,689,98,id04,2024-10-19,2024-10-18,S1,3,0.6371260254955748,0.6405330343175071,2.51376604938347e-05,0.2224685714285713,0.4586171428571429,0.0413004,0.7652857142857143,0.6982857142857143,0.3247446857142857,1.0,1.0,0,0.0,0.0,0.0,0.0,0.0,0.0,0.0,0.0,0.0,0.0,0.0,0.0999969057319737,0.0,0.8154285714285714,0.0777142857142857,0.1788571428571428,0.0,0.0,,-0.7547914285714286,0.6405000114407822,0.0146231119468513,2.2435790286601257e-05,0.0146231119468513,0.0,0.0,0.0,0.0546097142857142,0.6458406625928385,0,0.6458406625928385,2.652752376425061e-07,0.6229485714285715,-0.0646258238737329,0.0076759256074498,0.0005509684978578,0.9641948712512676,0.1045714285714285,-0.0194807088009702,-0.0150077714285714,0.037894021574039,0.0001648212272662,0.6414968295448158,0.0189548562062582,1.0,-2.2492975142118787e-05,0.0,0.4542857142857143,0.5468571428571428,0.4944,0.9422057142857144,-0.102519845447772,-0.0024486857142857,5.0,4.0,1.0,0.39357429718875503,0.6199605408122387,-0.7846329892604544,0.9067516281939827,0.4216651334501838,3.0,0.6923076923076923,27.0,0.0,0.0,0.0,1.0,0.0,0.0,0.0,0.0,0.0,0.0,0.0,0.0,0.0,0.0,0.0,0.0,1.0,1.0,0.0,0.0,0.0,0.0,1.0,0.0,1.0,1.0,0.0,0.46582650514285723,0.4561278171428572,7.698365495692498,0.999999999999286,-0.11827142623863741,0.7604871919056839,0.0,0.0,0.0,-0.007961039606628443,1.0,1.0,1.0,0.0,0.5521634523427573,h107_move
h107_objective_antipode_c96_a042_a91647e7,692,98,id04,2024-10-19,2024-10-18,S4,6,0.5214942199375637,0.5220806282002836,6.890459806063731e-07,0.1991714285714285,0.4586171428571429,0.1756905714285715,0.6144571428571429,0.6337142857142857,0.2882345142857143,1.0,1.0,0,0.0,0.0,0.0,0.0,0.0,0.0,0.0,0.0,0.0,0.0,0.0,0.0166549901710211,0.0640435912665656,0.56,0.4845714285714286,0.4805714285714286,0.0,0.0,,-0.6675114285714286,0.5220939306128404,0.0024034092933237,6.55804488269851e-07,0.0024034092933237,0.0,0.0,0.0,0.0311753714285714,0.5317358803323887,0,0.5317358803323887,1.616032067237963e-08,0.2549485714285714,0.0153557474784382,0.005842441771129,0.0005639505118782,0.9869133957869688,0.3177142857142857,0.3199408510132027,0.0963508571428571,0.041084505048586,0.0002103100861962,0.525141978301795,0.0146229027435558,1.0,1.7903928382079215e-05,1.7903928382079215e-05,0.932,0.5251428571428571,0.7487428571428572,0.8981142857142858,-0.0257287575701478,-0.0963236571428572,5.0,4.0,1.0,0.39357429718875503,0.6199605408122387,-0.7846329892604544,0.9067516281939827,0.4216651334501838,3.0,0.6923076923076923,27.0,0.0,0.0,0.0,0.0,0.0,0.0,1.0,0.0,0.0,0.0,0.0,0.0,0.0,0.0,0.0,0.0,1.0,1.0,0.0,0.0,0.0,0.0,1.0,0.0,1.0,1.0,0.0,0.6724566563265306,0.5486207771428572,9.81445982772841,0.9999999999989942,-0.06584784823628405,0.4702932394805306,0.0,0.0,0.0,-0.006141619152293436,1.0,1.0,1.0,0.0,0.6700998475427162,h107_move
h107_objective_antipode_c96_a042_a91647e7,709,101,id04,2024-10-24,2024-10-23,Q3,2,0.7836327157945403,0.7816403087409958,1.168048358135554e-05,0.2945942857142857,0.2851371428571428,-0.0389592857142857,0.8681142857142857,0.8714285714285714,0.3298454285714285,1.0,1.0,0,2.0,3.6,1.0,1.0,-0.0018739318165117,-2.0788438578953267e-09,-3.417201348221433e-06,0.0,0.0,0.0,1.0,0.112718299813475,0.0,0.832,0.0777142857142857,0.1788571428571428,1.0,1.0,episode_neighbor_q061,0.2406514285714286,0.7816747794316019,-0.0115100999444255,1.0263480041294848e-05,0.0115100999444255,0.0,0.0,1.0,0.1124250857142857,0.7718980136932254,1,0.7718980136932254,1.1513008166658741e-08,0.2556914285714285,0.0152658122683577,0.0015390106257885,0.0005705088303653,0.9983904531393746,0.6508571428571429,0.2558821948728312,0.3108536,-0.0679034849537958,0.0004009186480832,0.7766653504406011,-0.0406248364023611,1.0,6.144628333681901e-05,6.144628333681901e-05,0.9554285714285714,0.6377142857142857,0.8043142857142858,0.9279028571428573,0.0831692972221536,-0.0305217142857143,3.0,2.0,1.0,0.40562248995983935,0.5588441929376095,-0.8292726741066004,0.9784091409455726,0.2066774126849536,3.0,0.8076923076923077,27.0,0.0,0.0,1.0,0.0,0.0,0.0,0.0,0.0,0.0,0.0,0.0,0.0,1.0,1.0,0.0,0.0,0.0,0.0,0.0,0.0,0.0,1.0,0.0,1.0,0.0,1.0,0.0,0.7463255237551022,0.5417878857142857,3.0667222248778767,0.9999999999983062,0.12513597673666654,0.5713245898668148,0.0,0.0,0.0,0.01706243128899166,1.0,1.0,1.0,0.0,0.7109289005711915,h107_move
h107_objective_antipode_c96_a042_a91647e7,772,110,id05,2024-10-02,2024-10-01,Q3,2,0.6435229466437378,0.6455589159043185,9.04247349553522e-06,0.2650971428571428,0.2893571428571428,0.1146687428571428,0.6491428571428571,0.4982857142857143,0.3051725714285714,1.0,1.0,0,0.0,0.0,0.0,0.0,0.0,0.0,0.0,0.0,0.0,0.0,0.0,0.0310407121432734,0.0367577482521876,0.6508571428571429,0.3988571428571428,0.3765714285714285,0.0,0.0,,-0.710837142857143,0.6455535212431254,0.0088629491808219,8.185568658225506e-06,0.0088629491808219,0.0,0.0,0.0,0.0363761999999999,0.6442829447483399,1,0.6442829447483399,2.153701245251061e-07,0.4975200000000001,-0.0580614251352461,0.0015030190240538,0.0005682250880681,0.9943939041192168,0.5474285714285714,0.2170454891366399,0.2052502285714285,0.0033145443944393,1.2593234758329077e-06,0.6436902084063603,0.0007291997667763,1.0,-1.419708776539963e-06,0.0,0.4542857142857143,0.4485714285714285,0.4537714285714286,0.9171657142857144,-0.0613759695296854,-0.0121528,2.0,1.0,1.0,0.44176706827309237,0.3577789366275641,-0.9338063142352645,0.8901457403773968,-0.45567593845624127,4.0,0.15,21.0,0.0,0.0,1.0,0.0,0.0,0.0,0.0,0.0,0.0,0.0,1.0,1.0,0.0,0.0,0.0,0.0,0.0,0.0,0.0,0.0,0.0,1.0,0.0,1.0,0.0,1.0,0.0,0.4161835964081633,0.2498761485714286,2.9226143636096533,0.9999999999983095,-0.13155117909316336,0.5892457033027041,0.0,0.0,0.0,-0.000306263902046046,1.0,1.0,1.0,0.0,0.5235675635426206,h107_move
h107_objective_antipode_c96_a042_a91647e7,773,110,id05,2024-10-02,2024-10-01,S1,3,0.3056001244245433,0.3110822546809208,7.057753952244283e-05,0.3760514285714286,0.2893571428571428,-0.1615444571428571,0.9791428571428572,0.976,0.4021014857142857,0.0,1.0,0,0.0,0.0,0.0,0.0,0.0,0.0,0.0,0.0,0.0,0.0,0.0,0.5338642750937583,0.0,0.9782857142857144,0.0777142857142857,0.1788571428571428,0.0,0.0,,-0.8408714285714286,0.3109228312939359,0.0249620044578845,6.0536909005648454e-05,0.0249620044578845,0.0,0.0,0.0,0.0106631142857142,0.3280865985574698,0,0.6719134014425301,7.07270156879589e-07,0.8127885714285715,-0.103914952574892,0.0046335205166585,0.0004988658735812,0.8730152787671973,0.0251428571428571,0.617569535666361,-0.0207438285714286,0.1039186479338416,0.0011757968820913,0.3104731064038094,0.0228621025454448,1.0,-6.606645263562694e-05,0.0,0.4542857142857143,0.5617142857142857,0.5061428571428572,0.9841714285714288,-0.207833600508734,-0.0541572571428571,2.0,1.0,1.0,0.44176706827309237,0.3577789366275641,-0.9338063142352645,0.8901457403773968,-0.45567593845624127,4.0,0.15,21.0,0.0,0.0,0.0,1.0,0.0,0.0,0.0,0.0,0.0,0.0,1.0,1.0,0.0,0.0,0.0,0.0,0.0,0.0,0.0,0.0,0.0,0.0,1.0,0.0,1.0,1.0,0.0,0.4981313387755104,0.4053762742857143,5.012275497275295,0.9999999999982523,-0.07420125985042013,0.398142843855659,0.0,0.0,0.0,-0.009602083069086815,1.0,1.0,1.0,0.0,0.5257100443426125,h107_move
h107_objective_antipode_c96_a042_a91647e7,776,110,id05,2024-10-02,2024-10-01,S4,6,0.4438495786612846,0.4451675276483861,3.517651817719347e-06,0.2391714285714286,0.2893571428571428,-0.0912718571428571,0.8011428571428572,0.8748571428571429,0.3034004571428571,0.0,1.0,0,0.0,0.0,0.0,0.0,0.0,0.0,0.0,0.0,0.0,0.0,0.0,0.1517560969078651,0.0055488407941821,0.8748571428571429,0.2114285714285714,0.1788571428571428,0.0,0.0,,-0.8335457142857143,0.4451219697262338,0.0051530909657626,2.983565084324624e-06,0.0051530909657626,0.0,0.0,0.0,-0.068577,0.4632074008694939,0,0.536792599130506,7.647812904665928e-08,0.2794971428571428,0.0331756448528687,0.0011639351142216,0.0005573933773258,0.975438410320314,0.168,0.5618931275998716,-0.0022037142857142,0.0781161866856486,0.0007569947114121,0.4480957780680643,0.0171855610708425,1.0,1.46086126527889e-05,1.46086126527889e-05,0.9274285714285714,0.5394285714285715,0.7487999999999999,0.9094228571428572,-0.04494054183278,-0.1995107428571428,2.0,1.0,1.0,0.44176706827309237,0.3577789366275641,-0.9338063142352645,0.8901457403773968,-0.45567593845624127,4.0,0.15,21.0,0.0,0.0,0.0,0.0,0.0,0.0,1.0,0.0,0.0,0.0,1.0,1.0,0.0,0.0,0.0,0.0,0.0,0.0,0.0,0.0,0.0,0.0,1.0,0.0,1.0,1.0,0.0,0.6809758354285714,0.47316624,7.092422022000161,0.9999999999988293,-0.07828254192084216,0.47584522976756954,0.0,0.0,0.0,-0.00721793564975385,1.0,1.0,1.0,0.0,0.6056743773712648,h107_move
h107_objective_antipode_c96_a042_a91647e7,947,135,id06,2024-07-14,2024-07-13,Q3,2,0.8233562803446187,0.8211995281478749,1.5940535035174896e-05,0.2876571428571428,0.4153771428571429,-0.0838771142857143,0.9258,0.964,0.3306977142857142,1.0,1.0,0,0.0,0.0,0.0,0.0,0.0,0.0,0.0,0.0,0.0,0.0,0.0,0.2445756176535394,0.0,0.9285714285714286,0.0777142857142857,0.1788571428571428,0.0,0.0,,-0.7948314285714286,0.8212701536208874,-0.0142775087436182,1.3569943485169931e-05,0.0142775087436182,0.0,0.0,0.0,0.0141144571428571,0.8135768926925118,0,0.8135768926925118,6.984182582356931e-08,0.3558057142857143,0.0404020375392994,0.0006730519548812,0.0005742784329964,1.0049872577438463,0.7342857142857143,0.3838669842879127,0.360628,-0.0658326085220084,0.0003241510323629,0.8192405880794565,-0.0280433228436189,1.0,-9.664076740523164e-07,0.0,0.4542857142857143,0.5822857142857143,0.4927714285714286,0.93888,0.1062346460613079,-0.0398117714285714,6.0,5.0,1.0,0.5421686746987951,-0.2618644849608063,-0.9651046531419334,-0.7137661126871386,-0.7003841348713511,5.0,0.30434782608695654,24.0,0.0,0.0,1.0,0.0,0.0,0.0,0.0,0.0,0.0,0.0,0.0,0.0,0.0,0.0,0.0,0.0,0.0,0.0,1.0,1.0,0.0,1.0,0.0,1.0,0.0,1.0,0.0,0.4626532388571429,0.4524815657142857,5.87344660832074,0.999999999999217,0.14134102214440475,0.8125913534154581,0.0,0.0,1.0,0.011778195594319937,1.0,1.0,1.0,0.0,0.538182939314176,h107_move
h107_objective_antipode_c96_a042_a91647e7,948,135,id06,2024-07-14,2024-07-13,S1,3,0.9734003575300472,0.973869257464141,4.27031754200724e-06,0.2894857142857143,0.4153771428571429,0.3433262285714286,0.4297285714285715,0.1785714285714285,0.3458441142857142,1.0,1.0,0,2.0,1.93657810305736,1.0,1.0,0.0182668759527704,-6.783755927062974e-09,-4.27031754200724e-06,1.0,0.0,0.0,0.0,0.0,0.6721905000622236,0.1785714285714285,0.9554285714285714,0.9554285714285714,0.0,0.0,,0.5057228571428571,0.974056188023359,0.0256381782046499,7.623804536976975e-06,0.0256381782046499,1.0,0.0,1.0,0.3323978857142857,0.980817671875396,1,0.980817671875396,7.548363998751178e-07,0.7854285714285714,0.3446132577608978,0.0004295859545019,0.0005796575197187,1.0144006595078832,0.816,0.6653164722172068,0.6087560000000001,0.3344994478363832,0.0011746399717037,0.9765267673632434,0.1282437362729367,1.0,0.000120434605223,0.000120434605223,0.9697142857142858,0.8891428571428571,0.8942,0.8769542857142857,0.0101138099245203,0.1683793142857143,6.0,5.0,1.0,0.5421686746987951,-0.2618644849608063,-0.9651046531419334,-0.7137661126871386,-0.7003841348713511,5.0,0.30434782608695654,24.0,0.0,0.0,0.0,1.0,0.0,0.0,0.0,0.0,0.0,0.0,0.0,0.0,0.0,0.0,0.0,0.0,0.0,0.0,1.0,1.0,0.0,0.0,1.0,0.0,1.0,0.0,1.0,0.0,0.4472482171428571,0.886584014171012,0.9999999999916573,-0.08787984128464758,0.17019550791961327,0.0,0.0,1.0,-0.05386236923463341,0.0,1.0,1.0,0.0,0.7073491489131178,h107_move
h107_objective_antipode_c96_a042_a91647e7,949,135,id06,2024-07-14,2024-07-13,S2,4,0.9120002370412033,0.9128559625035724,4.575502052239777e-06,0.3906628571428571,0.4153771428571429,0.2220676,0.6870285714285714,0.6325714285714286,0.400656,0.0,1.0,0,0.0,0.0,0.0,0.0,0.0,0.0,0.0,0.0,0.0,0.0,0.0,0.0306072182800029,0.0387905347810696,0.6485714285714286,0.4114285714285714,0.3845714285714285,0.0,0.0,,-0.6916942857142857,0.9128484616979826,0.0106153362211465,4.091754492618893e-06,0.0106153362211465,0.0,0.0,0.0,0.0204137714285714,0.9250982584531292,1,0.9250982584531292,2.2462660630838865e-07,0.7114057142857144,0.1055641087159346,0.0028894661390598,0.0005657735831001,0.9901037704252228,0.4017142857142857,0.1604154161182626,0.1480686857142857,0.1754166861823174,0.0011206919463118,0.916900949362351,0.062660043836634,1.0,0.0001017187385513,0.0001017187385513,0.9645714285714284,0.7251428571428571,0.8401142857142857,0.9117314285714286,-0.0698525774663827,-0.1410235428571428,6.0,5.0,1.0,0.5421686746987951,-0.2618644849608063,-0.9651046531419334,-0.7137661126871386,-0.7003841348713511,5.0,0.30434782608695654,24.0,0.0,0.0,0.0,0.0,1.0,0.0,0.0,0.0,0.0,0.0,0.0,0.0,0.0,0.0,0.0,0.0,0.0,0.0,1.0,1.0,0.0,0.0,1.0,0.0,1.0,1.0,0.0,0.765958597877551,0.5573068457142858,2.8910092992246947,0.9999999999980714,-0.11658093768966464,0.5244759131335283,0.0,0.0,1.0,-0.02631721841138628,1.0,1.0,1.0,0.0,0.7242802243425872,h107_move
h107_objective_antipode_c96_a042_a91647e7,951,135,id06,2024-07-14,2024-07-13,S4,6,0.8326790220313127,0.833879711711521,5.183653563278767e-06,0.2921257142857143,0.4153771428571429,-0.1112793428571428,0.8874,0.9285714285714286,0.3429414857142857,1.0,1.0,0,0.0,0.0,0.0,0.0,0.0,0.0,0.0,0.0,0.0,0.0,0.0,0.3617674279706701,0.0,0.9582857142857144,0.0777142857142857,0.1788571428571428,0.0,0.0,,-0.7936942857142857,0.8337650677901544,0.0078153785157646,3.859087214619361e-06,0.0078153785157646,0.0,0.0,0.0,-0.0153674857142856,0.8312358502886998,1,0.8312358502886998,3.840924880026521e-07,0.6961371428571429,-0.0989839981964375,0.0011361898931917,0.0005810148178281,1.016775931199321,0.8325714285714285,0.5783184363674189,0.3844385142857142,-0.010322855520866,7.457335124527731e-06,0.8329793279449548,0.0021569871909787,1.0,-2.0186312811865115e-06,0.0,0.4542857142857143,0.4594285714285714,0.4581428571428572,0.9290628571428572,-0.0886611426755714,-0.0597717714285714,6.0,5.0,1.0,0.5421686746987951,-0.2618644849608063,-0.9651046531419334,-0.7137661126871386,-0.7003841348713511,5.0,0.30434782608695654,24.0,0.0,0.0,0.0,0.0,0.0,0.0,1.0,0.0,0.0,0.0,0.0,0.0,0.0,0.0,0.0,0.0,0.0,0.0,1.0,1.0,0.0,0.0,1.0,0.0,1.0,1.0,0.0,0.42564351183673477,0.4147663657142857,2.961152603344292,0.9999999999983216,-0.13078059395729905,0.5726101044421235,0.0,0.0,1.0,-0.0009059346202110539,1.0,1.0,1.0,0.0,0.48170516102833644,h107_move
h107_objective_antipode_c96_a042_a91647e7,958,136,id06,2024-07-16,2024-07-15,S4,6,0.8793211893789878,0.8800493904202091,2.5029338155957426e-06,0.3645828571428571,0.5588971428571429,0.1084819428571429,0.7967428571428572,0.7268571428571429,0.3787347428571428,1.0,1.0,0,0.0,0.0,0.0,0.0,0.0,0.0,0.0,0.0,0.0,0.0,0.0,0.1594115670323823,0.0,0.8822857142857143,0.0777142857142857,0.1788571428571428,0.0,0.0,,-0.7095342857142858,0.8799999511198453,0.0064120263061722,1.9788838113155016e-06,0.0064120263061722,0.0,0.0,0.0,0.0212581142857142,0.8834973597348148,1,0.8834973597348148,8.471331549768475e-09,0.3511542857142857,-0.0171551486596812,0.0031343608795367,0.0005683629451615,0.9946351540327674,0.5531428571428572,0.5888697722476787,0.1944567999999999,0.039956691866398,8.300913775149965e-05,0.8807134130136618,0.0131857083159114,1.0,2.441039736456041e-07,2.441039736456041e-07,0.9085714285714286,0.5165714285714286,0.7216285714285715,0.9087942857142858,-0.0571118405260793,-0.0966108571428571,1.0,0.0,1.0,0.5461847389558233,-0.2861316735085688,-0.9581903075147368,-0.7646910926171749,-0.6443970304648767,5.0,0.34782608695652173,24.0,0.0,0.0,0.0,0.0,0.0,0.0,1.0,0.0,1.0,1.0,0.0,0.0,0.0,0.0,0.0,0.0,0.0,0.0,0.0,0.0,0.0,0.0,1.0,0.0,1.0,1.0,0.0,0.6558119221224491,0.47814422857142863,14.774026075731031,0.9999999999995725,-0.10292196867709782,0.8604718556778779,0.0,1.0,1.0,-0.005537997492682788,1.0,1.0,1.0,0.0,0.6033851131427973,h107_move
h107_objective_antipode_c96_a042_a91647e7,975,139,id06,2024-07-19,2024-07-18,Q3,2,0.7439595438752091,0.7399677023608381,4.16859280448767e-05,0.3280228571428571,0.5280971428571429,-0.0332376571428571,0.9586285714285714,0.9811428571428572,0.3647565714285714,0.0,1.0,0,0.0,0.0,0.0,0.0,0.0,0.0,0.0,0.0,0.0,0.0,0.0,0.3736466735880533,0.0,0.9617142857142856,0.0777142857142857,0.1788571428571428,0.0,0.0,,-0.8055971428571429,0.7400840689307989,-0.020245643390468,3.5750219449570686e-05,0.020245643390468,0.0,0.0,0.0,0.0240670285714286,0.7314817680775492,1,0.7314817680775492,5.469611738723606e-07,0.7339085714285715,0.0994963433248757,0.0056064356772304,0.0005687243082713,0.9952675394748086,0.5782857142857143,0.415144879432044,0.2598524571428571,-0.0644977115049467,0.0004044507406137,0.7354432689956294,-0.0442335008621266,1.0,1.6260783992305683e-05,1.6260783992305683e-05,0.9297142857142856,0.6497142857142857,0.784,0.973,0.1639940548298225,-0.1154598857142857,4.0,3.0,1.0,0.5582329317269076,-0.3577789366275639,-0.9338063142352645,-0.8901457403773956,-0.4556759384562435,5.0,0.4782608695652174,24.0,0.0,0.0,1.0,0.0,0.0,0.0,0.0,0.0,0.0,0.0,0.0,0.0,0.0,0.0,1.0,1.0,0.0,0.0,0.0,0.0,0.0,1.0,0.0,1.0,0.0,1.0,0.0,0.7628320000000001,0.44296686857142864,2.971552713505406,0.999999999996314,0.05934148175669029,0.2791622987126774,0.0,1.0,1.0,0.018578070362093174,1.0,1.0,1.0,0.0,0.6393651756566268,h107_move
