kbsooo/etri/hitl/h038_memory_transition_world_translator_jepa/h038_cell_state.csv
row,target,subject_id,sleep_date,lifelog_date,base_prob,h012_prob,posterior_prob,memory_prob_full,memory_prob_date,memory_prob_state,h012_changed,h012_logit_delta,posterior_logit_delta,memory_logit_delta,memory_alignment,memory_agrees_h012,memory_disagrees_h012,posterior_cell_delta,posterior_gain,cell_score,row_full_reliability,row_full_reliability_q,row_full_ess,neighbor_count,min_day_gap,memory_alignment_q,private_safe_score,public_conflict_core_score,public_conflict_s_route_score,rollback_cost_score,world_q_cond,row_public_prob,cell_world_score,target_i,e247_prob_check,h012_prob_check,ray_logit_delta,flat_idx,support,world_from_h012,memory_from_h012,posterior_from_h012,world_agrees_ray,world_opposes_memory,gain_rank,world_rank,row_public_rank,anti_memory_rank,reliability_rank,private_safe_rank,abs_ray_rank,target_S124,target_Q2S1S2S4,transition_exception_score,transition_repair_score,transition_row_score
0,Q1,id01,2024-07-31,2024-07-30,0.2375246548677801,0.1952401438424609,0.178952164891399,0.4120111778183677,0.3663177589215589,0.3753179172452702,True,-0.2500148641663253,-0.3571640916661789,0.8106412874354132,-0.2026723713657799,False,True,-0.0092330426778737,0.0092330426778737,0.3571640916661787,0.1779471280358209,0.0763052208835341,10.45947977205954,28,2.0,0.2043369474562135,0.4087559958625317,0.7911029904761905,0.5142169438095239,0.1534412025352894,0.1637544681350769,0.897144316430288,0.1922046452076961,0,0.2375246548677801,0.1952401438424609,-0.25001486416632535,0,True,-0.21424049808672163,1.0606561516017385,-0.10714922749985356,True,True,0.7408333333333333,0.8474285714285714,0.9342857142857143,0.86,0.07828571428571429,0.2737142857142857,0.8302857142857143,0.0,0.0,0.8103771428571429,0.24949269168210036,0.5686366530612245
0,Q2,id01,2024-07-31,2024-07-30,0.4975144875918229,0.5282565708634688,0.5413799507010606,0.5998009470013197,0.6157461577410871,0.615938682388588,True,0.123088971419954,0.1758413877427911,0.4145779208756643,0.0510299698540086,True,False,-0.0035063482433309,0.0035063482433309,0.1758413877427911,0.1779471280358209,0.0763052208835341,10.45947977205954,28,2.0,0.7631359466221852,0.9189557954859078,0.2933464380952381,0.1906751847619047,0.6776070023370111,0.5152622069162965,0.897144316430288,0.0467224157095413,1,0.4975144875918229,0.5282565708634688,0.12308897141995406,1,True,-0.0520790410794202,0.2914889494557103,0.052752416322837115,False,True,0.4666666666666667,0.3142857142857143,0.9342857142857143,0.16285714285714287,0.07828571428571429,0.7,0.5834285714285714,0.0,1.0,0.3882342857142857,0.6642978430908439,0.5686366530612245
0,Q3,id01,2024-07-31,2024-07-30,0.5541805485467693,0.5541805485467693,0.5415287725018717,0.5576494718897963,0.5921283710094533,0.5934027540689976,False,0.0,-0.0510778172029832,0.0140514797418479,0.0,False,False,0.0,-0.0,0.0491860461954653,0.1779471280358209,0.0763052208835341,10.45947977205954,28,2.0,0.0,0.0812629592124932,0.2213552,0.14388088,0.2557399659702274,0.5342576609871127,0.897144316430288,0.0720683275640906,2,0.5541805485467693,0.5541805485467693,0.0,2,False,-0.08033080770198542,0.01405147974184795,-0.05107781720298327,False,True,0.0,0.45257142857142857,0.9342857142857143,0.43514285714285716,0.07828571428571429,0.029714285714285714,0.15742857142857142,0.0,0.0,0.33112,0.2986939965970227,0.5686366530612245
0,S1,id01,2024-07-31,2024-07-30,0.5668133559792676,0.5454902757586634,0.5362957771736296,0.5556813725288936,0.6815163080779623,0.619934509604957,True,-0.0863957177303364,-0.1234224539004808,-0.0452082632025009,0.003905800346722,True,False,-0.0017169665999977,0.0017169665999977,0.1234224539004808,0.1779471280358209,0.0763052208835341,10.45947977205954,28,2.0,0.6088407005838199,0.7408755294361073,0.2988375238095238,0.2988375238095238,0.6601847706030189,0.515336058711048,0.897144316430288,0.1086461388966366,3,0.5668133559792676,0.5454902757586634,-0.08639571773033647,3,True,-0.12110218713633117,0.04118745452783554,-0.037026736170144375,True,True,0.2816666666666667,0.6297142857142857,0.9342857142857143,0.26857142857142857,0.07828571428571429,0.572,0.4674285714285714,1.0,1.0,0.46749142857142856,0.5540299056317304,0.5686366530612245
0,S2,id01,2024-07-31,2024-07-30,0.5279983569898583,0.4713998480827134,0.4472827866261835,0.5909551897625872,0.7106202744015162,0.6511012907147988,True,-0.2266363267386387,-0.3237661810551982,0.2558047775560824,-0.057974655147505,False,True,-0.0118792952581279,0.0118792952581279,0.3237661810551981,0.1779471280358209,0.0763052208835341,10.45947977205954,28,2.0,0.4161801501251042,0.6152246988173001,0.7774603999999998,0.7774603999999998,0.2095448524322161,0.435294763955852,0.897144316430288,0.1307631331734514,4,0.5279983569898583,0.4713998480827134,-0.22663632673863873,4,True,-0.1457548476634778,0.48244110429472115,-0.0971298543165595,True,True,0.7975,0.7062857142857143,0.9342857142857143,0.7148571428571429,0.07828571428571429,0.468,0.8022857142857143,1.0,1.0,0.8312342857142858,0.3112516281003645,0.5686366530612245
0,S3,id01,2024-07-31,2024-07-30,0.8144085433008215,0.8468215168945182,0.8592257399630513,0.6710105412676551,0.8410244003638393,0.7576029790061404,True,0.2309718033870968,0.3299597191244239,-0.7661552107535342,-0.1769602507021651,False,True,-0.0065129278382434,0.0065129278382434,0.3299597191244239,0.1779471280358209,0.0763052208835341,10.45947977205954,28,2.0,0.2210175145954962,0.4210912228074177,0.7217714857142857,0.4691514657142857,0.1760471829907004,0.8423541044174085,0.897144316430288,0.03053612272519,5,0.8144085433008215,0.8468215168945182,0.23097180338709689,5,True,-0.03403702410632481,-0.9971270141406311,0.09898791573732701,False,False,0.6475,0.21828571428571428,0.9342857142857143,0.8485714285714285,0.07828571428571429,0.2777142857142857,0.808,0.0,0.0,0.5410057142857143,0.2739018611562129,0.5686366530612245
0,S4,id01,2024-07-31,2024-07-30,0.480407646947656,0.5111230093690158,0.5242745607964987,0.5697109881413573,0.6784004360173772,0.6268155147038068,True,0.1229089388856226,0.1755841984080327,0.3590816501191042,0.0441343445894375,True,False,-0.003504367181666,0.003504367181666,0.1690810799484759,0.1779471280358209,0.0763052208835341,10.45947977205954,28,2.0,0.74395329441201,0.8974861221207868,0.3372146476190476,0.3372146476190476,0.6712855004565133,0.5021588995476137,0.897144316430288,0.032174939100046,6,0.480407646947656,0.5111230093690158,0.12290893888562268,6,True,-0.03586372728533712,0.2361727112334815,0.05267525952241006,False,True,0.4658333333333333,0.23085714285714284,0.9342857142857143,0.176,0.07828571428571429,0.6794285714285714,0.5828571428571429,1.0,1.0,0.4226628571428571,0.6424314071885084,0.5686366530612245
1,Q1,id01,2024-08-01,2024-07-31,0.0681101766719186,0.0950246972067914,0.1092434717816216,0.4254570204709936,0.3701563287032196,0.391076936440804,True,0.3623171280296793,0.5175958971852568,2.3156769801054207,0.8390094328762369,True,False,-0.0102738421638088,0.0102738421638088,0.5175958971852577,0.2547768296430849,0.4618473895582329,8.853862010732056,28,3.0,0.9866555462885738,1.3972247527886736,0.4423094857142857,0.2875011657142857,0.7695798947431819,0.0980635858436264,0.9051959387387496,0.031539656368855,0,0.0681101766719186,0.0950246972067914,0.3623171280296793,7,True,0.03484290529716727,1.9533598520757407,0.15527876915557748,True,False,0.76,0.22514285714285714,0.9582857142857143,0.009714285714285713,0.4622857142857143,0.9588571428571429,0.8965714285714286,0.0,0.0,0.3189314285714286,0.5162037037600324,0.6075877142857143
1,Q2,id01,2024-08-01,2024-07-31,0.5142003796073951,0.5142003796073951,0.5172148530254022,0.5854617180925707,0.6124226070595306,0.6111350181029427,False,0.0,0.0120698423069859,0.288418672562228,0.0,False,False,0.0,-0.0,0.0111757799138758,0.2547768296430849,0.4618473895582329,8.853862010732056,28,3.0,0.0,0.242015747380603,0.1259789714285714,0.0818863314285714,0.3184071010629137,0.4925298626269979,0.9051959387387496,0.0784800995046798,1,0.5142003796073951,0.5142003796073951,0.0,8,False,-0.08669957093933682,0.28841867256222803,0.01206984230698592,False,True,0.0,0.48514285714285715,0.9582857142857143,0.43514285714285716,0.4622857142857143,0.14285714285714285,0.15742857142857142,0.0,1.0,0.3510742857142857,0.43404642439200564,0.6075877142857143
1,Q3,id01,2024-08-01,2024-07-31,0.5380175347484274,0.510501737615549,0.498679954653228,0.5526997482224537,0.5894829846205237,0.5815611291671599,True,-0.1103510865759498,-0.1576444093942143,0.0592206142371341,-0.0065350591287629,False,True,-0.0028241009776905,0.0028241009776905,0.1576444093942143,0.2547768296430849,0.4618473895582329,8.853862010732056,28,3.0,0.5704753961634695,0.9125483190729462,0.6605927619047619,0.4293852952380952,0.392687804164555,0.4942571604030051,0.9051959387387496,0.0588246086536446,2,0.5380175347484274,0.510501737615549,-0.11035108657594989,9,True,-0.06498549776483525,0.16957170081308404,-0.04729332281826444,True,True,0.41333333333333333,0.3851428571428571,0.9582857142857143,0.6091428571428571,0.4622857142857143,0.6937142857142857,0.5514285714285714,0.0,0.0,0.6276742857142857,0.2765944947021698,0.6075877142857143
1,S1,id01,2024-08-01,2024-07-31,0.2378075063190286,0.2239016388290741,0.2181219462130418,0.5741690693765056,0.676304224487459,0.6203127927810318,True,-0.0783348324662094,-0.1119069035231563,1.463619098603002,-0.1146523568834106,False,True,-0.000993579959312,0.000993579959312,0.1119069035231556,0.2547768296430849,0.4618473895582329,8.853862010732056,28,3.0,0.2852376980817347,0.6038686541530183,0.5679581333333333,0.5679581333333333,0.3526154457526709,0.2054215568377292,0.9051959387387496,0.0992774081585212,3,0.2378075063190286,0.2239016388290741,-0.07833483246620943,10,True,-0.10967504814134421,1.5419539310692114,-0.03357207105694693,True,True,0.12833333333333333,0.5925714285714285,0.9582857142857143,0.8045714285714286,0.4622857142857143,0.4605714285714286,0.43542857142857144,1.0,1.0,0.6703028571428572,0.3455815445752671,0.6075877142857143
1,S2,id01,2024-08-01,2024-07-31,0.4840410685567564,0.467637104525372,0.4606261252996861,0.6051010873102188,0.7045724956225209,0.6473668810567742,True,-0.0657753971185777,-0.093964853026539,0.4906231322099249,-0.0322709313566682,False,True,-0.0010003527419601,0.0010003527419601,0.0939648530265389,0.2547768296430849,0.4618473895582329,8.853862010732056,28,3.0,0.4870725604670559,0.792667495955149,0.4620984190476191,0.4620984190476191,0.4147671986284951,0.4492956563746072,0.9051959387387496,0.0668796067279562,4,0.4840410685567564,0.467637104525372,-0.06577539711857776,11,True,-0.07388412150980556,0.5563985293285028,-0.02818945590796129,True,True,0.13083333333333333,0.4205714285714286,0.9582857142857143,0.6662857142857143,0.4622857142857143,0.6091428571428571,0.36857142857142855,1.0,1.0,0.6226742857142858,0.3347567198628495,0.6075877142857143
1,S3,id01,2024-08-01,2024-07-31,0.8211057303909638,0.8477592475098434,0.8581448390355743,0.6362508050635006,0.8312321800398438,0.7351247143367292,True,0.1932765986197746,0.2761094265996793,-0.964728696920912,-0.1864594811317613,False,True,-0.0045275226265522,0.0045275226265522,0.2761094265996793,0.2547768296430849,0.4618473895582329,8.853862010732056,28,3.0,0.2143452877397831,0.5954119213410838,0.6932663047619048,0.4506230980952381,0.2591352260727489,0.875388367830415,0.9051959387387496,0.2103061233821493,5,0.8211057303909638,0.8477592475098434,0.19327659861977464,12,True,0.23233215526262563,-1.1580052955406868,0.08283282797990466,True,True,0.5458333333333333,0.8668571428571429,0.9582857142857143,0.8531428571428571,0.4622857142857143,0.4554285714285714,0.7474285714285714,0.0,0.0,0.7802171428571428,0.33585637975013205,0.6075877142857143
1,S4,id01,2024-08-01,2024-07-31,0.4221150574966743,0.3729978985430439,0.3526629414923649,0.5928068220935102,0.6732778219946995,0.6272397984952995,True,-0.2052802440647733,-0.2932574915211047,0.6896777332157888,-0.1415772134005767,False,True,-0.0091803700870478,0.0091803700870478,0.2932574915211047,0.2547768296430849,0.4618473895582329,8.853862010732056,28,3.0,0.2527105921601334,0.6388086723023145,0.7587228380952382,0.7587228380952382,0.2350468404683931,0.3524608081299181,0.9051959387387496,0.0804382273143739,6,0.4221150574966743,0.3729978985430439,-0.2052802440647733,13,True,-0.08886277972750534,0.8949579772805623,-0.0879772474563314,True,True,0.7391666666666666,0.49714285714285716,0.9582857142857143,0.8268571428571428,0.4622857142857143,0.48857142857142855,0.7708571428571429,1.0,1.0,0.8000457142857144,0.3167503983325536,0.6075877142857143
2,Q1,id01,2024-08-02,2024-08-01,0.1249960260090513,0.1032837510399468,0.0950448599074043,0.4199643025825801,0.3743193275176402,0.4024688695112783,True,-0.2153129304442633,-0.3075899006346616,1.6230265480782142,-0.3494586022555574,False,True,-0.004046663275402,0.004046663275402,0.3075899006346607,0.2954558105185546,0.6586345381526104,7.313702964646738,28,4.0,0.1392827356130108,0.6260614112073264,0.6910900571428572,0.4492085371428572,0.2775307305505718,0.0889610194083917,0.9280788012082436,0.1532517794867558,0,0.1249960260090513,0.1032837510399468,-0.21531293044426336,14,True,-0.16512798189899547,1.8383394785224776,-0.09227697019039827,True,True,0.51,0.7634285714285715,0.9982857142857143,0.9045714285714286,0.6582857142857143,0.47485714285714287,0.784,0.0,0.0,0.7651542857142858,0.34118164448362864,0.7140353469387756
2,Q2,id01,2024-08-02,2024-08-01,0.536621580933206,0.536621580933206,0.5377758312344867,0.5633573072378911,0.6088181558357727,0.578026416122627,False,0.0,0.0046427005439917,0.1080497365852381,0.0,False,False,0.0,-0.0,0.0042987967999923,0.2954558105185546,0.6586345381526104,7.313702964646738,28,4.0,0.0,0.3340056624439438,0.2007627428571428,0.1304957828571429,0.3518843031818526,0.5679950110401055,0.9280788012082436,0.1177976859052724,1,0.536621580933206,0.536621580933206,0.0,15,False,0.1269263835699237,0.10804973658523814,0.00464270054399174,False,False,0.0,0.6617142857142857,0.9982857142857143,0.43514285714285716,0.6582857142857143,0.208,0.15742857142857142,0.0,1.0,0.2754685714285715,0.5088798588896138,0.7140353469387756
2,Q3,id01,2024-08-02,2024-08-01,0.5509717740384017,0.5682112561937659,0.5755517993613313,0.5628537116928587,0.5866140149189925,0.5672717982188658,True,0.0699589985958632,0.0999414265655189,0.0481540310851837,0.0033688077930735,True,False,-0.0011157273682508,0.0011157273682508,0.0962398922482774,0.2954558105185546,0.6586345381526104,7.313702964646738,28,4.0,0.6055045871559633,1.011437064922949,0.2150630857142857,0.1397910057142857,0.7817947933702172,0.5361039987451027,0.9280788012082436,0.1205472756154274,2,0.5509717740384017,0.5682112561937659,0.06995899859586327,16,True,-0.12988905194094494,-0.021804967510679563,0.029982427969655667,False,False,0.16,0.672,0.9982857142857143,0.27085714285714285,0.6582857142857143,0.7605714285714286,0.3902857142857143,0.0,0.0,0.2994971428571429,0.7714937650513075,0.7140353469387756
2,S1,id01,2024-08-02,2024-08-01,0.2969551179401048,0.2518576456277656,0.233980901242373,0.5640506228887563,0.6706516249407236,0.6188930545158409,True,-0.2268895195560568,-0.3241278850800816,1.119457599349349,-0.2539931968797506,False,True,-0.0090847255451955,0.0090847255451955,0.3241278850800814,0.2954558105185546,0.6586345381526104,7.313702964646738,28,4.0,0.1759799833194328,0.6663035417039143,0.7859268761904762,0.7859268761904762,0.2464455822351517,0.2538283593935564,0.9280788012082436,0.009681603716326,3,0.2969551179401048,0.2518576456277656,-0.22688951955605685,17,True,0.010431876801540785,1.3463471189054057,-0.09723836552402476,False,False,0.7358333333333333,0.07314285714285715,0.9982857142857143,0.8794285714285714,0.6582857142857143,0.5074285714285715,0.8028571428571428,1.0,1.0,0.6087828571428573,0.41077027250922943,0.7140353469387756
2,S2,id01,2024-08-02,2024-08-01,0.4891944697669016,0.4522512987540221,0.4365545756901297,0.5995864995269543,0.6980135694289364,0.6420974267435956,True,-0.1483497597608457,-0.2119282282297796,0.4469713374468333,-0.0663080905302216,False,True,-0.0050648902646841,0.0050648902646841,0.2119282282297796,0.2954558105185546,0.6586345381526104,7.313702964646738,28,4.0,0.3894912427022519,0.8527136004006268,0.6726668571428571,0.6726668571428571,0.3415840051347379,0.4418775483063635,0.9280788012082436,0.0389486559060856,4,0.4891944697669016,0.4522512987540221,-0.14834975976084572,18,True,-0.041966970752245786,0.595321097207679,-0.06357846846893389,True,True,0.575,0.27485714285714286,0.9982857142857143,0.7331428571428571,0.6582857142857143,0.6451428571428571,0.6651428571428571,1.0,1.0,0.7158971428571429,0.3239412576563309,0.7140353469387756
2,S3,id01,2024-08-02,2024-08-01,0.8259044923772436,0.8949298069616637,0.9162869320069286,0.6166021219529975,0.8206123388182253,0.7240670572067948,True,0.5852415581259061,0.8360593687512934,-1.0817244363691747,-0.6330700946035633,False,True,-0.0312737807018934,0.0312737807018934,0.8360593687512934,0.2954558105185546,0.6586345381526104,7.313702964646738,28,4.0,0.097581317764804,0.6158065342396226,0.9363704000000002,0.6086407600000001,0.189223257971221,0.8627047044098861,0.9280788012082436,0.2823013805612912,5,0.8259044923772436,0.8949298069616637,0.5852415581259061,19,True,-0.30417824455614095,-1.6669659944950808,0.2508178106253873,False,False,0.925,0.9257142857142857,0.9982857142857143,0.9331428571428572,0.6582857142857143,0.46914285714285714,0.944,0.0,0.0,0.7800685714285714,0.5272537543685507,0.7140353469387756
2,S4,id01,2024-08-02,2024-08-01,0.440030597638695,0.4013011799248306,0.3850440301233684,0.5856277799352759,0.6677222538231825,0.6195145494679137,True,-0.1590085705796232,-0.2271551008280334,0.586957626774597,-0.0933312932242366,False,True,-0.005651222681831,0.005651222681831,0.2271551008280334,0.2954558105185546,0.6586345381526104,7.313702964646738,28,4.0,0.3244370308590492,0.7917760266363264,0.7712929904761906,0.7712929904761906,0.3149841530567484,0.365532354183626,0.9280788012082436,0.1404972548243274,6,0.440030597638695,0.4013011799248306,-0.15900857057962323,20,True,-0.15138504902969202,0.7459661973542202,-0.06814653024841016,True,True,0.6083333333333333,0.7337142857142858,0.9982857142857143,0.7777142857142857,0.6582857142857143,0.6074285714285714,0.6862857142857143,1.0,1.0,0.8201257142857143,0.41694984387710343,0.7140353469387756
3,Q1,id01,2024-08-03,2024-08-02,0.6376420060192886,0.6577389160188123,0.6661864583357414,0.4415615573957847,0.3788018607865402,0.40083129764874,True,0.0880898691824252,0.125842670260608,-0.7999713050740065,-0.0704693676136632,False,True,-0.0016254704366526,0.0016254704366526,0.125842670260608,0.3300858619655585,0.7751004016064257,6.984620448169241,28,5.0,0.3794829024186822,0.8626305874986246,0.5148625333333333,0.3346606466666667,0.4114167216966122,0.654720609745509,0.8308039496169803,0.0111157752082995,0,0.6376420060192886,0.6577389160188123,0.08808986918242523,21,True,-0.013379540640633958,-0.8880611742564317,0.037752801078182796,False,False,0.2708333333333333,0.088,0.6822857142857143,0.74,0.7742857142857142,0.6554285714285715,0.4714285714285714,0.0,0.0,0.4144114285714286,0.405175957883947,0.4997610612244898
3,Q2,id01,2024-08-03,2024-08-02,0.6162514356140033,0.6501384240276701,0.6642319183005386,0.5202283579114012,0.6049370419448309,0.5855521475095445,True,0.1459802241573634,0.2085431773676623,-0.3927098771135185,-0.057327875889842,False,True,-0.0045147454771596,0.0045147454771596,0.2085431773676623,0.3300858619655585,0.7751004016064257,6.984620448169241,28,5.0,0.4186822351959967,0.9383079076973226,0.6678227428571429,0.4340847828571429,0.3767922062985604,0.6266919567800948,0.8308039496169803,0.0844067986184002,1,0.6162514356140033,0.6501384240276701,0.1459802241573634,22,True,-0.10159653027325366,-0.538690101270882,0.06256295321029892,False,False,0.545,0.5205714285714286,0.6822857142857143,0.7131428571428572,0.7742857142857142,0.7131428571428572,0.656,0.0,1.0,0.5640399999999999,0.5649592206298562,0.4997610612244898
3,Q3,id01,2024-08-03,2024-08-02,0.5574422325902662,0.5574422325902662,0.5611151764415474,0.5565212443183105,0.5835248350494155,0.5789646493471269,False,0.0,0.0149012967650997,-0.0037324297801448,-0.0,False,False,0.0,-0.0,0.0121417973641553,0.3300858619655585,0.7751004016064257,6.984620448169241,28,5.0,0.0,0.3997857639821722,0.1758788571428571,0.1143212571428571,0.3733979047579684,0.5596624913222102,0.8308039496169803,0.0074810027243057,2,0.5574422325902662,0.5574422325902662,0.0,23,False,0.009004534376316653,-0.0037324297801448747,0.014901296765099797,False,True,0.0,0.056,0.6822857142857143,0.43514285714285716,0.7742857142857142,0.26685714285714285,0.15742857142857142,0.0,0.0,0.2525257142857143,0.33993407619008253,0.4997610612244898
3,S1,id01,2024-08-03,2024-08-02,0.8615693716719103,0.876117151296551,0.8819393826400942,0.5604010440950405,0.6645651553899181,0.6060091290391992,True,0.1277772104789392,0.1825388721127698,-1.5855964252016588,-0.2026030881576459,False,True,-0.0016587829863503,0.0016587829863503,0.1825388721127698,0.3300858619655585,0.7751004016064257,6.984620448169241,28,5.0,0.2051709758131776,0.7133615425397752,0.5781170095238096,0.5781170095238096,0.358753337429849,0.8310954794722852,0.8308039496169803,0.3013761004707462,3,0.8615693716719103,0.876117151296551,0.1277772104789392,24,True,-0.36275236848559467,-1.713373635680598,0.05476166163383067,False,False,0.27416666666666667,0.9325714285714286,0.6822857142857143,0.8594285714285714,0.7742857142857142,0.5428571428571428,0.5977142857142858,1.0,1.0,0.6460685714285714,0.6299553337429848,0.4997610612244898
3,S2,id01,2024-08-03,2024-08-02,0.5961769881403864,0.5522444759551001,0.5331211386151726,0.5794521103341972,0.690951207371768,0.6293367526086189,True,-0.1798174291870574,-0.2568820416957963,-0.0690362310603021,0.0124139175900272,True,False,-0.0074062131001764,0.0074062131001764,0.2568820416957963,0.3300858619655585,0.7751004016064257,6.984620448169241,28,5.0,0.6438698915763136,1.177332042065061,0.4612434666666667,0.4612434666666667,0.724687728038375,0.5774604019713838,0.8308039496169803,0.0852514894234386,4,0.5961769881403864,0.5522444759551001,-0.17981742918705743,25,True,0.10261324523401891,0.11078119812675533,-0.07706461250873889,False,False,0.6816666666666666,0.5257142857142857,0.6822857142857143,0.24457142857142858,0.7742857142857142,0.8697142857142857,0.7257142857142858,1.0,1.0,0.4210114285714286,0.822800201375266,0.4997610612244898
3,S3,id01,2024-08-03,2024-08-02,0.8345777914923951,0.8345777914923951,0.8249107294459367,0.5979041589897102,0.8091773628049147,0.713793712994007,False,0.0,-0.0684457005179572,-1.2216849117749928,-0.0,False,False,0.0,-0.0,0.0684457005179572,0.3300858619655585,0.7751004016064257,6.984620448169241,28,5.0,0.0,0.4442683254458658,0.1726363428571428,0.1122136228571428,0.3800702889775224,0.8502349727080316,0.8308039496169803,0.0980516945290348,5,0.8345777914923951,0.8345777914923951,0.0,26,False,0.11802025565025165,-1.2216849117749928,-0.06844570051795729,False,True,0.0,0.584,0.6822857142857143,0.43514285714285716,0.7742857142857142,0.30857142857142855,0.15742857142857142,0.0,0.0,0.3581257142857143,0.46260131461203796,0.4997610612244898
3,S4,id01,2024-08-03,2024-08-02,0.5754529674858175,0.5920179317962512,0.5990559892473388,0.5687075838606416,0.6617402633719235,0.6059741879983984,True,0.0681789961544868,0.0973985659349813,-0.0275546356272828,-0.0018786473964708,False,True,-0.0010434642440266,0.0010434642440266,0.0973985659349813,0.3300858619655585,0.7751004016064257,6.984620448169241,28,5.0,0.5871559633027523,1.0522361812586238,0.5159324761904762,0.5159324761904762,0.5001219811109041,0.606355342620269,0.8308039496169803,0.0496022101590574,6,0.5754529674858175,0.5920179317962512,0.06817899615448686,27,True,0.059703868983681685,-0.09573363178176969,0.029219569780494503,True,True,0.14083333333333334,0.3291428571428571,0.6822857142857143,0.5977142857142858,0.7742857142857142,0.7897142857142857,0.3777142857142857,1.0,1.0,0.5872114285714286,0.3858979123968047,0.4997610612244898
4,Q1,id01,2024-08-04,2024-08-03,0.5445439902464404,0.5445439902464404,0.5369350293056544,0.4399124056687542,0.3835912774188717,0.3990216352026914,False,0.0,-0.0306398637581686,-0.4201671538521229,-0.0,False,False,0.0,-0.0,0.0306398637581686,0.2829693741389169,0.6144578313253012,7.534287135236532,28,6.0,0.0,0.3360453822149662,0.1480658285714285,0.0962427885714285,0.3477725904647751,0.5314721018309116,0.8027171102264227,0.0422185322083201,0,0.5445439902464404,0.5445439902464404,0.0,28,False,-0.05259453382825183,-0.4201671538521229,-0.030639863758168684,False,False,0.0,0.292,0.5742857142857143,0.43514285714285716,0.6142857142857143,0.2102857142857143,0.15742857142857142,0.0,0.0,0.1662857142857143,0.36217154476076324,0.3110312244897959
4,Q2,id01,2024-08-04,2024-08-03,0.5590440908799454,0.5395147550620563,0.5311041706114682,0.5464177575351747,0.6007902190868242,0.5617442090872606,True,-0.0788941334282596,-0.1127059048975138,-0.0510762502415221,0.0040296165015698,True,False,-0.0014349193582632,0.0014349193582632,0.1127059048975138,0.2829693741389169,0.6144578313253012,7.534287135236532,28,6.0,0.609674728940784,1.0048396080110962,0.2385907428571428,0.1550839828571428,0.7626964282541278,0.5110163337739605,0.8027171102264227,0.0917640935209688,1,0.5590440908799454,0.5395147550620563,-0.07889413342825963,29,True,-0.11431685253985044,0.027817883186737474,-0.03381177146925417,True,True,0.235,0.5582857142857143,0.5742857142857143,0.268,0.6142857142857143,0.7565714285714286,0.43714285714285717,0.0,1.0,0.3792285714285714,0.6387267856825556,0.3110312244897959
4,Q3,id01,2024-08-04,2024-08-03,0.5388232923930961,0.5388232923930961,0.5371125579069205,0.5332424392038958,0.5802241636299158,0.5601211787815575,False,0.0,-0.0068826318135625,-0.0224401930595099,-0.0,False,False,0.0,-0.0,0.0048433334984329,0.2829693741389169,0.6144578313253012,7.534287135236532,28,6.0,0.0,0.3128321174922675,0.1640091428571428,0.1066059428571428,0.3442906007563703,0.564156930027739,0.8027171102264227,0.0822334069300873,2,0.5388232923930961,0.5388232923930961,0.0,30,False,0.102443819724849,-0.022440193059509977,-0.006882631813562551,False,True,0.0,0.5074285714285715,0.5742857142857143,0.43514285714285716,0.6142857142857143,0.19371428571428573,0.15742857142857142,0.0,0.0,0.3293714285714286,0.4068976315042085,0.3110312244897959
4,S1,id01,2024-08-04,2024-08-03,0.7815781459655472,0.7815781459655472,0.7705449373881617,0.5474298303676081,0.6580619937288422,0.6080477797928474,False,0.0,-0.0634960658580534,-1.0845953689386336,-0.0,False,False,0.0,-0.0,0.0611443597151625,0.2829693741389169,0.6144578313253012,7.534287135236532,28,6.0,0.0,0.3577720831869502,0.1961051428571428,0.1961051428571428,0.3510315956105727,0.763222846083547,0.8027171102264227,0.0838487808195435,3,0.7815781459655472,0.7815781459655472,0.0,31,False,-0.10445620225522823,-1.0845953689386336,-0.06349606585805345,False,False,0.0,0.516,0.5742857142857143,0.43514285714285716,0.6142857142857143,0.23085714285714284,0.15742857142857142,1.0,1.0,0.2610857142857143,0.474657445275343,0.3110312244897959
4,S2,id01,2024-08-04,2024-08-03,0.625764953638369,0.6868186532777408,0.711260781480581,0.5589099918959963,0.6834053416143787,0.624838103720339,True,0.2711971221349631,0.3874244601928051,-0.2773512716772492,-0.0752168666993423,False,True,-0.0147902160672266,0.0147902160672266,0.3874244601928051,0.2829693741389169,0.6144578313253012,7.534287135236532,28,6.0,0.3669724770642202,0.8426405007886204,0.8038341142857143,0.8038341142857143,0.2833471793517406,0.6832730545315494,0.8027171102264227,0.0131913298714377,4,0.625764953638369,0.6868186532777408,0.27119712213496316,32,True,-0.016433348315842977,-0.5485483938122124,0.11622733805784191,False,False,0.8275,0.10571428571428572,0.5742857142857143,0.7485714285714286,0.6142857142857143,0.6405714285714286,0.8405714285714285,1.0,1.0,0.5889714285714286,0.43498614650660267,0.3110312244897959
4,S3,id01,2024-08-04,2024-08-03,0.8287659956942706,0.8598191584284451,0.8716144826446961,0.5756767829732272,0.7969595250281296,0.6871053573141412,True,0.2368819966409203,0.338402852344172,-1.2718558816445615,-0.3012797606834618,False,True,-0.0063720262449946,0.0063720262449946,0.338402852344172,0.2829693741389169,0.6144578313253012,7.534287135236532,28,6.0,0.1559633027522936,0.6270572841668024,0.7412567238095238,0.4818168704761905,0.2508181372254404,0.8588303591113509,0.8027171102264227,0.0065659448098812,5,0.8287659956942706,0.8598191584284451,0.23688199664092036,33,True,-0.00817964974987162,-1.508737878285482,0.10152085570325164,False,False,0.6416666666666667,0.046285714285714284,0.5742857142857143,0.8931428571428571,0.6142857142857143,0.476,0.8171428571428572,0.0,0.0,0.4969428571428571,0.3356189565796869,0.3110312244897959
4,S4,id01,2024-08-04,2024-08-03,0.6546516733261522,0.6844363334065584,0.6967686727916064,0.5475666735007295,0.6553487336624874,0.604606199433512,True,0.1346854235820643,0.1924077479743781,-0.4487059226855578,-0.0604341472606853,False,True,-0.0036514910976019,0.0036514910976019,0.1924077479743781,0.2829693741389169,0.6144578313253012,7.534287135236532,28,6.0,0.4078398665554629,0.8405118925668842,0.6227671238095238,0.6227671238095238,0.3563753443319915,0.6827545379615646,0.8027171102264227,0.0062415803584193,6,0.6546516733261522,0.6844363334065584,0.13468542358206437,34,True,-0.007775566608588691,-0.5833913462676222,0.05772232439231373,False,False,0.4816666666666667,0.04285714285714286,0.5742857142857143,0.7205714285714285,0.6142857142857143,0.6365714285714286,0.6251428571428571,1.0,1.0,0.4905999999999999,0.42790039157605636,0.3110312244897959
5,Q1,id01,2024-08-06,2024-08-05,0.1503007231884336,0.1250884806363739,0.1154413843271495,0.4524595716140883,0.3939977119815848,0.4213982090321143,True,-0.212857042009662,-0.3040814885852316,1.5415065004025434,-0.3281205139143513,False,True,-0.0046677540250871,0.0046677540250871,0.292819211230223,0.1886334902569278,0.108433734939759,10.682705491623285,28,8.0,0.146788990825688,0.3560658926008849,0.7658573904761905,0.4978073038095238,0.1744873858244756,0.095632768948753,0.6246761494600988,0.1884139117081425,0,0.1503007231884336,0.1250884806363739,-0.21285704200966205,35,True,-0.301618545659198,1.754363542412205,-0.0912244465755696,True,True,0.5558333333333333,0.8422857142857143,0.11828571428571429,0.8994285714285715,0.11028571428571429,0.22857142857142856,0.7822857142857143,0.0,0.0,0.7045714285714285,0.24798588143959044,0.3024632653061225
5,Q2,id01,2024-08-06,2024-08-05,0.5429948329009698,0.5429948329009698,0.5397788409957452,0.5468911432186617,0.5917800109492204,0.5605561204036162,False,0.0,-0.0129527590923688,0.0157122704841127,0.0,False,False,0.0,-0.0,0.0129527590923688,0.1886334902569278,0.108433734939759,10.682705491623285,28,8.0,0.0,0.0675959412263117,0.1049424,0.06821256,0.2569027646779226,0.5428944931937228,0.6246761494600988,0.0002525825844656,1,0.5429948329009698,0.5429948329009698,0.0,36,False,-0.0004043416491632257,0.015712270484112723,-0.012952759092368815,False,True,0.0,0.0017142857142857142,0.11828571428571429,0.43514285714285716,0.11028571428571429,0.02,0.15742857142857142,0.0,1.0,0.17662857142857144,0.2621017050392208,0.3024632653061225
5,Q3,id01,2024-08-06,2024-08-05,0.5251374051887717,0.5251374051887717,0.5192541769215546,0.5246242392917206,0.5730524715895596,0.5517459872385925,False,0.0,-0.023579653631047,-0.0020577592378029,-0.0,False,False,0.0,-0.0,0.0209596921164862,0.1886334902569278,0.108433734939759,10.682705491623285,28,8.0,0.0,0.0749144089221379,0.1627350857142857,0.1057778057142857,0.2580005348322965,0.4952341200119327,0.6246761494600988,0.0747728366378189,2,0.5251374051887717,0.5251374051887717,0.0,37,False,-0.11969856173065732,-0.0020577592378029086,-0.023579653631047,False,False,0.0,0.4685714285714286,0.11828571428571429,0.43514285714285716,0.11028571428571429,0.026285714285714287,0.15742857142857142,0.0,0.0,0.15000000000000002,0.3058000534832297,0.3024632653061225
5,S1,id01,2024-08-06,2024-08-05,0.4667057241342565,0.452157785185675,0.4459464324680705,0.5233082668647947,0.6439319375086583,0.57129766967881,True,-0.0585816490111978,-0.0836880700159965,0.2266751567363304,-0.0132790044714859,False,True,-0.0007896548064899,0.0007896548064899,0.0836880700159965,0.1886334902569278,0.108433734939759,10.682705491623285,28,8.0,0.5479566305254379,0.6700980262972042,0.4012411619047619,0.4012411619047619,0.381950704627881,0.4539558544748412,0.6246761494600988,0.0045328041346615,3,0.4667057241342565,0.452157785185675,-0.058581649011197834,38,True,0.007256246518422688,0.2852568057475283,-0.02510642100479868,False,False,0.07583333333333334,0.03371428571428572,0.11828571428571429,0.6245714285714286,0.11028571428571429,0.5102857142857142,0.3365714285714286,1.0,1.0,0.3301714285714286,0.35028649903421666,0.3024632653061225
5,S2,id01,2024-08-06,2024-08-05,0.5497473648760006,0.5497473648760006,0.5466000854430871,0.544365623144338,0.667009700088187,0.5951252256063533,False,0.0,-0.012707119303821,-0.0217195597818316,-0.0,False,False,0.0,-0.0,0.0117658512072417,0.1886334902569278,0.108433734939759,10.682705491623285,28,8.0,0.0,0.0659950264178498,0.1042187428571428,0.1042187428571428,0.2566626274566533,0.6042043877455728,0.6246761494600988,0.1395305283631758,4,0.5497473648760006,0.5497473648760006,0.0,39,False,0.22336458416696497,-0.0217195597818316,-0.01270711930382104,False,True,0.0,0.7297142857142858,0.11828571428571429,0.43514285714285716,0.11028571428571429,0.019428571428571427,0.15742857142857142,1.0,1.0,0.37222857142857146,0.42215769131709385,0.3024632653061225
5,S3,id01,2024-08-06,2024-08-05,0.789998902831536,0.789998902831536,0.7859230880484744,0.5820786465245572,0.7704126323515446,0.6542735048583078,False,0.0,-0.0243952181331805,-0.9936064964783368,-0.0,False,False,0.0,-0.0,0.0225881649381301,0.1886334902569278,0.108433734939759,10.682705491623285,28,8.0,0.0,0.0766296747883472,0.1899330285714285,0.1234564685714285,0.2582578247122279,0.7856889420443413,0.6246761494600988,0.016108109555881,5,0.789998902831536,0.789998902831536,0.0,40,False,-0.025786336759940465,-0.9936064964783367,-0.024395218133180574,False,False,0.0,0.12514285714285714,0.11828571428571429,0.43514285714285716,0.11028571428571429,0.028,0.15742857142857142,0.0,0.0,0.08131428571428573,0.2305114967569371,0.3024632653061225
5,S4,id01,2024-08-06,2024-08-05,0.5141459516241352,0.539318589457077,0.5500532439565448,0.5308156669247994,0.6414612311161698,0.5768280740858961,True,0.1010008397746186,0.1442869139637413,0.0668201812915487,0.0067488944243386,True,False,-0.0023542934137948,0.0023542934137948,0.1389429541873064,0.1886334902569278,0.108433734939759,10.682705491623285,28,8.0,0.6205170975813178,0.7751341937533128,0.3057051238095238,0.3057051238095238,0.6546814091457969,0.6112396940875905,0.6246761494600988,0.1842335229366393,6,0.5141459516241352,0.539318589457077,0.10100083977461867,41,True,0.29492645604585754,-0.03418065848306995,0.04328607418912264,True,True,0.3641666666666667,0.8314285714285714,0.11828571428571429,0.26057142857142856,0.11028571428571429,0.592,0.516,1.0,1.0,0.4625142857142857,0.604496712343151,0.3024632653061225
6,Q1,id01,2024-08-07,2024-08-06,0.5712427809308589,0.5712427809308589,0.5649302452540452,0.4539995135369858,0.3995466153617791,0.4389883320579922,False,0.0,-0.0257275791645523,-0.471447209157028,-0.0,False,False,0.0,-0.0,0.0228689592573798,0.275839176929615,0.5823293172690763,6.934935941154674,28,9.0,0.0,0.314034870183995,0.1627126857142857,0.1057632457142857,0.3412581622545069,0.6160516778289775,0.8350793111618341,0.1552407577213734,0,0.5712427809308589,0.5712427809308589,0.0,42,False,0.18589941775157753,-0.4714472091570282,-0.025727579164552317,False,True,0.0,0.7674285714285715,0.7062857142857143,0.43514285714285716,0.5822857142857143,0.19428571428571428,0.15742857142857142,0.0,0.0,0.39097142857142864,0.46003438765402216,0.46151530612244895
6,Q2,id01,2024-08-07,2024-08-06,0.5953821937104642,0.5953821937104642,0.6101073931460865,0.528243976494439,0.5869756013226853,0.5517735624133824,False,0.0,0.0615030535234162,-0.2731643072427537,-0.0,False,False,0.0,-0.0,0.0592251626521786,0.275839176929615,0.5823293172690763,6.934935941154674,28,9.0,0.0,0.3404499645236176,0.1446114285714285,0.0939974285714285,0.3452204264054503,0.6169480463738489,0.8350793111618341,0.0754524047565084,1,0.5953821937104642,0.5953821937104642,0.0,43,False,0.09035357929240584,-0.2731643072427537,0.061503053523416285,False,True,0.0,0.4742857142857143,0.7062857142857143,0.43514285714285716,0.5822857142857143,0.216,0.15742857142857142,0.0,1.0,0.33234285714285716,0.4589791854976879,0.46151530612244895
6,Q3,id01,2024-08-07,2024-08-06,0.6009519918372921,0.6207118969909945,0.6290635133784945,0.5410061194859331,0.5692283927502007,0.5418548387165468,True,0.083137637725221,0.1187680538931732,-0.2450396075540988,-0.020372014121163,False,True,-0.0015132061728484,0.0015132061728484,0.1187680538931732,0.275839176929615,0.5823293172690763,6.934935941154674,28,9.0,0.5287739783152627,0.91176253632087,0.505681180952381,0.3286927676190477,0.4285688884886328,0.6214256655052743,0.8350793111618341,0.0025327080018738,2,0.6009519918372921,0.6207118969909945,0.08313763772522104,44,True,0.00303289516099986,-0.3281772452793199,0.035630416167952206,True,True,0.25166666666666665,0.017714285714285714,0.7062857142857143,0.6377142857142857,0.5822857142857143,0.6931428571428572,0.4554285714285714,0.0,0.0,0.5016857142857143,0.21366831742029185,0.46151530612244895
6,S1,id01,2024-08-07,2024-08-06,0.7886821487526844,0.7886821487526844,0.7913174163371042,0.5379947242127094,0.6363975301907616,0.581095563821345,False,0.0,0.015884830709808,-1.1647275390352672,-0.0,False,False,0.0,-0.0,0.0123548683298507,0.275839176929615,0.5823293172690763,6.934935941154674,28,9.0,0.0,0.3038576260444867,0.1433380571428571,0.1433380571428571,0.3397315756335806,0.7930688207027129,0.8350793111618341,0.0221494348060758,3,0.7886821487526844,0.7886821487526844,0.0,45,False,0.026523749912160666,-1.1647275390352672,0.015884830709808062,False,True,0.0,0.16285714285714287,0.7062857142857143,0.43514285714285716,0.5822857142857143,0.18914285714285714,0.15742857142857142,1.0,1.0,0.3200571428571429,0.3861560147062152,0.46151530612244895
6,S2,id01,2024-08-07,2024-08-06,0.612538354070244,0.5542707137333157,0.5287336726474708,0.5584123145362412,0.6582672407821804,0.5951725950473772,True,-0.2400532596235247,-0.3429332280336064,-0.223273697638057,0.0535975789062128,True,False,-0.0131706790267208,0.0131706790267208,0.3429332280336064,0.275839176929615,0.5823293172690763,6.934935941154674,28,9.0,0.7714762301918265,1.227306411982454,0.529019180952381,0.529019180952381,0.7091598526568863,0.4970712128448161,0.8350793111618341,0.191781572774225,4,0.612538354070244,0.5542707137333157,-0.2400532596235247,46,True,-0.22965671668646942,0.016779561985467678,-0.10287996841008172,True,True,0.8141666666666667,0.8457142857142858,0.7062857142857143,0.15714285714285714,0.5822857142857143,0.8851428571428571,0.8211428571428572,1.0,1.0,0.6242285714285715,0.7107674138371172,0.46151530612244895
6,S3,id01,2024-08-07,2024-08-06,0.8503035903764421,0.8503035903764421,0.853975533037808,0.5673811591977913,0.756257338180516,0.6538943512181373,False,0.0,0.0291442104012173,-1.465809892265753,-0.0,False,False,0.0,-0.0,0.0237471344009919,0.275839176929615,0.5823293172690763,6.934935941154674,28,9.0,0.0,0.3149496786459733,0.1679204571428571,0.1091482971428571,0.3413953835238036,0.8498642300692981,0.8350793111618341,0.0028789807884071,5,0.8503035903764421,0.8503035903764421,0.0,47,False,-0.003447553723252561,-1.465809892265753,0.029144210401217396,False,False,0.0,0.021142857142857144,0.7062857142857143,0.43514285714285716,0.5822857142857143,0.196,0.15742857142857142,0.0,0.0,0.12171428571428573,0.2961052526380947,0.46151530612244895
6,S4,id01,2024-08-07,2024-08-06,0.6126138047207095,0.6328214697458728,0.6413455734065711,0.5530542294802698,0.6340561579033103,0.580881379974634,True,0.0860275430887684,0.1228964901268118,-0.2452938203609082,-0.0211020247005066,False,True,-0.0015994561248156,0.0015994561248156,0.1228964901268118,0.275839176929615,0.5823293172690763,6.934935941154674,28,9.0,0.5237698081734778,0.9084736320452944,0.5713246666666667,0.5713246666666667,0.423864843923193,0.6695441956974633,0.8350793111618341,0.1351025493737333,6,0.6126138047207095,0.6328214697458728,0.08602754308876848,48,True,0.16178409352013168,-0.3313213634496768,0.03686894703804333,True,True,0.26916666666666667,0.7194285714285714,0.7062857142857143,0.6411428571428571,0.5822857142857143,0.6891428571428572,0.4657142857142857,1.0,1.0,0.6965714285714285,0.4270150558208907,0.46151530612244895
7,Q1,id01,2024-08-09,2024-08-08,0.0956109107947407,0.1466324541766752,0.1746391110604152,0.4665438126013989,0.4111066997782754,0.4432152903973276,True,0.4857115363012765,0.6938736232875384,2.1129477221687396,1.0262830842588613,True,False,-0.026754895489015,0.026754895489015,0.6938736232875387,0.2799739906408392,0.5983935742971888,7.50873410923638,28,11.0,0.9924937447873228,1.4777397028907484,0.5364004380952381,0.3486602847619047,0.768624249477176,0.1732962767348725,0.8937538731348895,0.1776939398747443,0,0.0956109107947407,0.1466324541766752,0.4857115363012765,49,True,0.19881753267426228,1.6272361858674627,0.20816208698626193,True,False,0.9041666666666667,0.8205714285714286,0.9182857142857143,0.005714285714285714,0.5982857142857143,0.9782857142857143,0.9297142857142857,0.0,0.0,0.4730971428571429,0.6661424249477177,0.6712092244897959
7,Q2,id01,2024-08-09,2024-08-08,0.5470612653540049,0.5470612653540049,0.5296319648312692,0.5140193666187411,0.5769665279889512,0.5452237870672632,False,0.0,-0.0701370083679761,-0.1327117570005928,-0.0,False,False,0.0,-0.0,0.0701370083679761,0.2799739906408392,0.5983935742971888,7.50873410923638,28,11.0,0.0,0.3572871244842147,0.170632,0.1109108,0.349352426102351,0.5501279565854561,0.8937538731348895,0.011068050666377,1,0.5470612653540049,0.5470612653540049,0.0,50,False,0.012383779247361809,-0.1327117570005928,-0.0701370083679761,False,True,0.0,0.08685714285714285,0.9182857142857143,0.43514285714285716,0.5982857142857143,0.2297142857142857,0.15742857142857142,0.0,1.0,0.27229714285714285,0.37799809975309223,0.6712092244897959
7,Q3,id01,2024-08-09,2024-08-08,0.5780399045937697,0.4917108437508116,0.4545616693723967,0.5300228671546112,0.5612616520864304,0.5365186585640347,True,-0.3478918195543518,-0.4969883136490736,-0.1944960452725996,0.0676635830860102,True,False,-0.0280014556838232,0.0280014556838232,0.4969883136490736,0.2799739906408392,0.5983935742971888,7.50873410923638,28,11.0,0.8023352793994996,1.2800340676916044,0.5303412952380953,0.3447218419047619,0.7052014650813745,0.4332919072362448,0.8937538731348895,0.2102761808804601,2,0.5780399045937697,0.4917108437508116,-0.3478918195543518,51,True,-0.23527302896367386,0.15339577428175213,-0.14909649409472187,True,True,0.9116666666666666,0.8662857142857143,0.9182857142857143,0.136,0.5982857142857143,0.9148571428571428,0.8897142857142857,0.0,0.0,0.6170685714285714,0.6609772893652803,0.6712092244897959
7,S1,id01,2024-08-09,2024-08-08,0.3813671038213733,0.3813671038213733,0.3782151457111625,0.5288366040912403,0.6207010260969926,0.560182696925427,False,0.0,-0.0133813382779396,0.5992241595256098,0.0,False,False,0.0,-0.0,0.0113989177923186,0.2799739906408392,0.5983935742971888,7.50873410923638,28,11.0,0.0,0.3106318929233227,0.1124962285714285,0.1124962285714285,0.3423541413682173,0.4060044314477908,0.8937538731348895,0.0922727714899674,3,0.3813671038213733,0.3813671038213733,0.0,52,False,0.10324181440055263,0.5992241595256098,-0.013381338277939636,False,False,0.0,0.5588571428571428,0.9182857142857143,0.43514285714285716,0.5982857142857143,0.192,0.15742857142857142,1.0,1.0,0.2966971428571429,0.4758582712796789,0.6712092244897959
7,S2,id01,2024-08-09,2024-08-08,0.5157607924549928,0.5701058542186728,0.5929644791134212,0.5411859299797389,0.6400539902242514,0.5757174421313431,True,0.2192189845703126,0.3131699779575896,0.1020537839606638,0.0223721268914147,True,False,-0.0109490616882312,0.0109490616882312,0.3015710898850863,0.2799739906408392,0.5983935742971888,7.50873410923638,28,11.0,0.6713928273561302,1.127250563618504,0.4758588380952381,0.4758588380952381,0.6854637226230366,0.6102462474993737,0.8937538731348895,0.1484206804126714,4,0.5157607924549928,0.5701058542186728,0.21921898457031264,53,True,0.1660643773123779,-0.11716520060964883,0.09395099338727703,True,True,0.7791666666666667,0.7542857142857143,0.9182857142857143,0.2257142857142857,0.5982857142857143,0.8394285714285714,0.7902857142857143,1.0,1.0,0.6218400000000001,0.6838035151194466,0.6712092244897959
7,S3,id01,2024-08-09,2024-08-08,0.735270022149455,0.7965533146411341,0.8193641509527001,0.5504532687511471,0.7267674760680327,0.62327396121701,True,0.3433626272822208,0.4905180389746006,-0.8190252012433414,-0.2812226449092633,False,True,-0.0180326547263136,0.0180326547263136,0.4905180389746006,0.2799739906408392,0.5983935742971888,7.50873410923638,28,11.0,0.1651376146788991,0.6421502966245203,0.8586764380952381,0.5581396847619048,0.2112752964188097,0.8117244622318042,0.8937538731348895,0.0861260136958397,5,0.735270022149455,0.7965533146411341,0.3433626272822208,54,True,0.09636435296638002,-1.1623878285255622,0.1471554116923799,True,True,0.8591666666666666,0.5302857142857142,0.9182857142857143,0.8868571428571429,0.5982857142857143,0.492,0.8862857142857142,0.0,0.0,0.7923542857142857,0.27846467249902385,0.6712092244897959
7,S4,id01,2024-08-09,2024-08-08,0.4499719353468342,0.433144784944163,0.4259777804523954,0.5367465541575439,0.6186290968093053,0.5630077135798037,True,-0.0682477814156424,-0.0974968305937749,0.3480358020082151,-0.0237526713402744,False,True,-0.0010625764694516,0.0010625764694516,0.0974968305937749,0.2799739906408392,0.5983935742971888,7.50873410923638,28,11.0,0.5187656380316931,0.8957211444484408,0.478694057142857,0.478694057142857,0.4465476875623728,0.3823922782211811,0.8937538731348895,0.1880231523629912,6,0.4499719353468342,0.433144784944163,-0.06824778141564244,55,True,-0.21037464341663814,0.41628358342385763,-0.029249049178132536,True,True,0.145,0.8417142857142857,0.9182857142857143,0.6445714285714286,0.5982857142857143,0.6771428571428572,0.37885714285714284,1.0,1.0,0.7090114285714286,0.4564261973276658,0.6712092244897959
8,Q1,id01,2024-08-10,2024-08-09,0.4871969586270964,0.4871969586270964,0.4980422942656777,0.4723691833202248,0.4170081409037908,0.4531285945800798,False,0.0,0.0433924997279604,-0.0594126177254487,-0.0,False,False,0.0,-0.0,0.0433924997279604,0.2395397221364621,0.3453815261044177,8.472000331001526,28,12.0,0.0,0.2108840163398017,0.1040516571428571,0.0676335771428571,0.302090755061412,0.5058164874017818,0.6737137649684933,0.0501851821502479,0,0.4871969586270964,0.4871969586270964,0.0,56,False,0.07449036187140223,-0.05941261772544871,0.04339249972796045,False,True,0.0,0.3342857142857143,0.2102857142857143,0.43514285714285716,0.3462857142857143,0.12514285714285714,0.15742857142857142,0.0,0.0,0.25758285714285717,0.32282621836328407,0.2375184081632653
8,Q2,id01,2024-08-10,2024-08-09,0.5298229073435359,0.5298229073435359,0.5372504360677081,0.5222485427847067,0.5718568804403824,0.5377325428212504,False,0.0,0.0298449410744523,-0.0303804201103059,-0.0,False,False,0.0,-0.0,0.0287395728865096,0.2395397221364621,0.3453815261044177,8.472000331001526,28,12.0,0.0,0.2000206658538097,0.1588274285714285,0.1032378285714285,0.3004612524885133,0.5169576661574908,0.6737137649684933,0.0347479374609551,1,0.5298229073435359,0.5298229073435359,0.0,57,False,-0.05157670700491056,-0.030380420110305964,0.029844941074452305,False,False,0.0,0.24971428571428572,0.2102857142857143,0.43514285714285716,0.3462857142857143,0.116,0.15742857142857142,0.0,1.0,0.12066857142857144,0.3627775538202799,0.2375184081632653
8,Q3,id01,2024-08-10,2024-08-09,0.5265629473409531,0.5265629473409531,0.5415562800034461,0.5204910850323277,0.5571946185514157,0.5316943736056071,False,0.0,0.0602575392302208,-0.0243416454294283,-0.0,False,False,0.0,-0.0,0.0580257785179904,0.2395397221364621,0.3453815261044177,8.472000331001526,28,12.0,0.0,0.2215186647102991,0.1184054857142857,0.0769635657142857,0.3036859523169867,0.5230434390062143,0.6737137649684933,0.0095080017194612,2,0.5265629473409531,0.5265629473409531,0.0,58,False,-0.014112820924633979,-0.02434164542942832,0.06025753923022088,False,False,0.0,0.07142857142857142,0.2102857142857143,0.43514285714285716,0.3462857142857143,0.13028571428571428,0.15742857142857142,0.0,0.0,0.08501142857142857,0.2658771666602701,0.2375184081632653
8,S1,id01,2024-08-10,2024-08-09,0.7833614458734801,0.7833614458734801,0.7784754907436852,0.5198095371183791,0.61268793627443,0.5597548218245044,False,0.0,-0.0285596170796924,-1.206084243717717,-0.0,False,False,0.0,-0.0,0.0264440898886041,0.2395397221364621,0.3453815261044177,8.472000331001526,28,12.0,0.0,0.1984197510453478,0.17176,0.17176,0.3002211152672439,0.7662644559674087,0.6737137649684933,0.066042045031482,3,0.7833614458734801,0.7833614458734801,0.0,59,False,-0.0980268601674934,-1.206084243717717,-0.028559617079692456,False,False,0.0,0.416,0.2102857142857143,0.43514285714285716,0.3462857142857143,0.11428571428571428,0.15742857142857142,1.0,1.0,0.2039257142857143,0.3990963972410101,0.2375184081632653
8,S2,id01,2024-08-10,2024-08-09,0.571821952388274,0.571821952388274,0.5672676379747247,0.5353532108536797,0.6307560974062285,0.5713964436580713,False,0.0,-0.018576781039916,-0.1476393501634221,-0.0,False,False,0.0,-0.0,0.018576781039916,0.2395397221364621,0.3453815261044177,8.472000331001526,28,12.0,0.0,0.1909869322917743,0.1162630857142857,0.1162630857142857,0.2991061924542079,0.613728432932457,0.6737137649684933,0.1170397867520434,4,0.571821952388274,0.571821952388274,0.0,60,False,0.17372331224005327,-0.1476393501634221,-0.018576781039916,False,True,0.0,0.66,0.2102857142857143,0.43514285714285716,0.3462857142857143,0.10857142857142857,0.15742857142857142,1.0,1.0,0.37272571428571427,0.4518649049597065,0.2375184081632653
8,S3,id01,2024-08-10,2024-08-09,0.8560330819755341,0.8319663663360969,0.820708856619341,0.5421168535557401,0.7117128554626639,0.615097946162188,True,-0.1830976301401179,-0.2615680430573115,-1.613857922945682,0.2954935610742074,True,False,-0.0043107758227576,0.0043107758227576,0.2518803377588925,0.2395397221364621,0.3453815261044177,8.472000331001526,28,12.0,0.9291075896580484,1.2463380897028244,0.3763259238095238,0.2446118504761904,0.7707971563077337,0.8129385227364304,0.6737137649684933,0.0878587995526039,5,0.8560330819755341,0.8319663663360969,-0.18309763014011793,61,True,-0.13040968452932344,-1.430760292805564,-0.07847041291719359,True,False,0.5241666666666667,0.5394285714285715,0.2102857142857143,0.04914285714285714,0.3462857142857143,0.8982857142857142,0.7308571428571429,0.0,0.0,0.2658114285714286,0.5630682870593449,0.2375184081632653
8,S4,id01,2024-08-10,2024-08-09,0.6526012611850679,0.6856607309200997,0.6992956193718995,0.5296593553771063,0.6107535580583874,0.5606330090073997,True,0.1494169733911801,0.2134528191302571,-0.5117162270341689,-0.0764590898785994,False,True,-0.0044862888983511,0.0044862888983511,0.2134528191302571,0.2395397221364621,0.3453815261044177,8.472000331001526,28,12.0,0.3628023352793995,0.6700842933001617,0.6524168571428571,0.6524168571428571,0.284567193602964,0.7160113418408051,0.6737137649684933,0.0975885433646202,6,0.6526012611850679,0.6856607309200997,0.1494169733911801,62,True,0.1448516394335272,-0.661133200425349,0.06403584573907706,True,True,0.5425,0.5811428571428572,0.2102857142857143,0.7514285714285714,0.3462857142857143,0.5097142857142857,0.668,1.0,1.0,0.6987828571428573,0.3292224336460107,0.2375184081632653
9,Q1,id01,2024-08-12,2024-08-11,0.1474992541446052,0.1092143052792624,0.0956596390021166,0.4675061037862905,0.4287578268737615,0.4595973249386105,True,-0.3444408559443204,-0.4920583656347435,1.6241919348030824,-0.5594380602414355,False,True,-0.0109807043435666,0.0109807043435666,0.492058365634743,0.3395571508965261,0.8232931726907631,6.3391755403526835,28,14.0,0.1000834028356964,0.689660235035852,0.8702192000000001,0.5656424800000001,0.2450325310065225,0.1008576504142958,0.8778965811702137,0.0780796147967776,0,0.1474992541446052,0.1092143052792624,-0.3444408559443204,63,True,-0.0889394223322979,1.9686327907474028,-0.1476175096904231,True,True,0.78,0.48342857142857143,0.8702857142857143,0.9314285714285714,0.8222857142857143,0.5274285714285715,0.8868571428571429,0.0,0.0,0.7713200000000002,0.30337182452922373,0.45320910204081644
9,Q2,id01,2024-08-12,2024-08-11,0.6502796130241703,0.6502796130241703,0.6404987530427892,0.5265019948012215,0.5616836443043238,0.53229668506592,False,0.0,-0.0427389746896024,-0.5141610828010288,-0.0,False,False,0.0,-0.0,0.0427389746896024,0.3395571508965261,0.8232931726907631,6.3391755403526835,28,14.0,0.0,0.4493824354019853,0.2074194285714286,0.1348226285714286,0.3856566825793741,0.6327734212680625,0.8778965811702137,0.0668387685291022,1,0.6502796130241703,0.6502796130241703,0.0,64,False,-0.0761351279441228,-0.5141610828010288,-0.042738974689602416,False,False,0.0,0.42,0.8702857142857143,0.43514285714285716,0.8222857142857143,0.3097142857142857,0.15742857142857142,0.0,1.0,0.2218057142857143,0.4929999539722231,0.45320910204081644
9,Q3,id01,2024-08-12,2024-08-11,0.6261245092438028,0.6597490444502253,0.6737033786196895,0.515253053269357,0.5490972121977111,0.5203644220430955,True,0.1465496588198236,0.2093566554568909,-0.4545952682087821,-0.0666207814571032,False,True,-0.0044916206153355,0.0044916206153355,0.2093566554568909,0.3395571508965261,0.8232931726907631,6.3391755403526835,28,14.0,0.3878231859883236,0.9320026482628077,0.7231600761904763,0.4700540495238096,0.3757396561265125,0.6344709187351157,0.8778965811702137,0.0972098976289069,2,0.6261245092438028,0.6597490444502253,0.14654965881982362,65,True,-0.11073046610949167,-0.6011449270286058,0.06280699663706735,False,False,0.5433333333333333,0.58,0.8702857142857143,0.7342857142857143,0.8222857142857143,0.7091428571428572,0.6594285714285715,0.0,0.0,0.59412,0.523128251326937,0.45320910204081644
9,S1,id01,2024-08-12,2024-08-11,0.3424435747342945,0.3424435747342945,0.3356722021400494,0.5208283201287571,0.5967339875588853,0.546767271910316,False,0.0,-0.0302169248034148,0.7357852006901172,0.0,False,False,0.0,-0.0,0.0268594887141465,0.3395571508965261,0.8232931726907631,6.3391755403526835,28,14.0,0.0,0.4378329785695096,0.1544194285714286,0.1544194285714286,0.3839242640545027,0.3438773188646439,0.8778965811702137,0.0055841742697886,3,0.3424435747342945,0.3424435747342945,0.0,66,False,0.006360856608354615,0.7357852006901172,-0.03021692480341487,False,False,0.0,0.038857142857142854,0.8702857142857143,0.43514285714285716,0.8222857142857143,0.30114285714285716,0.15742857142857142,1.0,1.0,0.1955771428571429,0.40777528354830744,0.45320910204081644
9,S2,id01,2024-08-12,2024-08-11,0.5425302243733988,0.5962785506935936,0.6186996791632642,0.5288791333140515,0.6122441240643482,0.5580916030514222,True,0.2194497879103597,0.3134996970147999,-0.0548877326232593,-0.0120451012830547,False,True,-0.0107878532878419,0.0107878532878419,0.3134996970147999,0.3395571508965261,0.8232931726907631,6.3391755403526835,28,14.0,0.5537948290241869,1.1243893856382934,0.7384759619047618,0.7384759619047618,0.3886528460489321,0.5822960617577214,0.8778965811702137,0.0507219242660858,4,0.5425302243733988,0.5962785506935936,0.2194497879103597,67,True,-0.05777665086527023,-0.27433752053361904,0.09404990910444022,False,False,0.7733333333333333,0.3382857142857143,0.8702857142857143,0.6205714285714286,0.8222857142857143,0.8365714285714285,0.792,1.0,1.0,0.6396057142857143,0.5490824274620361,0.45320910204081644
9,S3,id01,2024-08-12,2024-08-11,0.8062509718029807,0.8487076691316686,0.8644206065567259,0.5348055739614554,0.6817393183641831,0.5874235297383489,True,0.2986694510168926,0.4266706443098456,-1.2863835920057756,-0.3842034812215033,False,True,-0.0108263068077237,0.0108263068077237,0.4266706443098456,0.3395571508965261,0.8232931726907631,6.3391755403526835,28,14.0,0.1309424520433694,0.7157165398181393,0.8027493714285714,0.5217870914285714,0.25514701508917,0.8574634583483401,0.8778965811702137,0.0613467919651829,5,0.8062509718029807,0.8487076691316686,0.2986694510168926,68,True,0.06987929248273095,-1.5850530430226681,0.128001193292953,True,True,0.775,0.3982857142857143,0.8702857142857143,0.9102857142857143,0.8222857142857143,0.5451428571428572,0.8645714285714285,0.0,0.0,0.750977142857143,0.2881318443660599,0.45320910204081644
9,S4,id01,2024-08-12,2024-08-11,0.5164102198555515,0.4972880481774325,0.489091997869335,0.5233362059041996,0.5950734715846717,0.5470751100283586,True,-0.0765123773769991,-0.1093033962528554,0.0277482267442475,-0.0021230827961984,False,True,-0.0013587685134691,0.0013587685134691,0.1052551223175644,0.3395571508965261,0.8232931726907631,6.3391755403526835,28,14.0,0.5863219349457881,1.0816734955621816,0.4800330666666667,0.4800330666666667,0.4946550705441875,0.4905771195598937,0.8778965811702137,0.0235698299620462,6,0.5164102198555515,0.4972880481774325,-0.07651237737699912,69,True,-0.026848071250748715,0.10426060412124669,-0.03279101887585628,True,True,0.21666666666666667,0.17085714285714285,0.8702857142857143,0.5982857142857143,0.8222857142857143,0.8062857142857143,0.4268571428571429,1.0,1.0,0.5902914285714287,0.35860836419727593,0.45320910204081644
10,Q1,id01,2024-08-13,2024-08-12,0.0917044427526222,0.0767046561552894,0.0709918168766488,0.4795197986140478,0.4344888497912165,0.4577817617022925,True,-0.1949877508697395,-0.2785539298139139,2.2110323362953235,-0.4311242223544906,False,True,-0.0025368019005103,0.0025368019005103,0.278553929813913,0.2512059448987403,0.4417670682730923,8.35737085841339,28,15.0,0.1184320266889074,0.4901446059941214,0.6712686285714285,0.4363246085714286,0.2554318422635417,0.0967698286439004,0.8816712344088369,0.224248312263731,0,0.0917044427526222,0.0767046561552894,-0.19498775086973952,70,True,0.2543445941208349,2.406020087165063,-0.0835661789441744,False,False,0.3875,0.8822857142857143,0.8862857142857142,0.9188571428571428,0.4422857142857143,0.35828571428571426,0.7508571428571429,0.0,0.0,0.6255142857142857,0.48288032708349704,0.6237532653061224
10,Q2,id01,2024-08-13,2024-08-12,0.5479289535702448,0.5342018668120326,0.5283017021299468,0.5133155683547111,0.5567215500330864,0.5318720576490972,True,-0.0552848363505662,-0.0789783376436662,-0.1390314116356855,0.007686328839867,True,False,-0.0007059266946666,0.0007059266946666,0.0789783376436662,0.2512059448987403,0.4417670682730923,8.35737085841339,28,15.0,0.6255212677231026,0.9106700963136224,0.1361081904761904,0.0884703238095238,0.77079583678728,0.5112686587169516,0.8816712344088369,0.0810601274864003,1,0.5479289535702448,0.5342018668120326,-0.05528483635056622,71,True,-0.09193917678481525,-0.0837465752851193,-0.02369350129309998,True,False,0.043333333333333335,0.5011428571428571,0.8862857142857142,0.2571428571428571,0.4422857142857143,0.692,0.31885714285714284,0.0,1.0,0.22051428571428575,0.5972852979644423,0.6237532653061224
10,Q3,id01,2024-08-13,2024-08-12,0.6561743656712474,0.6561743656712474,0.6618451685464576,0.5145771506674912,0.5451476239701084,0.529082038100272,False,0.0,0.0252358693547941,-0.5879667716850547,-0.0,False,False,0.0,-0.0,0.0243012075268388,0.2512059448987403,0.4417670682730923,8.35737085841339,28,15.0,0.0,0.245354660494465,0.1141412571428571,0.0741918171428571,0.316899905901479,0.6511760174796644,0.8816712344088369,0.0194667402169642,2,0.6561743656712474,0.6561743656712474,0.0,72,False,-0.022079364118096412,-0.5879667716850547,0.02523586935479416,False,False,0.0,0.14285714285714285,0.8862857142857142,0.43514285714285716,0.4422857142857143,0.1462857142857143,0.15742857142857142,0.0,0.0,0.15625714285714287,0.296672847733005,0.6237532653061224
10,S1,id01,2024-08-13,2024-08-12,0.3261448583995547,0.3104271131734202,0.3038199305950749,0.5165107491731644,0.5889522948441724,0.5416385204823991,True,-0.0724497369136528,-0.1034996241623611,0.7917405480445487,-0.0573613944096988,False,True,-0.0010455629174851,0.0010455629174851,0.1034996241623611,0.2512059448987403,0.4417670682730923,8.35737085841339,28,15.0,0.4178482068390325,0.7212932046691178,0.5154710285714286,0.5154710285714286,0.3880448826903124,0.2831708174518521,0.8816712344088369,0.1152026854196569,3,0.3261448583995547,0.3104271131734202,-0.07244973691365286,73,True,-0.13066399460894362,0.8641902849582016,-0.031049887248708274,True,True,0.1425,0.652,0.8862857142857142,0.7137142857142857,0.4422857142857143,0.5491428571428572,0.4074285714285714,1.0,1.0,0.6701428571428572,0.37219877398331697,0.6237532653061224
10,S2,id01,2024-08-13,2024-08-12,0.5123991191984351,0.5615081354310529,0.5822469738170704,0.5223591272043235,0.6032147301094143,0.5518598677250912,True,0.1976783570030355,0.2823976528614793,0.0398895494675475,0.0078853006003361,True,False,-0.0089416799224664,0.0089416799224664,0.2719384805332764,0.2512059448987403,0.4417670682730923,8.35737085841339,28,15.0,0.6271893244370309,0.996957935760541,0.4241820761904762,0.4241820761904762,0.6520225823456857,0.5665149920271495,0.8816712344088369,0.017951997577786,4,0.5123991191984351,0.5615081354310529,0.19767835700303554,74,True,0.020361328437603993,-0.15778880753548796,0.08471929585844382,True,True,0.7308333333333333,0.13485714285714287,0.8862857142857142,0.256,0.4422857142857143,0.7497142857142857,0.7571428571428571,1.0,1.0,0.48214285714285715,0.5129051153774258,0.6237532653061224
10,S3,id01,2024-08-13,2024-08-12,0.8079462685045036,0.8646190282324883,0.8842302675205973,0.5301653668690831,0.6671194358866768,0.581667935022644,True,0.4174757904789317,0.5963939863984735,-1.3159121900678663,-0.5493614817494448,False,True,-0.019462362610489,0.019462362610489,0.5963939863984735,0.2512059448987403,0.4417670682730923,8.35737085841339,28,15.0,0.1017514595496246,0.5058253881973201,0.8675596380952382,0.5639137647619048,0.1624682631803434,0.8875342847574083,0.8816712344088369,0.186563896027693,5,0.8079462685045036,0.8646190282324883,0.4174757904789317,75,True,0.21160256651991682,-1.7333879805467982,0.17891819591954183,True,True,0.8691666666666666,0.8388571428571429,0.8862857142857142,0.9302857142857143,0.4422857142857143,0.37714285714285717,0.9142857142857143,0.0,0.0,0.8535714285714285,0.3066696834608915,0.6237532653061224
10,S4,id01,2024-08-13,2024-08-12,0.436159273244765,0.3868343067969694,0.3663254162736617,0.518539165433557,0.5874253578258696,0.5430527375763546,True,-0.2038744147409329,-0.2912491639156185,0.3309550033824203,-0.0674732576201744,False,True,-0.0091790061818552,0.0091790061818552,0.2912491639156185,0.2512059448987403,0.4417670682730923,8.35737085841339,28,15.0,0.3869891576313595,0.7621322686689921,0.8051553904761904,0.8051553904761904,0.2745247039249892,0.3580726195831503,0.8816712344088369,0.1085342792163407,6,0.436159273244765,0.3868343067969694,-0.20387441474093299,76,True,-0.12310062411088335,0.5348294181233534,-0.08737474917468552,True,True,0.7383333333333333,0.6291428571428571,0.8862857142857142,0.7348571428571429,0.4422857142857143,0.584,0.768,1.0,1.0,0.8106857142857143,0.36069818467821324,0.6237532653061224
11,Q1,id01,2024-08-14,2024-08-13,0.5153668089923147,0.5153668089923147,0.5103532984130397,0.477812863940033,0.4400518941273086,0.4576385670844405,False,0.0,-0.0200674860195648,-0.1502934640459967,-0.0,False,False,0.0,-0.0,0.0170945251277774,0.2241253295005868,0.2610441767068273,9.21759767542031,28,16.0,0.0,0.147560395957759,0.1826461714285714,0.1187200114285714,0.2841584770643466,0.4914491585953171,0.601168492941725,0.0575277973509437,0,0.5153668089923147,0.5153668089923147,0.0,77,False,-0.09569330067422596,-0.1502934640459967,-0.02006748601956488,False,False,0.0,0.37714285714285717,0.09428571428571429,0.43514285714285716,0.2622857142857143,0.07942857142857143,0.15742857142857142,0.0,0.0,0.13435428571428573,0.313981561992149,0.3370316734693877
11,Q2,id01,2024-08-14,2024-08-13,0.580610586719341,0.6125929875115891,0.6260249407153934,0.5151938535052953,0.5519048967360478,0.5264599707461934,True,0.13294448510474,0.1899206930067711,-0.2644862785889439,-0.0351619921242759,False,True,-0.0039025400169843,0.0039025400169843,0.1828865932657795,0.2241253295005868,0.2610441767068273,9.21759767542031,28,16.0,0.4787322768974145,0.7301234332897075,0.6109491238095239,0.3971169304761905,0.3131674197366993,0.635656645211416,0.601168492941725,0.0591170767003584,1,0.580610586719341,0.6125929875115891,0.13294448510474,78,True,0.09833695111178925,-0.39743076369368396,0.05697620790203112,True,True,0.49916666666666665,0.38857142857142857,0.09428571428571429,0.672,0.2622857142857143,0.5605714285714286,0.6188571428571429,0.0,1.0,0.5801257142857144,0.28675674197366996,0.3370316734693877
11,Q3,id01,2024-08-14,2024-08-13,0.5502727683573873,0.5055049252394067,0.4862494451170337,0.510190524406127,0.5413137997582834,0.5237165234880947,True,-0.1797522599393236,-0.2567889427704626,-0.161005107632157,0.0289410319586542,True,False,-0.0074915072451683,0.0074915072451683,0.2567889427704626,0.2241253295005868,0.2610441767068273,9.21759767542031,28,16.0,0.6972477064220184,0.9735673934032194,0.418179180952381,0.2718164676190476,0.6513116367729087,0.471734003512248,0.601168492941725,0.0812811387668597,2,0.5502727683573873,0.5055049252394067,-0.17975225993932362,79,True,-0.1352052539698531,0.018747152307166615,-0.07703668283113901,True,True,0.6841666666666667,0.5022857142857143,0.09428571428571429,0.208,0.2622857142857143,0.7342857142857143,0.7245714285714285,0.0,0.0,0.4208685714285714,0.5099083065344338,0.3370316734693877
11,S1,id01,2024-08-14,2024-08-13,0.7980148542708336,0.7980148542708336,0.8003640100733106,0.5118087209723418,0.5813986866654393,0.5368203799610871,False,0.0,0.0146379259473818,-1.326689383837634,-0.0,False,False,0.0,-0.0,0.0113850535146303,0.2241253295005868,0.2610441767068273,9.21759767542031,28,16.0,0.0,0.1417284920126475,0.1198121142857143,0.1198121142857143,0.2832836914725798,0.7440280162672611,0.601168492941725,0.1845120541126718,3,0.7980148542708336,0.7980148542708336,0.0,80,False,-0.30692236249739335,-1.326689383837634,0.014637925947381891,False,False,0.0,0.8325714285714285,0.09428571428571429,0.43514285714285716,0.2622857142857143,0.07371428571428572,0.15742857142857142,1.0,1.0,0.2754400000000001,0.473288369147258,0.3370316734693877
11,S2,id01,2024-08-14,2024-08-13,0.6239071000676251,0.5784757864191358,0.5585409531413099,0.5194553374443397,0.5944499913144681,0.5485343162534837,True,-0.1896458240820364,-0.270922605831481,-0.4283046316397717,0.0812261848254775,True,False,-0.008116075507535,0.008116075507535,0.270922605831481,0.2241253295005868,0.2610441767068273,9.21759767542031,28,16.0,0.8248540450375312,1.1038038063469198,0.3877777523809524,0.3877777523809524,0.688220176279101,0.5598089720822019,0.601168492941725,0.0457685509137034,4,0.6239071000676251,0.5784757864191358,-0.1896458240820364,81,True,-0.076132650747783,-0.23865880755773533,-0.08127678174944458,True,False,0.7066666666666667,0.308,0.09428571428571429,0.12057142857142857,0.2622857142857143,0.824,0.7394285714285714,1.0,1.0,0.30866857142857146,0.5434163033421959,0.3370316734693877
11,S3,id01,2024-08-14,2024-08-13,0.8183046362906573,0.8422241438292339,0.8516642424135461,0.52835652752659,0.6529280680310159,0.5730163004105746,True,0.1699675645195628,0.2428108064565184,-1.3913552722550782,-0.2364852670066489,False,True,-0.0035992321645317,0.0035992321645317,0.2428108064565184,0.2241253295005868,0.2610441767068273,9.21759767542031,28,16.0,0.1859883236030025,0.4587631277940376,0.6267500571428571,0.4073875371428571,0.2273369018522988,0.8127173791029879,0.601168492941725,0.1245057128712813,5,0.8183046362906573,0.8422241438292339,0.16996756451956285,82,True,-0.20710618459399277,-1.561322836774641,0.07284324193695557,False,False,0.475,0.6868571428571428,0.09428571428571429,0.8725714285714286,0.2622857142857143,0.3182857142857143,0.7097142857142857,0.0,0.0,0.5340400000000001,0.409876547328087,0.3370316734693877
11,S4,id01,2024-08-14,2024-08-13,0.512018681523908,0.512018681523908,0.5079507968653618,0.5148969207263475,0.5800014133502491,0.5406744348941842,False,0.0,-0.0162781199560366,0.0115213353446342,0.0,False,False,0.0,-0.0,0.0150723332926265,0.2241253295005868,0.2610441767068273,9.21759767542031,28,16.0,0.0,0.1453877258605606,0.1021748571428571,0.1021748571428571,0.2838325765497668,0.4775329822427799,0.601168492941725,0.0829688364025155,6,0.512018681523908,0.512018681523908,0.0,83,False,-0.13801261605797174,0.01152133534463421,-0.016278119956036688,False,True,0.0,0.5125714285714286,0.09428571428571429,0.43514285714285716,0.2622857142857143,0.07714285714285714,0.15742857142857142,1.0,1.0,0.33144,0.40342325765497666,0.3370316734693877
12,Q1,id01,2024-08-15,2024-08-14,0.415993926661522,0.4537704814295021,0.4701514222307478,0.4856194968175126,0.4454003590534659,0.4737719212844734,True,0.1537929931409239,0.2197042759156062,0.2817028402866914,0.0433239229839899,True,False,-0.005433863227064,0.005433863227064,0.2197042759156062,0.2620428431356034,0.5220883534136547,9.32444702008145,28,17.0,0.7422852376980817,1.1396358752396716,0.4085674666666667,0.2655688533333334,0.72678270703599,0.4903014248101509,0.8595825209109543,0.1260565398377175,0,0.415993926661522,0.4537704814295021,0.15379299314092398,84,True,0.1466485610993199,0.12790984714576747,0.06591128277468222,True,False,0.5966666666666667,0.6937142857142857,0.8062857142857143,0.17714285714285713,0.5222857142857142,0.8474285714285714,0.6782857142857143,0.0,0.0,0.37982857142857146,0.6066096992750276,0.4072167346938776
12,Q2,id01,2024-08-15,2024-08-14,0.5263864276333604,0.5263864276333604,0.5325224976077935,0.514035228291493,0.5472740328305539,0.5225675283006396,False,0.0,0.024630066094761,-0.0494881897176104,-0.0,False,False,0.0,-0.0,0.0237178414245847,0.2620428431356034,0.5220883534136547,9.32444702008145,28,17.0,0.0,0.2847148456605151,0.2108272,0.13703768,0.3308360621904427,0.5242910398221081,0.8595825209109543,0.0072231962826512,1,0.5263864276333604,0.5263864276333604,0.0,85,False,-0.008403144674226704,-0.04948818971761046,0.024630066094761094,False,False,0.0,0.05142857142857143,0.8062857142857143,0.43514285714285716,0.5222857142857142,0.1702857142857143,0.15742857142857142,0.0,1.0,0.13397142857142857,0.3509121776476157,0.4072167346938776
12,Q3,id01,2024-08-15,2024-08-14,0.5750153292254253,0.5423068588055675,0.5281594421152973,0.5074509982261769,0.5376278549605826,0.5178369349129984,True,-0.13271056124049,-0.1895865160578427,-0.2725374010716268,0.0361685914552401,True,False,-0.0040535266777579,0.0040535266777579,0.1895865160578427,0.2620428431356034,0.5220883534136547,9.32444702008145,28,17.0,0.7222685571309424,1.1076123336090675,0.3328578666666666,0.2163576133333333,0.7348963400949857,0.5151600552843186,0.8595825209109543,0.0936723394290806,2,0.5750153292254253,0.5423068588055675,-0.13271056124049002,86,True,-0.10897422545285135,-0.13982683983113683,-0.05687595481735272,True,False,0.5116666666666667,0.5645714285714286,0.8062857142857143,0.19085714285714286,0.5222857142857142,0.8262857142857143,0.6182857142857143,0.0,0.0,0.3349714285714286,0.5760496340094986,0.4072167346938776
12,S1,id01,2024-08-15,2024-08-14,0.8086601946030273,0.8086601946030273,0.8101768196857897,0.510779033438544,0.5741364385205201,0.5335843905980744,False,0.0,0.0098316465897814,-1.3982050492029772,-0.0,False,False,0.0,-0.0,0.006918566118735,0.2620428431356034,0.5220883534136547,9.32444702008145,28,17.0,0.0,0.2690487507491372,0.2044342857142857,0.2044342857142857,0.3284861479537361,0.8183428814068332,0.8595825209109543,0.0548693945794151,3,0.8086601946030273,0.8086601946030273,0.0,87,False,0.06383260855661255,-1.3982050492029772,0.009831646589781418,False,True,0.0,0.36,0.8062857142857143,0.43514285714285716,0.5222857142857142,0.16114285714285714,0.15742857142857142,1.0,1.0,0.3656857142857143,0.41728290050965927,0.4072167346938776
12,S2,id01,2024-08-15,2024-08-14,0.558780265236678,0.558780265236678,0.5692500206012026,0.5156737890032854,0.5860233286456912,0.5398369693625508,False,0.0,0.0425786192433186,-0.1734975899492306,-0.0,False,False,0.0,-0.0,0.0410016333454179,0.2620428431356034,0.5220883534136547,9.32444702008145,28,17.0,0.0,0.2980939194169474,0.1677446857142857,0.1677446857142857,0.3328429232539076,0.5675450625599292,0.8595825209109543,0.0306258311713263,4,0.558780265236678,0.558780265236678,0.0,88,False,0.035628727232459495,-0.17349758994923062,0.042578619243318655,False,True,0.0,0.22,0.8062857142857143,0.43514285714285716,0.5222857142857142,0.18342857142857144,0.15742857142857142,1.0,1.0,0.33768571428571426,0.3900385780396765,0.4072167346938776
12,S3,id01,2024-08-15,2024-08-14,0.8660328418721388,0.8372632240978997,0.8234867451775103,0.5224691876062136,0.6392840938606579,0.563213686791159,True,-0.2283236676670756,-0.3261766680958218,-1.7763908255702572,0.4055920685043456,True,False,-0.0065178284817399,0.0065178284817399,0.3140960507589395,0.2620428431356034,0.5220883534136547,9.32444702008145,28,17.0,0.9499582985821518,1.370064796615451,0.453010019047619,0.2944565123809524,0.7867314655926488,0.819587036489651,0.8595825209109543,0.1069770630249497,5,0.8660328418721388,0.8372632240978997,-0.22832366766707568,89,True,-0.12445234799746663,-1.5480671579031815,-0.09785300042874612,True,False,0.6483333333333333,0.6234285714285714,0.8062857142857143,0.03485714285714286,0.5222857142857142,0.9497142857142857,0.8051428571428572,0.0,0.0,0.36394285714285707,0.6114617179878363,0.4072167346938776
12,S4,id01,2024-08-15,2024-08-14,0.500478491822276,0.4779634589053494,0.4683361823210036,0.5122975076312195,0.5728638274813062,0.5339226234162717,True,-0.0901172716384059,-0.1287389594834369,0.0472859848450846,-0.004261283940974,False,True,-0.001881751992881,0.001881751992881,0.1239708498729393,0.2620428431356034,0.5220883534136547,9.32444702008145,28,17.0,0.5779816513761468,0.9332510996667364,0.5866205904761905,0.5866205904761905,0.4237333810253209,0.502352875787509,0.8595825209109543,0.083908041522055,6,0.500478491822276,0.4779634589053494,-0.09011727163840592,90,True,0.09761487638572773,0.1374032564834906,-0.03862168784503103,False,False,0.30583333333333335,0.5165714285714286,0.8062857142857143,0.604,0.5222857142857142,0.7102857142857143,0.47828571428571426,1.0,1.0,0.5472857142857144,0.5381333381025322,0.4072167346938776
13,Q1,id01,2024-08-17,2024-08-16,0.5508859927350321,0.5508859927350321,0.5506471363934485,0.4884640662720308,0.4553063805399375,0.4783036105816591,False,0.0,-0.0009653774386038,-0.2504030339001183,-0.0,False,False,0.0,-0.0,0.0005363207992243,0.2874413961785657,0.6305220883534136,7.857622023668883,28,19.0,0.0,0.3158327994654432,0.1852608,0.12041952,0.3463471287551578,0.5041891517277042,0.7893484645007843,0.147998187638747,0,0.5508859927350321,0.5508859927350321,0.0,91,False,-0.1874941097558821,-0.25040303390011837,-0.0009653774386038649,False,False,0.0,0.752,0.4982857142857143,0.43514285714285716,0.6302857142857143,0.19657142857142856,0.15742857142857142,0.0,0.0,0.2526857142857143,0.4632289985898015,0.47808489795918363
13,Q2,id01,2024-08-17,2024-08-16,0.5769196566561313,0.5561424946634292,0.5471731015450061,0.510109654038381,0.5386970975823863,0.5170074749922104,True,-0.0846199458032025,-0.1208856368617179,-0.2696967873725903,0.0228217275307664,True,False,-0.0016397208038858,0.0016397208038858,0.1208856368617179,0.2874413961785657,0.6305220883534136,7.857622023668883,28,19.0,0.6755629691409508,1.0834483700929578,0.2133930857142857,0.1387055057142857,0.7800951691032467,0.5414882407230998,0.7893484645007843,0.0467180295979729,1,0.5769196566561313,0.5561424946634292,-0.08461994580320253,92,True,-0.059185558342118694,-0.1850768415693878,-0.036265691058515404,True,False,0.2725,0.3137142857142857,0.4982857142857143,0.22285714285714286,0.6302857142857143,0.8091428571428572,0.46114285714285713,0.0,1.0,0.20920000000000002,0.5959409454817532,0.47808489795918363
13,Q3,id01,2024-08-17,2024-08-16,0.5847417723979433,0.5429551762694034,0.5248239903899976,0.5063674770311792,0.5308010272879544,0.5133284802005121,True,-0.1700244735930819,-0.2428921051329738,-0.3167984880130806,0.0538634961595082,True,False,-0.0066479840424938,0.0066479840424938,0.2428921051329738,0.2874413961785657,0.6305220883534136,7.857622023668883,28,19.0,0.7731442869057548,1.2307723979778302,0.4536403428571429,0.2948662228571429,0.7453425973059942,0.4891838535450831,0.7893484645007843,0.1701177256467448,2,0.5847417723979433,0.5429551762694034,-0.1700244735930819,93,True,-0.21551663593129827,-0.14677401441999868,-0.072867631539892,True,False,0.655,0.8028571428571428,0.4982857142857143,0.156,0.6302857142857143,0.888,0.7102857142857143,0.0,0.0,0.3921428571428572,0.6511171168734566,0.47808489795918363
13,S1,id01,2024-08-17,2024-08-16,0.8245065451156727,0.8245065451156727,0.8316489346156569,0.5116422466483259,0.5606858527623849,0.5267173650466138,False,0.0,0.0501755920617184,-1.5006059267509055,-0.0,False,False,0.0,-0.0,0.044600526277083,0.2874413961785657,0.6305220883534136,7.857622023668883,28,19.0,0.0,0.3544834569840253,0.1423533714285714,0.1423533714285714,0.3521447273829451,0.8201749019840346,0.7893484645007843,0.0234045137738199,3,0.8245065451156727,0.8245065451156727,0.0,94,False,-0.02965042034840959,-1.5006059267509055,0.0501755920617184,False,False,0.0,0.16914285714285715,0.4982857142857143,0.43514285714285716,0.6302857142857143,0.2257142857142857,0.15742857142857142,1.0,1.0,0.18611428571428573,0.39966018702400885,0.47808489795918363
13,S2,id01,2024-08-17,2024-08-16,0.557073394526688,0.6077603086730755,0.6288563572148603,0.5148525766966897,0.5704161025334082,0.5319548879085275,True,0.2086145460758849,0.298020780108407,-0.1698651280929236,-0.0354363365912273,False,True,-0.009657613713621,0.009657613713621,0.2869829734377253,0.2874413961785657,0.6305220883534136,7.857622023668883,28,19.0,0.4778982485404504,0.9457036037520342,0.7136638285714286,0.7136638285714286,0.3346304516500231,0.6611828765184573,0.7893484645007843,0.1820730904117026,4,0.557073394526688,0.6077603086730755,0.20861454607588495,95,True,0.23066250027717855,-0.3784796741688086,0.08940623403252207,True,True,0.7475,0.8268571428571428,0.4982857142857143,0.6725714285714286,0.6302857142857143,0.7171428571428572,0.7748571428571429,1.0,1.0,0.8208000000000001,0.4514059023078595,0.47808489795918363
13,S3,id01,2024-08-17,2024-08-16,0.8129438848019024,0.8355998643992115,0.8446127566409158,0.5186740153376929,0.6140137586974928,0.5496385895693561,True,0.1565931282894814,0.2237044689849736,-1.3945226106566304,-0.2183726580731363,False,True,-0.0031552080872014,0.0031552080872014,0.2237044689849736,0.2874413961785657,0.6305220883534136,7.857622023668883,28,19.0,0.1976647206005004,0.6506044383049373,0.5988815047619047,0.3892729780952381,0.301605877083167,0.8521666208166533,0.7893484645007843,0.0993392586603096,5,0.8129438848019024,0.8355998643992115,0.15659312828948146,96,True,0.12584968886097192,-1.5511157389461119,0.06711134069549218,True,True,0.44083333333333335,0.5931428571428572,0.4982857142857143,0.8645714285714285,0.6302857142857143,0.4982857142857143,0.6834285714285714,0.0,0.0,0.6696571428571428,0.306046301994031,0.47808489795918363
13,S4,id01,2024-08-17,2024-08-16,0.526820448241447,0.5481392328790934,0.5572266272725936,0.5125684240367288,0.5596441317451533,0.5269508175532116,True,0.0857703676615275,0.1225290966593251,-0.0571005777481288,-0.0048975375471426,False,True,-0.0016927092399692,0.0016927092399692,0.1225290966593251,0.2874413961785657,0.6305220883534136,7.857622023668883,28,19.0,0.572977481234362,0.9814346374751052,0.5881558857142857,0.5881558857142857,0.4459135762664487,0.5365116492720637,0.7893484645007843,0.0369795629107773,6,0.526820448241447,0.5481392328790934,0.0857703676615275,97,True,-0.04684821035810169,-0.14287094540965634,0.03675872899779764,False,False,0.28,0.2611428571428571,0.4982857142857143,0.6074285714285714,0.6302857142857143,0.7394285714285714,0.4645714285714286,1.0,1.0,0.46894285714285716,0.5011970719123591,0.47808489795918363
14,Q1,id01,2024-09-02,2024-09-01,0.2943379321499763,0.2549100024552317,0.2391161051808975,0.6244538614116608,0.6744514631907036,0.6527324852585058,True,-0.1981865327101909,-0.283123618157416,1.3829040390601794,-0.2740729565722554,False,True,-0.0069789558921478,0.0069789558921478,0.283123618157416,0.3100378412590789,0.7068273092369478,6.387279529834064,41,1.0,0.1684737281067556,0.6738599384713702,0.7856431238095238,0.5106680304761905,0.2644022554725488,0.2268397382669557,0.8616647670252211,0.1323931717801039,0,0.2943379321499763,0.2549100024552317,-0.19818653271019093,98,True,-0.15364812029761077,1.5810905717703703,-0.08493708544722511,True,True,0.6666666666666666,0.7108571428571429,0.8142857142857143,0.8845714285714286,0.7062857142857143,0.5142857142857142,0.7582857142857143,0.0,0.0,0.7769600000000001,0.33958308269011206,0.6789862857142859
14,Q2,id01,2024-09-02,2024-09-01,0.5814373972533974,0.5814373972533974,0.5630655984600906,0.5671427701007044,0.5261253580666992,0.5784842323257081,False,0.0,-0.0750637773402673,-0.0584737210567232,-0.0,False,False,0.0,-0.0,0.0750637773402673,0.3100378412590789,0.7068273092369478,6.387279529834064,41,1.0,0.0,0.4147058215710182,0.1561874285714286,0.1015218285714285,0.3688086041593476,0.5146490408288626,0.8616647670252211,0.2327045507832058,1,0.5814373972533974,0.5814373972533974,0.0,99,False,-0.2700639038388285,-0.058473721056723216,-0.07506377734026737,False,False,0.0,0.8931428571428571,0.8142857142857143,0.43514285714285716,0.7062857142857143,0.2754285714285714,0.15742857142857142,0.0,1.0,0.30847428571428576,0.576686574701649,0.6789862857142859
14,Q3,id01,2024-09-02,2024-09-01,0.5883167242663031,0.5883167242663031,0.5932502536785491,0.547104230411073,0.6223412462560964,0.5771434664047763,False,0.0,0.0204070563968594,-0.1680338204334741,-0.0,False,False,0.0,-0.0,0.0204070563968594,0.3100378412590789,0.7068273092369478,6.387279529834064,41,1.0,0.0,0.3736537918397432,0.1983744,0.12894336,0.3626507996996563,0.5440175107035982,0.8616647670252211,0.1555168046955384,2,0.5883167242663031,0.5883167242663031,0.0,100,False,-0.1804841170800551,-0.1680338204334741,0.020407056396859413,False,False,0.0,0.7685714285714286,0.8142857142857143,0.43514285714285716,0.7062857142857143,0.24571428571428572,0.15742857142857142,0.0,0.0,0.28356000000000003,0.48450507996996567,0.6789862857142859
14,S1,id01,2024-09-02,2024-09-01,0.4364048735594469,0.3955642474423337,0.3784635179053881,0.5745471898656452,0.6239936610131317,0.5983341122929886,True,-0.1682164510592574,-0.2403092157989392,0.5561939085646526,-0.093560965399523,False,True,-0.0062954598216607,0.0062954598216607,0.2403092157989392,0.3100378412590789,0.7068273092369478,6.387279529834064,41,1.0,0.323603002502085,0.818697617669444,0.7697503619047619,0.7697503619047619,0.3179398839994658,0.3473736005528756,0.8616647670252211,0.1780387375101004,3,0.4364048735594469,0.3955642474423337,-0.16821645105925748,101,True,-0.20662181433361215,0.7244103596239101,-0.07209276473968174,True,True,0.6383333333333333,0.8211428571428572,0.8142857142857143,0.7782857142857142,0.7062857142857143,0.6251428571428571,0.7051428571428572,1.0,1.0,0.8315885714285716,0.44471970268566086,0.6789862857142859
14,S2,id01,2024-09-02,2024-09-01,0.579615680095713,0.5626228819694493,0.5552925809127355,0.5924012899547406,0.5789339248977872,0.5806164277279952,True,-0.0693821493353791,-0.0991173561933987,0.0527052001926054,-0.0036568000705144,False,True,-0.0010990602307696,0.0010990602307696,0.0991173561933987,0.3100378412590789,0.7068273092369478,6.387279529834064,41,1.0,0.5804837364470392,1.01234221668015,0.4588098476190476,0.4588098476190476,0.4832962986217139,0.5411884705460173,0.8616647670252211,0.0746940098222608,4,0.579615680095713,0.5626228819694493,-0.06938214933537912,102,True,-0.08668569573771906,0.12208734952798461,-0.02973520685801964,True,True,0.15583333333333332,0.4674285714285714,0.8142857142857143,0.6022857142857143,0.7062857142857143,0.7611428571428571,0.38685714285714284,1.0,1.0,0.6274457142857144,0.4024782012907428,0.6789862857142859
14,S3,id01,2024-09-02,2024-09-01,0.8009179147342619,0.8398878980738034,0.8545965171983686,0.5791382929115374,0.6430569223546555,0.6504800413727017,True,0.2653529864303632,0.3790756949005185,-1.072804230964713,-0.2846718065416157,False,True,-0.0089267165256464,0.0089267165256464,0.3790756949005185,0.3100378412590789,0.7068273092369478,6.387279529834064,41,1.0,0.1634695579649708,0.6846362142987106,0.8195053714285715,0.5326784914285715,0.2530079879225464,0.8607379381199037,0.8616647670252211,0.1413460857674507,5,0.8009179147342619,0.8398878980738034,0.2653529864303632,103,True,0.16403837220294926,-1.3381572173950762,0.11372270847015531,True,True,0.73,0.736,0.8142857142857143,0.888,0.7062857142857143,0.524,0.8388571428571429,0.0,0.0,0.7975314285714286,0.3453350845065404,0.6789862857142859
14,S4,id01,2024-09-02,2024-09-01,0.5261926274729248,0.4778937733632078,0.4572678767006753,0.5831308859781418,0.5975689262455094,0.5970225948351088,True,-0.1933490957474128,-0.2762129939248755,0.2307728625211308,-0.0446197242915026,False,True,-0.0086578839854584,0.0086578839854584,0.2762129939248751,0.3100378412590789,0.7068273092369478,6.387279529834064,41,1.0,0.457047539616347,0.9607184841147522,0.7490421523809524,0.7490421523809524,0.3464085852756866,0.4818210249794983,0.8616647670252211,0.0135579707488834,6,0.5261926274729248,0.4778937733632078,-0.19334909574741288,104,True,0.01573462356560132,0.4241219582685437,-0.08286389817746263,False,False,0.7191666666666666,0.10971428571428571,0.8142857142857143,0.6868571428571428,0.7062857142857143,0.7302857142857143,0.748,1.0,1.0,0.5795600000000001,0.46577228709899726,0.6789862857142859
15,Q1,id01,2024-09-03,2024-09-02,0.2462983179011829,0.207868640969296,0.1928128333964523,0.601032176503322,0.6699474706053288,0.6378320999294411,True,-0.2193677220217522,-0.3133824600310746,1.528220867608055,-0.3352423304732849,False,True,-0.0074336807496735,0.0074336807496735,0.3133824600310742,0.2260064177257471,0.2690763052208835,7.731820787181724,41,2.0,0.1442869057547956,0.4375443265184678,0.7712142476190478,0.501289260952381,0.1778680534781738,0.2023111151682924,0.8275795758003239,0.0282130791449714,0,0.2462983179011829,0.207868640969296,-0.21936772202175225,105,True,-0.034091077124139835,1.7475885896298073,-0.09401473800932236,True,True,0.6833333333333333,0.20342857142857143,0.6662857142857143,0.9011428571428571,0.2702857142857143,0.29942857142857143,0.7908571428571428,0.0,0.0,0.6562114285714286,0.1368953767763888,0.46070861224489795
15,Q2,id01,2024-09-03,2024-09-02,0.5652561050524169,0.5652561050524169,0.5484626928920787,0.4904496124630343,0.5254508528669689,0.4931676608684583,False,0.0,-0.0680605391611388,-0.3007279982391693,-0.0,False,False,0.0,-0.0,0.0680605391611388,0.2260064177257471,0.2690763052208835,7.731820787181724,41,2.0,0.0,0.1911419261953474,0.1816811428571428,0.1180927428571428,0.2914989194513904,0.5313016007724177,0.8275795758003239,0.1135037342192427,1,0.5652561050524169,0.5652561050524169,0.0,106,False,-0.13715144445109964,-0.3007279982391693,-0.06806053916113886,False,False,0.0,0.6451428571428571,0.6662857142857143,0.43514285714285716,0.2702857142857143,0.10971428571428571,0.15742857142857142,0.0,1.0,0.23395428571428575,0.4388756062308533,0.46070861224489795
15,Q3,id01,2024-09-03,2024-09-02,0.6633741637989141,0.6877183982299708,0.6978522703364352,0.5432015560278569,0.6191826366580754,0.5748767456887406,True,0.1111069533128159,0.1587242190183085,-0.5051289565920707,-0.0561233393970266,False,True,-0.0024695549318374,0.0024695549318374,0.1587242190183085,0.2260064177257471,0.2690763052208835,7.731820787181724,41,2.0,0.421184320266889,0.6676721584119221,0.5463207428571429,0.3551084828571429,0.3181797887292478,0.6920778048124766,0.8275795758003239,0.0168637108610976,2,0.6633741637989141,0.6877183982299708,0.11110695331281595,107,True,0.020377147230572157,-0.6162359099048866,0.04761726570549263,True,True,0.3775,0.12971428571428573,0.6662857142857143,0.7114285714285714,0.2702857142857143,0.5091428571428571,0.5548571428571428,0.0,0.0,0.5490971428571428,0.16406940744435336,0.46070861224489795
15,S1,id01,2024-09-03,2024-09-02,0.3029533885934872,0.269178670642593,0.2554542570831623,0.5124349531175693,0.6207923893263122,0.5409488219522536,True,-0.1655203259405498,-0.2364576084864995,0.8830233933731646,-0.1461583198842566,False,True,-0.0050338556430633,0.0050338556430633,0.2364576084864995,0.2260064177257471,0.2690763052208835,7.731820787181724,41,2.0,0.2460383653044203,0.5208852657707799,0.7490977333333334,0.7490977333333334,0.2292669424894567,0.2560036777146415,0.8275795758003239,0.0563173140448492,3,0.3029533885934872,0.269178670642593,-0.16552032594054988,108,True,-0.06805063306496739,1.0485437193137144,-0.07093728254594966,True,True,0.5708333333333333,0.3702857142857143,0.6662857142857143,0.8314285714285714,0.2702857142857143,0.39485714285714285,0.6982857142857143,1.0,1.0,0.7056114285714287,0.2521038371060885,0.46070861224489795
15,S2,id01,2024-09-03,2024-09-02,0.5621847212158895,0.5379127009426687,0.5274482448152134,0.5427950594262285,0.5768960066942262,0.5496566328040434,True,-0.098090948982182,-0.140129927117403,-0.0784333099542106,0.0076935978052221,True,False,-0.0022188498727074,0.0022188498727074,0.140129927117403,0.2260064177257471,0.2690763052208835,7.731820787181724,41,2.0,0.6263552960800667,0.8625515390278441,0.314403980952381,0.314403980952381,0.6877307617098763,0.5582483202025214,0.8275795758003239,0.0679554712416352,4,0.5621847212158895,0.5379127009426687,-0.09809094898218201,109,True,0.08211351902434019,0.019657639027971407,-0.042038978135221075,False,False,0.3491666666666667,0.42914285714285716,0.6662857142857143,0.25657142857142856,0.2702857142857143,0.6548571428571428,0.504,1.0,1.0,0.30669714285714283,0.7072987904567019,0.46070861224489795
15,S3,id01,2024-09-03,2024-09-02,0.7832618917527464,0.8158236710866215,0.828570611445122,0.507145913326402,0.6393634748719733,0.5595436584476361,True,0.2035272721744381,0.2907532459634825,-1.2561917623741106,-0.2556692827240027,False,True,-0.0058405741425342,0.0058405741425342,0.2907532459634825,0.2260064177257471,0.2690763052208835,7.731820787181724,41,2.0,0.1751459549624687,0.463600631300755,0.7232914476190477,0.470139440952381,0.1999825375608213,0.8316671540169512,0.8275795758003239,0.0903588008153765,5,0.7832618917527464,0.8158236710866215,0.2035272721744381,110,True,0.10918442583360477,-1.4597190345485487,0.0872259737890444,True,True,0.6158333333333333,0.5497142857142857,0.6662857142857143,0.88,0.2702857142857143,0.3222857142857143,0.7668571428571429,0.0,0.0,0.7071542857142856,0.2184896823275107,0.46070861224489795
15,S4,id01,2024-09-03,2024-09-02,0.4895688830650555,0.4449383613390002,0.4260380002749891,0.5706246913734709,0.5950498890741652,0.5919648276909156,True,-0.1794128868960467,-0.2563041241372097,0.3261308513415634,-0.0585120775450553,False,True,-0.007386764719479,0.007386764719479,0.2563041241372097,0.2260064177257471,0.2690763052208835,7.731820787181724,41,2.0,0.4145120934111759,0.6946191425339105,0.7506960952380952,0.7506960952380952,0.2631675577820748,0.4141978897864025,0.8275795758003239,0.1038569109097728,6,0.4895688830650555,0.4449383613390002,-0.17941288689604676,111,True,-0.12549477288553965,0.5055437382376102,-0.07689123724116301,True,True,0.6791666666666667,0.6114285714285714,0.6662857142857143,0.716,0.2702857142857143,0.5325714285714286,0.7234285714285714,1.0,1.0,0.7682971428571429,0.3278253272067789,0.46070861224489795
16,Q1,id01,2024-09-04,2024-09-03,0.4910111852448078,0.4910111852448078,0.4762966460287218,0.5773819088882154,0.6650323497318075,0.6050169736118354,False,0.0,-0.0589254062841587,0.3479941546731991,0.0,False,False,0.0,-0.0,0.0589254062841587,0.2631080388718675,0.5261044176706827,7.395223824418075,41,3.0,0.0,0.3122231636666736,0.2312011428571428,0.1502807428571428,0.3353639163170693,0.4387493030207051,0.9135700330471136,0.1921058366892336,0,0.4910111852448078,0.4910111852448078,0.0,112,False,-0.2102803613735944,0.3479941546731991,-0.058925406284158766,False,True,0.0,0.8468571428571429,0.9902857142857143,0.43514285714285716,0.5262857142857142,0.19314285714285714,0.15742857142857142,0.0,0.0,0.4278971428571429,0.47003924877456404,0.6827928979591837
16,Q2,id01,2024-09-04,2024-09-03,0.5465171347107587,0.5465171347107587,0.5477374179726403,0.5002844993722866,0.524714778256798,0.501666275206695,False,0.0,0.0049248878932175,-0.1854701774790175,-0.0,False,False,0.0,-0.0,0.0038304683613914,0.2631080388718675,0.5261044176706827,7.395223824418075,41,3.0,0.0,0.2670544958564963,0.1997664,0.12984816,0.3285886161455428,0.4914460067438955,0.9135700330471136,0.2017413744579707,1,0.5465171347107587,0.5465171347107587,0.0,113,False,-0.2208274868485826,-0.1854701774790175,0.004924887893217544,False,False,0.0,0.856,0.9902857142857143,0.43514285714285716,0.5262857142857142,0.15885714285714286,0.15742857142857142,0.0,1.0,0.3097257142857143,0.52657314732884,0.6827928979591837
16,Q3,id01,2024-09-04,2024-09-03,0.5653221271098943,0.5653221271098943,0.562883655204043,0.51281996125937,0.6157357064795157,0.5409533337649882,False,0.0,-0.0099169100935886,-0.2114993837914591,-0.0,False,False,0.0,-0.0,0.0084477382278718,0.2631080388718675,0.5261044176706827,7.395223824418075,41,3.0,0.0,0.2727720487438605,0.2091369142857143,0.1359389942857143,0.3294462490786474,0.5506885543628228,0.9135700330471136,0.0542088232981715,2,0.5653221271098943,0.5653221271098943,0.0,114,False,-0.05933734835561966,-0.2114993837914591,-0.009916910093588638,False,False,0.0,0.3565714285714286,0.9902857142857143,0.43514285714285716,0.5262857142857142,0.164,0.15742857142857142,0.0,0.0,0.20984000000000003,0.3575046249078648,0.6827928979591837
16,S1,id01,2024-09-04,2024-09-03,0.6144473105078225,0.5131757405147508,0.4689334883499075,0.5194260162654546,0.6172989028270689,0.5369865375664341,True,-0.4133301535325068,-0.5904716479035819,-0.3883021215664496,0.1604969755240587,True,False,-0.0394009817562333,0.0394009817562333,0.5904716479035815,0.2631080388718675,0.5261044176706827,7.395223824418075,41,3.0,0.8857381150959133,1.3316376652691622,0.5701240571428572,0.5701240571428572,0.7139715711237479,0.4333449899355842,0.9135700330471136,0.2931935678346798,3,0.6144473105078225,0.5131757405147508,-0.41333015353250685,115,True,-0.32093168255176296,0.025028031966057192,-0.17714149437107507,True,True,0.9425,0.9308571428571428,0.9902857142857143,0.07885714285714286,0.5262857142857142,0.9342857142857143,0.9125714285714286,1.0,1.0,0.6852685714285713,0.7301400142552319,0.6827928979591837
16,S2,id01,2024-09-04,2024-09-03,0.618514654783421,0.6528140558846129,0.6670647303873627,0.5500199965558074,0.5746720655773211,0.5568367469182535,True,0.1481833874520778,0.2116905535029679,-0.2824969592704617,-0.0418613563696086,False,True,-0.0046359734269472,0.0046359734269472,0.2116905535029679,0.2631080388718675,0.5261044176706827,7.395223824418075,41,3.0,0.4653878231859883,0.8621164185279049,0.6977154095238095,0.6977154095238095,0.346643834487872,0.6499884272696577,0.9135700330471136,0.0113680059892654,4,0.618514654783421,0.6528140558846129,0.14818338745207782,116,True,-0.012443497026001005,-0.4306803467225395,0.06350716605089013,False,False,0.5541666666666667,0.09028571428571429,0.9902857142857143,0.6811428571428572,0.5262857142857142,0.6537142857142857,0.6645714285714286,1.0,1.0,0.5441828571428571,0.42920152630593006,0.6827928979591837
16,S3,id01,2024-09-04,2024-09-03,0.8396398564487434,0.8648513448032461,0.8745900418576507,0.4968043466458857,0.6353328863500621,0.565131139652635,True,0.2006314395976591,0.2866163422823697,-1.6683336620952665,-0.3347201843554079,False,True,-0.0044233984240546,0.0044233984240546,0.2866163422823697,0.2631080388718675,0.5261044176706827,7.395223824418075,41,3.0,0.1451209341117598,0.560603102924231,0.7253822476190476,0.4714984609523809,0.2509714660047021,0.8922371342875876,0.9135700330471136,0.2353507175458054,5,0.8396398564487434,0.8648513448032461,0.20063143959765917,117,True,0.25761650342318987,-1.868965101692926,0.0859849026847106,True,True,0.5333333333333333,0.8977142857142857,0.9902857142857143,0.9005714285714286,0.5262857142857142,0.43142857142857144,0.7605714285714286,0.0,0.0,0.7926114285714285,0.34614857517189873,0.6827928979591837
16,S4,id01,2024-09-04,2024-09-03,0.3818836064217866,0.3605393040371446,0.3515523310993049,0.5540453213201815,0.5923009120393775,0.5641683562255645,True,-0.0914632694178297,-0.1306618134540424,0.6985900731923377,-0.0638953320770121,False,True,-0.0017942541347776,0.0017942541347776,0.1258224870298184,0.2631080388718675,0.5261044176706827,7.395223824418075,41,3.0,0.396163469557965,0.7546988116122886,0.6065123047619048,0.6065123047619048,0.3688430533337655,0.3675129332342376,0.9135700330471136,0.0275193963209465,6,0.3818836064217866,0.3605393040371446,-0.09146326941782973,118,True,0.030122919234947032,0.7900533426101674,-0.0391985440362127,False,False,0.29333333333333333,0.19714285714285715,0.9902857142857143,0.7285714285714285,0.5262857142857142,0.5782857142857143,0.4817142857142857,1.0,1.0,0.5076971428571428,0.44437001961909084,0.6827928979591837
17,Q1,id01,2024-09-05,2024-09-04,0.6344447465080856,0.6344447465080856,0.6409317551570632,0.5142407571630299,0.6597041823938575,0.5953800836199471,False,0.0,0.0280777562493595,-0.4943543224193405,-0.0,False,False,0.0,-0.0,0.0270378393512351,0.3137092144348839,0.7228915662650602,6.10997500770724,41,4.0,0.0,0.3879752285299001,0.1250123428571428,0.0812580228571428,0.366405440905991,0.6593612195056466,0.6679758518794968,0.0728869430364855,0,0.6344447465080856,0.6344447465080856,0.0,119,False,0.10911613470966375,-0.4943543224193405,0.028077756249359598,False,True,0.0,0.4542857142857143,0.19028571428571428,0.43514285714285716,0.7222857142857143,0.2571428571428571,0.15742857142857142,0.0,0.0,0.29126285714285716,0.4192576869477419,0.27420257142857146
17,Q2,id01,2024-09-05,2024-09-04,0.4948380178478446,0.4948380178478446,0.510820044248312,0.4505253222467896,0.5239168469755278,0.4789244817975834,False,0.0,0.063935597069778,-0.177899743529741,-0.0,False,False,0.0,-0.0,0.0615676119931196,0.3137092144348839,0.7228915662650602,6.10997500770724,41,4.0,0.0,0.4124463548878189,0.2113458285714285,0.1373747885714286,0.3700761098596788,0.4755387124022964,0.6679758518794968,0.0516176081154817,1,0.4948380178478446,0.4948380178478446,0.0,120,False,-0.07727466190618187,-0.17789974352974106,0.06393559706977808,False,False,0.0,0.3445714285714286,0.19028571428571428,0.43514285714285716,0.7222857142857143,0.27485714285714286,0.15742857142857142,0.0,1.0,0.14932,0.4579676109859679,0.27420257142857146
17,Q3,id01,2024-09-05,2024-09-04,0.5464306526144613,0.5464306526144613,0.5531428060727384,0.4884006804356633,0.611999110520597,0.5414147090092173,False,0.0,0.0271179080320866,-0.2326648363444849,-0.0,False,False,0.0,-0.0,0.0241048071396325,0.3137092144348839,0.7228915662650602,6.10997500770724,41,4.0,0.0,0.3856882073749543,0.1070217142857142,0.0695641142857142,0.3660623877327492,0.5433506385315799,0.6679758518794968,0.008296401853126,2,0.5464306526144613,0.5464306526144613,0.0,121,False,-0.012420212242377243,-0.23266483634448493,0.027117908032086635,False,False,0.0,0.062285714285714285,0.19028571428571428,0.43514285714285716,0.7222857142857143,0.2542857142857143,0.15742857142857142,0.0,0.0,0.09286285714285714,0.3325833816304178,0.27420257142857146
