kbsooo/etri/hitl/h030_rowtarget_identity_equation_jepa/h030_cell_identity_state.csv
row,target,target_i,subject_id,sleep_date,lifelog_date,e247_prob,h012_prob,h012_logit_delta,h012_support,abs_h012_logit_delta,h012post_posterior_minus_base,h012post_logit_delta_to_posterior,h012post_direction_consistency,h012post_cell_score,h014mem_memory_alignment_q,h014mem_private_safe_score,h014mem_posterior_gain,h014mem_row_full_reliability_q,h016_weight_score,h016_combined_score,h016_h015_cell_score,h016_public_weight_median,h019_inclusion_prob,h019_inclusion_lift,h019_row_weight,h019_row_score,h019_row_gain_to_proxy,h020cell_q_joint_vector,h020cell_joint_minus_h012,h020cell_row_weight,h020cell_row_score,h020cell_cell_gain,h020cell_gain_score,h020cell_shift_score,h020cell_move_score,h020cell_combined_score,h020row_row_weight,h020row_max_vector_prob,h020row_row_vector_entropy,h020row_row_gain_to_joint_vector,h020row_row_abs_shift_vs_h018,h020row_row_score,score_h012_support,score_h012_posterior,score_public_cell_weight,score_public_row_subset,score_joint_vector_cell,score_joint_vector_row,score_memory_state,score_identity_combo,score_no_h012_combo,score_memory_public_combo,score_exact_support_plus_identity
0,Q1,0,id01,2024-07-31,2024-07-30,0.2375246548677801,0.1952401438424609,-0.25001486416632535,True,0.25001486416632535,-0.058572489976381,-0.3571640916661787,1.0,0.3571640916661787,0.2043369474562135,0.4087559958625317,0.0092330426778737,0.0763052208835341,0.5302857142857142,0.5501371428571428,0.3214009596981118,0.0005631852658867,0.4835026266544198,0.9670052533088396,0.0038680210132353,0.57024,0.0006218010849581,0.1820514649065051,-0.0131886789359557,0.0038680210132353,0.456,0.0005633228108826,0.5342857142857143,0.4731428571428571,0.5691428571428572,0.5080228571428571,0.0038680210132353,0.0327226743871175,4.299150198098523,0.0006962293889653,0.0141974088360772,0.456,0.8302857142857143,0.8314285714285714,0.5885714285714285,0.5902857142857143,0.5411428571428571,0.41828571428571426,0.284,0.5992114285714286,0.5288571428571428,0.44896571428571425,0.819645142857143
0,Q2,1,id01,2024-07-31,2024-07-30,0.4975144875918229,0.5282565708634688,0.12308897141995406,True,0.12308897141995406,0.0438654631092377,0.1758413877427911,1.0,0.1758413877427911,0.7631359466221852,0.9189557954859078,0.0035063482433309,0.0763052208835341,0.6971428571428572,0.6380571428571429,0.0402482318985166,0.000568022220754,0.4835026266544198,0.9670052533088396,0.0038680210132353,0.57024,0.0006218010849581,0.5275006088585029,-0.0007559620049658,0.0038680210132353,0.456,1.1465540240562788e-06,0.0245714285714285,0.4737142857142857,0.0222857142857142,0.1949028571428571,0.0038680210132353,0.0327226743871175,4.299150198098523,0.0006962293889653,0.0141974088360772,0.456,0.5834285714285714,0.5885714285714285,0.74,0.5902857142857143,0.05085714285714286,0.41828571428571426,0.7251428571428571,0.48233142857142863,0.4603142857142857,0.6173885714285714,0.7670491428571429
0,Q3,2,id01,2024-07-31,2024-07-30,0.5541805485467693,0.5541805485467693,0.0,False,0.0,-0.0126517760448976,-0.0510778172029832,0.9629629629629628,0.0491860461954653,0.0,0.0812629592124932,-0.0,0.0763052208835341,0.6142857142857143,0.45764,0.0070426705360818,0.0005651498115247,0.4835026266544198,0.9670052533088396,0.0038680210132353,0.57024,0.0006218010849581,0.5155809249016432,-0.0385996236451261,0.0038680210132353,0.456,0.0030013715418311,0.9102857142857144,0.9228571428571428,0.8154285714285714,0.8156114285714285,0.0038680210132353,0.0327226743871175,4.299150198098523,0.0006962293889653,0.0141974088360772,0.456,0.15742857142857142,0.216,0.568,0.5902857142857143,0.9331428571428572,0.41828571428571426,0.026285714285714287,0.5373885714285714,0.6154342857142856,0.36279428571428574,0.188086
0,S1,3,id01,2024-07-31,2024-07-30,0.5668133559792676,0.5454902757586634,-0.08639571773033647,True,0.08639571773033647,-0.0305175788056379,-0.1234224539004808,1.0,0.1234224539004808,0.6088407005838199,0.7408755294361073,0.0017169665999977,0.0763052208835341,0.5868571428571429,0.4171542857142857,0.0206280679854716,0.0005644631663795,0.4835026266544198,0.9670052533088396,0.0038680210132353,0.57024,0.0006218010849581,0.5231979874489454,-0.0222922883097179,0.0038680210132353,0.456,0.0009997979708636,0.6702857142857143,0.6977142857142857,0.584,0.6192914285714285,0.0038680210132353,0.0327226743871175,4.299150198098523,0.0006962293889653,0.0141974088360772,0.456,0.4674285714285714,0.4697142857142857,0.5228571428571429,0.5902857142857143,0.6942857142857143,0.41828571428571426,0.6171428571428571,0.5596857142857142,0.5786285714285715,0.5437428571428571,0.8018585714285715
0,S2,4,id01,2024-07-31,2024-07-30,0.5279983569898583,0.4713998480827134,-0.22663632673863873,True,0.22663632673863873,-0.0807155703636747,-0.3237661810551981,1.0,0.3237661810551981,0.4161801501251042,0.6152246988173001,0.0118792952581279,0.0763052208835341,0.796,0.7648571428571429,0.0623635853751166,0.0005737791858831,0.4835026266544198,0.9670052533088396,0.0038680210132353,0.57024,0.0006218010849581,0.4634102151679761,-0.0079896329147373,0.0038680210132353,0.456,0.0001281714138106,0.3,0.7708571428571429,0.2468571428571428,0.4213028571428572,0.0038680210132353,0.0327226743871175,4.299150198098523,0.0006962293889653,0.0141974088360772,0.456,0.8022857142857143,0.8045714285714286,0.8542857142857143,0.5902857142857143,0.41314285714285715,0.41828571428571426,0.5,0.6224914285714287,0.5745657142857143,0.5659142857142857,0.8301211428571429
0,S3,5,id01,2024-07-31,2024-07-30,0.8144085433008215,0.8468215168945182,0.23097180338709689,True,0.23097180338709689,0.0448171966622298,0.3299597191244239,1.0,0.3299597191244239,0.2210175145954962,0.4210912228074177,0.0065129278382434,0.0763052208835341,0.1594285714285714,0.4516914285714286,0.2837350281012847,0.0005566020160224,0.4835026266544198,0.9670052533088396,0.0038680210132353,0.57024,0.0006218010849581,0.8510606287168067,0.0042391118222884,0.0038680210132353,0.456,6.979864751144316e-05,0.2365714285714285,0.5685714285714286,0.2531428571428571,0.3486399999999999,0.0038680210132353,0.0327226743871175,4.299150198098523,0.0006962293889653,0.0141974088360772,0.456,0.808,0.8097142857142857,0.2765714285714286,0.5902857142857143,0.2925714285714286,0.41828571428571426,0.296,0.48170285714285715,0.3820971428571429,0.39664571428571427,0.7667662857142857
0,S4,6,id01,2024-07-31,2024-07-30,0.480407646947656,0.5111230093690158,0.12290893888562268,True,0.12290893888562268,0.0438669138488427,0.1755841984080327,0.9629629629629628,0.1690810799484759,0.74395329441201,0.8974861221207868,0.003504367181666,0.0763052208835341,0.8622857142857143,0.7714742857142858,0.1222537002178801,0.0005816010656694,0.4835026266544198,0.9670052533088396,0.0038680210132353,0.57024,0.0006218010849581,0.5037080748745798,-0.0074149344944359,0.0038680210132353,0.456,0.0001099967838341,0.2805714285714286,0.8285714285714286,0.228,0.4236114285714285,0.0038680210132353,0.0327226743871175,4.299150198098523,0.0006962293889653,0.0141974088360772,0.456,0.5828571428571429,0.5771428571428572,0.884,0.5902857142857143,0.4165714285714286,0.41828571428571426,0.7142857142857143,0.5893085714285714,0.5979542857142858,0.6398342857142858,0.8151888571428572
1,Q1,0,id01,2024-08-01,2024-07-31,0.0681101766719186,0.0950246972067914,0.3623171280296793,True,0.3623171280296793,0.041133295109703,0.5175958971852577,1.0,0.5175958971852577,0.9866555462885738,1.3972247527886736,0.0102738421638088,0.4618473895582329,0.1897142857142857,0.2231085714285714,0.0452629067586129,0.0005576035762594,0.5196860209210342,1.0393720418420684,0.0041574881673682,0.5716,0.0003981136925974,0.1043503035093675,0.0093256063025761,0.0041574881673682,0.5319999999999999,0.0004915414260168,0.5102857142857142,0.364,0.6594285714285715,0.5082057142857143,0.0041574881673682,0.0536847803846499,3.947235378532412,0.000701437900407,0.0116025060384373,0.5319999999999999,0.8965714285714286,0.8982857142857142,0.088,0.6062857142857143,0.5285714285714286,0.5302857142857142,0.9617142857142857,0.5695314285714286,0.46843428571428575,0.6077314285714285,0.8062891428571429
1,Q2,1,id01,2024-08-01,2024-07-31,0.5142003796073951,0.5142003796073951,0.0,False,0.0,0.003014473418007,0.0120698423069859,0.925925925925926,0.0111757799138758,0.0,0.242015747380603,-0.0,0.4618473895582329,0.44,0.37804,0.0025889781021748,0.0005617073623647,0.5196860209210342,1.0393720418420684,0.0041574881673682,0.5716,0.0003981136925974,0.5187505477991277,0.0045501681917325,0.0041574881673682,0.5319999999999999,4.144920898019322e-05,0.1965714285714285,0.2142857142857142,0.1502857142857142,0.24496,0.0041574881673682,0.0536847803846499,3.947235378532412,0.000701437900407,0.0116025060384373,0.5319999999999999,0.15742857142857142,0.056,0.39485714285714285,0.6062857142857143,0.09714285714285714,0.5302857142857142,0.15542857142857142,0.29992,0.3679085714285714,0.4049542857142857,0.104972
1,Q3,2,id01,2024-08-01,2024-07-31,0.5380175347484274,0.510501737615549,-0.11035108657594989,True,0.11035108657594989,-0.0393375800951993,-0.1576444093942143,1.0,0.1576444093942143,0.5704753961634695,0.9125483190729462,0.0028241009776905,0.4618473895582329,0.7302857142857143,0.6440914285714286,0.0391636223938055,0.0005701372433404,0.5196860209210342,1.0393720418420684,0.0041574881673682,0.5716,0.0003981136925974,0.4726780803870616,-0.0378236572284873,0.0041574881673682,0.5319999999999999,0.0028622194528785,0.9022857142857142,0.9205714285714286,0.8102857142857143,0.8287542857142858,0.0041574881673682,0.0536847803846499,3.947235378532412,0.000701437900407,0.0116025060384373,0.5319999999999999,0.5514285714285714,0.556,0.7662857142857142,0.6062857142857143,0.936,0.5302857142857142,0.6948571428571428,0.6966857142857144,0.7334057142857143,0.6444285714285715,0.8635085714285715
1,S1,3,id01,2024-08-01,2024-07-31,0.2378075063190286,0.2239016388290741,-0.07833483246620943,True,0.07833483246620943,-0.0196855601059867,-0.1119069035231556,1.0,0.1119069035231556,0.2852376980817347,0.6038686541530183,0.000993579959312,0.4618473895582329,0.6931428571428572,0.5434971428571429,0.1530438885707403,0.0005678715959975,0.5196860209210342,1.0393720418420684,0.0041574881673682,0.5716,0.0003981136925974,0.2022819536957725,-0.0216196851333015,0.0041574881673682,0.5319999999999999,0.0013774747342323,0.7542857142857143,0.8148571428571428,0.7491428571428571,0.7319542857142858,0.0041574881673682,0.0536847803846499,3.947235378532412,0.000701437900407,0.0116025060384373,0.5319999999999999,0.43542857142857144,0.43885714285714283,0.6817142857142857,0.6062857142857143,0.8285714285714286,0.5302857142857142,0.48742857142857143,0.6206114285714287,0.6676628571428572,0.5628285714285715,0.829275142857143
1,S2,4,id01,2024-08-01,2024-07-31,0.4840410685567564,0.467637104525372,-0.06577539711857776,True,0.06577539711857776,-0.0234149432570702,-0.0939648530265389,1.0,0.0939648530265389,0.4870725604670559,0.792667495955149,0.0010003527419601,0.4618473895582329,0.8234285714285714,0.5415942857142857,0.0049664175473199,0.0005768941369587,0.5196860209210342,1.0393720418420684,0.0041574881673682,0.5716,0.0003981136925974,0.4632458946007179,-0.004391209924654,0.0041574881673682,0.5319999999999999,3.874294339134554e-05,0.1862857142857142,0.1988571428571428,0.1457142857142857,0.2362285714285714,0.0041574881673682,0.0536847803846499,3.947235378532412,0.000701437900407,0.0116025060384373,0.5319999999999999,0.36857142857142855,0.3737142857142857,0.7462857142857143,0.6062857142857143,0.08742857142857142,0.5302857142857142,0.6268571428571429,0.4544114285714286,0.48604571428571436,0.6190685714285714,0.7544851428571429
1,S3,5,id01,2024-08-01,2024-07-31,0.8211057303909638,0.8477592475098434,0.19327659861977464,True,0.19327659861977464,0.0370391086446104,0.2761094265996793,1.0,0.2761094265996793,0.2143452877397831,0.5954119213410838,0.0045275226265522,0.4618473895582329,0.3897142857142857,0.40552,0.3187467747847912,0.0005612186364288,0.5196860209210342,1.0393720418420684,0.0041574881673682,0.5716,0.0003981136925974,0.8438819772748377,-0.0038772702350057,0.0041574881673682,0.5319999999999999,5.7839300414253e-05,0.2154285714285714,0.7268571428571429,0.2285714285714285,0.3911771428571429,0.0041574881673682,0.0536847803846499,3.947235378532412,0.000701437900407,0.0116025060384373,0.5319999999999999,0.7474285714285714,0.7508571428571429,0.38342857142857145,0.6062857142857143,0.35485714285714287,0.5302857142857142,0.45485714285714285,0.5249771428571429,0.45817142857142856,0.4987142857142858,0.7862397142857144
1,S4,6,id01,2024-08-01,2024-07-31,0.4221150574966743,0.3729978985430439,-0.2052802440647733,True,0.2052802440647733,-0.0694521160043094,-0.2932574915211047,1.0,0.2932574915211047,0.2527105921601334,0.6388086723023145,0.0091803700870478,0.4618473895582329,0.8845714285714286,0.83288,0.0949545197590819,0.0005869516712231,0.5196860209210342,1.0393720418420684,0.0041574881673682,0.5716,0.0003981136925974,0.3686329740127958,-0.004364924530248,0.0041574881673682,0.5319999999999999,4.079823693547979e-05,0.1925714285714285,0.6371428571428571,0.1525714285714285,0.3453028571428571,0.0041574881673682,0.0536847803846499,3.947235378532412,0.000701437900407,0.0116025060384373,0.5319999999999999,0.7708571428571429,0.776,0.9125714285714286,0.6062857142857143,0.26,0.5302857142857142,0.4828571428571429,0.6053371428571428,0.565857142857143,0.60292,0.8224017142857143
2,Q1,0,id01,2024-08-02,2024-08-01,0.1249960260090513,0.1032837510399468,-0.21531293044426336,True,0.21531293044426336,-0.0299511661016469,-0.3075899006346607,1.0,0.3075899006346607,0.1392827356130108,0.6260614112073264,0.004046663275402,0.6586345381526104,0.312,0.4339428571428572,0.3085914733792281,0.0005603773134428,0.5783122829976108,1.1566245659952217,0.0046264982639809,0.7912,0.0006500463098043,0.098336410723645,-0.0049473403163017,0.0046264982639809,0.7450399999999999,0.0001340511717936,0.3051428571428571,0.0851428571428571,0.388,0.3618971428571428,0.0046264982639809,0.0837684731740617,3.8131259857583144,0.0013971823220478,0.0103322603699116,0.7450399999999999,0.784,0.7874285714285715,0.35714285714285715,0.8342857142857143,0.24514285714285713,0.8822857142857143,0.45771428571428574,0.5885600000000001,0.53088,0.6398971428571429,0.8148520000000001
2,Q2,1,id01,2024-08-02,2024-08-01,0.536621580933206,0.536621580933206,0.0,False,0.0,0.0011542503012806,0.0046427005439917,0.925925925925926,0.0042987967999923,0.0,0.3340056624439438,-0.0,0.6586345381526104,0.3805714285714285,0.3619942857142856,0.0081359704901944,0.0005611370791783,0.5783122829976108,1.1566245659952217,0.0046264982639809,0.7912,0.0006500463098043,0.5560632633840944,0.0194416824508883,0.0046264982639809,0.7450399999999999,0.0007616842641078,0.6005714285714285,0.7817142857142857,0.5217142857142857,0.6739885714285715,0.0046264982639809,0.0837684731740617,3.8131259857583144,0.0013971823220478,0.0103322603699116,0.7450399999999999,0.15742857142857142,0.024,0.3502857142857143,0.8342857142857143,0.7097142857142857,0.8822857142857143,0.228,0.5147371428571429,0.6431657142857143,0.5651542857142857,0.180158
2,Q3,2,id01,2024-08-02,2024-08-01,0.5509717740384017,0.5682112561937659,0.06995899859586327,True,0.06995899859586327,0.0245800253229295,0.0999414265655189,0.9629629629629628,0.0962398922482774,0.6055045871559633,1.011437064922949,0.0011157273682508,0.6586345381526104,0.008,0.3187542857142857,0.0545650158403303,0.00054044338059,0.5783122829976108,1.1566245659952217,0.0046264982639809,0.7912,0.0006500463098043,0.5623075434361192,-0.0059037127576466,0.0046264982639809,0.7450399999999999,7.095366733667063e-05,0.2394285714285714,0.6142857142857143,0.188,0.4226057142857143,0.0046264982639809,0.0837684731740617,3.8131259857583144,0.0013971823220478,0.0103322603699116,0.7450399999999999,0.3902857142857143,0.38342857142857145,0.045714285714285714,0.8342857142857143,0.3514285714285714,0.8822857142857143,0.7611428571428571,0.48324,0.5040228571428572,0.6809371428571429,0.7674580000000001
2,S1,3,id01,2024-08-02,2024-08-01,0.2969551179401048,0.2518576456277656,-0.22688951955605685,True,0.22688951955605685,-0.0629742166977317,-0.3241278850800814,1.0,0.3241278850800814,0.1759799833194328,0.6663035417039143,0.0090847255451955,0.6586345381526104,0.8811428571428571,0.8703885714285714,0.2119766008442198,0.000585831390254,0.5783122829976108,1.1566245659952217,0.0046264982639809,0.7912,0.0006500463098043,0.2457392252553653,-0.0061184203724002,0.0046264982639809,0.7450399999999999,9.987788942744658e-05,0.2708571428571428,0.4308571428571429,0.2514285714285714,0.40384,0.0046264982639809,0.0837684731740617,3.8131259857583144,0.0013971823220478,0.0103322603699116,0.7450399999999999,0.8028571428571428,0.8051428571428572,0.9274285714285714,0.8342857142857143,0.316,0.8822857142857143,0.484,0.7127199999999999,0.6951314285714286,0.7509600000000001,0.870724
2,S2,4,id01,2024-08-02,2024-08-01,0.4891944697669016,0.4522512987540221,-0.14834975976084572,True,0.14834975976084572,-0.0526398940767719,-0.2119282282297796,1.0,0.2119282282297796,0.3894912427022519,0.8527136004006268,0.0050648902646841,0.6586345381526104,0.8971428571428571,0.75144,0.0464011957855328,0.0005914429359463,0.5783122829976108,1.1566245659952217,0.0046264982639809,0.7912,0.0006500463098043,0.4491114281651112,-0.0031398705889109,0.0046264982639809,0.7450399999999999,1.9907214955150465e-05,0.1182857142857142,0.3662857142857142,0.0954285714285714,0.2961142857142857,0.0046264982639809,0.0837684731740617,3.8131259857583144,0.0013971823220478,0.0103322603699116,0.7450399999999999,0.6651428571428571,0.6697142857142857,0.888,0.8342857142857143,0.12457142857142857,0.8822857142857143,0.6291428571428571,0.6390571428571429,0.6418342857142857,0.7903085714285714,0.8375757142857143
2,S3,5,id01,2024-08-02,2024-08-01,0.8259044923772436,0.8949298069616637,0.5852415581259061,True,0.5852415581259061,0.0903824396296849,0.8360593687512934,1.0,0.8360593687512934,0.097581317764804,0.6158065342396226,0.0312737807018934,0.6586345381526104,0.9331428571428572,0.9529942857142856,0.5046894077711932,0.0006078282329399,0.5783122829976108,1.1566245659952217,0.0046264982639809,0.7912,0.0006500463098043,0.9238302262292608,0.028900419267597,0.0046264982639809,0.7450399999999999,0.0048610556734146,0.9708571428571428,0.3794285714285714,0.9525714285714286,0.8117257142857144,0.0046264982639809,0.0837684731740617,3.8131259857583144,0.0013971823220478,0.0103322603699116,0.7450399999999999,0.944,0.9445714285714286,0.9822857142857143,0.8342857142857143,0.8891428571428571,0.8822857142857143,0.43485714285714283,0.8826342857142857,0.8658857142857144,0.7451085714285715,0.9471854285714286
2,S4,6,id01,2024-08-02,2024-08-01,0.440030597638695,0.4013011799248306,-0.15900857057962323,True,0.15900857057962323,-0.0549865675153266,-0.2271551008280334,1.0,0.2271551008280334,0.3244370308590492,0.7917760266363264,0.005651222681831,0.6586345381526104,0.1245714285714285,0.4618171428571428,0.0671935720453779,0.0005551031739997,0.5783122829976108,1.1566245659952217,0.0046264982639809,0.7912,0.0006500463098043,0.3586667196346971,-0.0426344602901335,0.0046264982639809,0.7450399999999999,0.0038327463732997,0.9502857142857144,0.9142857142857144,0.8685714285714285,0.9150628571428572,0.0046264982639809,0.0837684731740617,3.8131259857583144,0.0013971823220478,0.0103322603699116,0.7450399999999999,0.6862857142857143,0.6902857142857143,0.25771428571428573,0.8342857142857143,0.9777142857142858,0.8822857142857143,0.5862857142857143,0.7242114285714286,0.7201428571428572,0.6631428571428573,0.8758951428571429
3,Q1,0,id01,2024-08-03,2024-08-02,0.6376420060192886,0.6577389160188123,0.08808986918242523,True,0.08808986918242523,0.0285444523164528,0.125842670260608,1.0,0.125842670260608,0.3794829024186822,0.8626305874986246,0.0016254704366526,0.7751004016064257,0.1742857142857143,0.4241028571428571,0.0839900908662346,0.0005570030128195,0.4615727169794092,0.9231454339588184,0.0036925817358352,0.24176,0.0002894301237866,0.6609753555557109,0.0032364395368985,0.0036925817358352,0.41736,2.3299945100085928e-05,0.1337142857142857,0.5097142857142857,0.112,0.2555428571428571,0.0036925817358352,0.0590330111023715,4.055617752819128,0.000640343203526,0.0157256688103951,0.41736,0.4714285714285714,0.47828571428571426,0.2622857142857143,0.2062857142857143,0.13714285714285715,0.35828571428571426,0.6451428571428571,0.29744571428571426,0.2544457142857143,0.3948,0.6838505714285714
3,Q2,1,id01,2024-08-03,2024-08-02,0.6162514356140033,0.6501384240276701,0.1459802241573634,True,0.1459802241573634,0.0479804826865353,0.2085431773676623,1.0,0.2085431773676623,0.4186822351959967,0.9383079076973226,0.0045147454771596,0.7751004016064257,0.7765714285714286,0.7175771428571429,0.060409939126868,0.0005725500293405,0.4615727169794092,0.9231454339588184,0.0036925817358352,0.24176,0.0002894301237866,0.6658137589259477,0.0156753348982776,0.0036925817358352,0.41736,0.0005439986487008,0.528,0.2611428571428571,0.476,0.4264,0.0036925817358352,0.0590330111023715,4.055617752819128,0.000640343203526,0.0157256688103951,0.41736,0.656,0.6605714285714286,0.8205714285714286,0.2062857142857143,0.43657142857142855,0.35828571428571426,0.676,0.5084514285714287,0.4800171428571429,0.5051657142857142,0.7788031428571429
3,Q3,2,id01,2024-08-03,2024-08-02,0.5574422325902662,0.5574422325902662,0.0,False,0.0,0.0036729438512812,0.0149012967650997,0.8148148148148148,0.0121417973641553,0.0,0.3997857639821722,-0.0,0.7751004016064257,0.1537142857142857,0.29744,0.0141952308281679,0.0005564318398469,0.4615727169794092,0.9231454339588184,0.0036925817358352,0.24176,0.0002894301237866,0.5786655131687602,0.021223280578494,0.0036925817358352,0.41736,0.0009162079882965,0.6485714285714286,0.8662857142857143,0.5702857142857143,0.6387200000000001,0.0036925817358352,0.0590330111023715,4.055617752819128,0.000640343203526,0.0157256688103951,0.41736,0.15742857142857142,0.061714285714285715,0.12742857142857142,0.2062857142857143,0.7234285714285714,0.35828571428571426,0.2822857142857143,0.2982285714285714,0.35949142857142863,0.2544114285714286,0.10437999999999999
3,S1,3,id01,2024-08-03,2024-08-02,0.8615693716719103,0.876117151296551,0.1277772104789392,True,0.1277772104789392,0.0203700109681839,0.1825388721127698,1.0,0.1825388721127698,0.2051709758131776,0.7133615425397752,0.0016587829863503,0.7751004016064257,0.4217142857142857,0.4579085714285714,0.2128090181828226,0.0005614549467288,0.4615727169794092,0.9231454339588184,0.0036925817358352,0.24176,0.0002894301237866,0.8847839126573273,0.0086667613607762,0.0036925817358352,0.41736,0.0003532144233739,0.4405714285714285,0.1857142857142857,0.544,0.3869257142857143,0.0036925817358352,0.0590330111023715,4.055617752819128,0.000640343203526,0.0157256688103951,0.41736,0.5977142857142858,0.6034285714285714,0.4382857142857143,0.2062857142857143,0.38342857142857145,0.35828571428571426,0.5291428571428571,0.40750285714285717,0.3592857142857143,0.38936,0.7333762857142858
3,S2,4,id01,2024-08-03,2024-08-02,0.5961769881403864,0.5522444759551001,-0.17981742918705743,True,0.17981742918705743,-0.0630558495252138,-0.2568820416957963,1.0,0.2568820416957963,0.6438698915763136,1.177332042065061,0.0074062131001764,0.7751004016064257,0.7268571428571429,0.6444571428571428,0.025254322799129,0.0005699872902927,0.4615727169794092,0.9231454339588184,0.0036925817358352,0.24176,0.0002894301237866,0.5728009808295799,0.0205565048744797,0.0036925817358352,0.41736,0.0008571998575084,0.6365714285714286,0.9942857142857144,0.5554285714285714,0.6616685714285714,0.0036925817358352,0.0590330111023715,4.055617752819128,0.000640343203526,0.0157256688103951,0.41736,0.7257142857142858,0.7297142857142858,0.7651428571428571,0.2062857142857143,0.7588571428571429,0.35828571428571426,0.8497142857142858,0.5964971428571428,0.56856,0.5507771428571429,0.8184237142857143
3,S3,5,id01,2024-08-03,2024-08-02,0.8345777914923951,0.8345777914923951,0.0,False,0.0,-0.0096670620464583,-0.0684457005179572,1.0,0.0684457005179572,0.0,0.4442683254458658,-0.0,0.7751004016064257,0.2702857142857143,0.2823314285714285,0.1835241846750095,0.0005595616389905,0.4615727169794092,0.9231454339588184,0.0036925817358352,0.24176,0.0002894301237866,0.845272407378059,0.0106946158856638,0.0036925817358352,0.41736,0.0004216380450813,0.4731428571428571,0.8788571428571429,0.5274285714285715,0.5629942857142858,0.0036925817358352,0.0590330111023715,4.055617752819128,0.000640343203526,0.0157256688103951,0.41736,0.15742857142857142,0.284,0.19885714285714284,0.2062857142857143,0.6234285714285714,0.35828571428571426,0.3,0.33787428571428574,0.35058857142857147,0.2729371428571429,0.118256
3,S4,6,id01,2024-08-03,2024-08-02,0.5754529674858175,0.5920179317962512,0.06817899615448686,True,0.06817899615448686,0.0236030217615212,0.0973985659349813,1.0,0.0973985659349813,0.5871559633027523,1.0522361812586238,0.0010434642440266,0.7751004016064257,0.6285714285714286,0.5714057142857143,0.0457517396074629,0.000565546144693,0.4615727169794092,0.9231454339588184,0.0036925817358352,0.24176,0.0002894301237866,0.6176238793759022,0.025605947579651,0.0036925817358352,0.41736,0.0013668435166215,0.7525714285714286,0.7377142857142858,0.6725714285714286,0.6699200000000001,0.0036925817358352,0.0590330111023715,4.055617752819128,0.000640343203526,0.0157256688103951,0.41736,0.3777142857142857,0.388,0.664,0.2062857142857143,0.7731428571428571,0.35828571428571426,0.7794285714285715,0.5028857142857143,0.5423542857142858,0.51008,0.7762985714285715
4,Q1,0,id01,2024-08-04,2024-08-03,0.5445439902464404,0.5445439902464404,0.0,False,0.0,-0.007608960940786,-0.0306398637581686,1.0,0.0306398637581686,0.0,0.3360453822149662,-0.0,0.6144578313253012,0.3771428571428571,0.42584,0.0208849700381882,0.0005611237998192,0.4561523053713622,0.9123046107427244,0.0036492184429709,0.3127999999999999,0.0004306559153328,0.5329886165540589,-0.0115553736923814,0.0036492184429709,0.33768,0.0002688421591418,0.3965714285714286,0.5354285714285715,0.3354285714285714,0.3885028571428572,0.0036492184429709,0.0546312543060917,4.168467968975633,0.0007381011075647,0.0102120601031999,0.33768,0.15742857142857142,0.14457142857142857,0.3902857142857143,0.2782857142857143,0.39371428571428574,0.21428571428571427,0.22,0.28626285714285715,0.3249257142857143,0.26379428571428576,0.100192
4,Q2,1,id01,2024-08-04,2024-08-03,0.5590440908799454,0.5395147550620563,-0.07889413342825963,True,0.07889413342825963,-0.0279399202684772,-0.1127059048975138,1.0,0.1127059048975138,0.609674728940784,1.0048396080110962,0.0014349193582632,0.6144578313253012,0.104,0.3067314285714285,0.0174551945880424,0.000554077089239,0.4561523053713622,0.9123046107427244,0.0036492184429709,0.3127999999999999,0.0004306559153328,0.5517921058326669,0.0122773507706106,0.0036492184429709,0.33768,0.0003037879022139,0.416,0.772,0.3554285714285714,0.4570514285714286,0.0036492184429709,0.0546312543060917,4.168467968975633,0.0007381011075647,0.0102120601031999,0.33768,0.43714285714285717,0.44,0.09942857142857142,0.2782857142857143,0.48914285714285716,0.21428571428571427,0.7542857142857143,0.3475657142857143,0.3163314285714286,0.38241142857142857,0.7064045714285715
4,Q3,2,id01,2024-08-04,2024-08-03,0.5388232923930961,0.5388232923930961,0.0,False,0.0,-0.0017107344861756,-0.0068826318135625,0.7037037037037037,0.0048433334984329,0.0,0.3128321174922675,-0.0,0.6144578313253012,0.1805714285714285,0.2673828571428571,0.0179815690094461,0.0005572197079428,0.4561523053713622,0.9123046107427244,0.0036492184429709,0.3127999999999999,0.0004306559153328,0.5559713990493333,0.0171481066562372,0.0036492184429709,0.33768,0.0005928595173962,0.5457142857142857,0.8594285714285714,0.4725714285714286,0.5533485714285714,0.0036492184429709,0.0546312543060917,4.168467968975633,0.0007381011075647,0.0102120601031999,0.33768,0.15742857142857142,0.02857142857142857,0.11828571428571429,0.2782857142857143,0.6257142857142857,0.21428571428571427,0.2062857142857143,0.26445714285714284,0.32092571428571426,0.21044571428571432,0.09255999999999999
4,S1,3,id01,2024-08-04,2024-08-03,0.7815781459655472,0.7815781459655472,0.0,False,0.0,-0.0110332085773855,-0.0634960658580534,0.9629629629629628,0.0611443597151625,0.0,0.3577720831869502,-0.0,0.6144578313253012,0.4971428571428571,0.3596914285714286,0.0880218428148989,0.0005625968568864,0.4561523053713622,0.9123046107427244,0.0036492184429709,0.3127999999999999,0.0004306559153328,0.756759531461629,-0.0248186145039182,0.0036492184429709,0.33768,0.0017577576505879,0.8097142857142857,0.7017142857142857,0.7782857142857142,0.68224,0.0036492184429709,0.0546312543060917,4.168467968975633,0.0007381011075647,0.0102120601031999,0.33768,0.15742857142857142,0.25314285714285717,0.41485714285714287,0.2782857142857143,0.808,0.21428571428571427,0.23085714285714284,0.4104,0.44782857142857146,0.2716914285714286,0.14364
4,S2,4,id01,2024-08-04,2024-08-03,0.625764953638369,0.6868186532777408,0.27119712213496316,True,0.27119712213496316,0.0854958278422119,0.3874244601928051,1.0,0.3874244601928051,0.3669724770642202,0.8426405007886204,0.0147902160672266,0.6144578313253012,0.876,0.8840228571428571,0.1741873642293343,0.0005847025646024,0.4561523053713622,0.9123046107427244,0.0036492184429709,0.3127999999999999,0.0004306559153328,0.7114328204547915,0.0246141671770506,0.0036492184429709,0.33768,0.0014295324119582,0.7645714285714286,0.0525714285714285,0.7051428571428572,0.4937600000000001,0.0036492184429709,0.0546312543060917,4.168467968975633,0.0007381011075647,0.0102120601031999,0.33768,0.8405714285714285,0.8422857142857143,0.9314285714285714,0.2782857142857143,0.5531428571428572,0.21428571428571427,0.6125714285714285,0.5934628571428572,0.5323314285714286,0.4868228571428571,0.8170582857142858
4,S3,5,id01,2024-08-04,2024-08-03,0.8287659956942706,0.8598191584284451,0.23688199664092036,True,0.23688199664092036,0.0428484869504255,0.338402852344172,1.0,0.338402852344172,0.1559633027522936,0.6270572841668024,0.0063720262449946,0.6144578313253012,0.3051428571428571,0.5353600000000001,0.2836790383996173,0.0005602992733419,0.4561523053713622,0.9123046107427244,0.0036492184429709,0.3127999999999999,0.0004306559153328,0.8730326812106183,0.0132135227821731,0.0036492184429709,0.33768,0.0007443171509106,0.5948571428571429,0.1285714285714285,0.6988571428571428,0.4428571428571429,0.0036492184429709,0.0546312543060917,4.168467968975633,0.0007381011075647,0.0102120601031999,0.33768,0.8171428571428572,0.8194285714285714,0.42742857142857144,0.2782857142857143,0.4765714285714286,0.21428571428571427,0.45885714285714285,0.47241714285714287,0.3741314285714286,0.34691428571428573,0.7625877142857144
4,S4,6,id01,2024-08-04,2024-08-03,0.6546516733261522,0.6844363334065584,0.13468542358206437,True,0.13468542358206437,0.0421169994654542,0.1924077479743781,1.0,0.1924077479743781,0.4078398665554629,0.8405118925668842,0.0036514910976019,0.6144578313253012,0.7725714285714286,0.7447314285714286,0.1117062435818888,0.0005724136472616,0.4561523053713622,0.9123046107427244,0.0036492184429709,0.3127999999999999,0.0004306559153328,0.6899112793917581,0.0054749459851997,0.0036492184429709,0.33768,6.961096074453721e-05,0.236,0.5388571428571428,0.2011428571428571,0.29824,0.0036492184429709,0.0546312543060917,4.168467968975633,0.0007381011075647,0.0102120601031999,0.33768,0.6251428571428571,0.6274285714285714,0.8302857142857143,0.2782857142857143,0.23714285714285716,0.21428571428571427,0.6274285714285714,0.45605142857142855,0.4196057142857143,0.47337142857142855,0.7552231428571429
5,Q1,0,id01,2024-08-06,2024-08-05,0.1503007231884336,0.1250884806363739,-0.21285704200966205,True,0.21285704200966205,-0.0348593388612841,-0.3040814885852316,0.9629629629629628,0.292819211230223,0.146788990825688,0.3560658926008849,0.0046677540250871,0.108433734939759,0.8662857142857143,0.8248114285714286,0.1612250507388754,0.0005820656136978,0.4544844020967715,0.9089688041935432,0.0036358752167741,0.15072,0.0001676046897072,0.095680257257873,-0.0294082233785008,0.0036358752167741,0.40752,0.0042538194182842,0.9622857142857144,0.8525714285714285,0.9422857142857144,0.8321142857142858,0.0036358752167741,0.0366734816421341,4.257519317113433,0.0009508239613693,0.0133119222140743,0.40752,0.7822857142857143,0.7754285714285715,0.9034285714285715,0.07828571428571429,0.9565714285714285,0.3382857142857143,0.224,0.6154742857142858,0.5796914285714286,0.33844,0.8269634285714287
5,Q2,1,id01,2024-08-06,2024-08-05,0.5429948329009698,0.5429948329009698,0.0,False,0.0,-0.0032159919052245,-0.0129527590923688,1.0,0.0129527590923688,0.0,0.0675959412263117,-0.0,0.108433734939759,0.3365714285714286,0.3434,0.0081113210665791,0.0005606596485916,0.4544844020967715,0.9089688041935432,0.0036358752167741,0.15072,0.0001676046897072,0.5372878438689619,-0.0057069890320079,0.0036358752167741,0.40752,6.558290653091436e-05,0.2302857142857143,0.1051428571428571,0.1794285714285714,0.20736,0.0036358752167741,0.0366734816421341,4.257519317113433,0.0009508239613693,0.0133119222140743,0.40752,0.15742857142857142,0.06742857142857143,0.3028571428571429,0.07828571428571429,0.07542857142857143,0.3382857142857143,0.026857142857142857,0.1390914285714286,0.16902857142857142,0.16725142857142858,0.048682
5,Q3,2,id01,2024-08-06,2024-08-05,0.5251374051887717,0.5251374051887717,0.0,False,0.0,-0.0058832282672171,-0.023579653631047,0.8888888888888888,0.0209596921164862,0.0,0.0749144089221379,-0.0,0.108433734939759,0.5234285714285715,0.4012571428571428,0.0176289972942788,0.0005630383270136,0.4544844020967715,0.9089688041935432,0.0036358752167741,0.15072,0.0001676046897072,0.5385285386764473,0.0133911334876756,0.0036358752167741,0.40752,0.0003599209582419,0.4451428571428571,0.8988571428571429,0.3828571428571428,0.5244800000000001,0.0036358752167741,0.0366734816421341,4.257519317113433,0.0009508239613693,0.0133119222140743,0.40752,0.15742857142857142,0.104,0.46514285714285714,0.07828571428571429,0.5708571428571428,0.3382857142857143,0.029142857142857144,0.2904114285714286,0.34848,0.1971942857142857,0.101644
5,S1,3,id01,2024-08-06,2024-08-05,0.4667057241342565,0.452157785185675,-0.058581649011197834,True,0.058581649011197834,-0.020759291666186,-0.0836880700159965,1.0,0.0836880700159965,0.5479566305254379,0.6700980262972042,0.0007896548064899,0.108433734939759,0.2908571428571428,0.38824,0.0250900180127696,0.0005600222750228,0.4544844020967715,0.9089688041935432,0.0036358752167741,0.15072,0.0001676046897072,0.4503968244545821,-0.0017609607310928,0.0036358752167741,0.40752,6.260704990324051e-06,0.0628571428571428,0.2851428571428571,0.052,0.1581028571428571,0.0036358752167741,0.0366734816421341,4.257519317113433,0.0009508239613693,0.0133119222140743,0.40752,0.3365714285714286,0.34,0.30742857142857144,0.07828571428571429,0.032,0.3382857142857143,0.5691428571428572,0.2170057142857143,0.1959714285714286,0.3416057142857143,0.6476525714285715
5,S2,4,id01,2024-08-06,2024-08-05,0.5497473648760006,0.5497473648760006,0.0,False,0.0,-0.0031472794329134,-0.012707119303821,0.925925925925926,0.0117658512072417,0.0,0.0659950264178498,-0.0,0.108433734939759,0.5337142857142857,0.4091657142857143,0.0637782820336168,0.0005632256608045,0.4544844020967715,0.9089688041935432,0.0036358752167741,0.15072,0.0001676046897072,0.5490457254508635,-0.0007016394251371,0.0036358752167741,0.40752,9.943467822459695e-07,0.0222857142857142,0.4194285714285714,0.0194285714285714,0.1675885714285714,0.0036358752167741,0.0366734816421341,4.257519317113433,0.0009508239613693,0.0133119222140743,0.40752,0.15742857142857142,0.05942857142857143,0.4817142857142857,0.07828571428571429,0.03485714285714286,0.3382857142857143,0.025142857142857144,0.16010857142857143,0.20226285714285716,0.19889714285714288,0.056038
5,S3,5,id01,2024-08-06,2024-08-05,0.789998902831536,0.789998902831536,0.0,False,0.0,-0.0040758147830615,-0.0243952181331805,0.925925925925926,0.0225881649381301,0.0,0.0766296747883472,-0.0,0.108433734939759,0.648,0.4468914285714286,0.2159207515539691,0.000565998088297,0.4544844020967715,0.9089688041935432,0.0036358752167741,0.15072,0.0001676046897072,0.7675978327980649,-0.022401070033471,0.0036358752167741,0.40752,0.0014750679300499,0.7685714285714286,0.7148571428571429,0.7525714285714286,0.6836342857142857,0.0036358752167741,0.0366734816421341,4.257519317113433,0.0009508239613693,0.0133119222140743,0.40752,0.15742857142857142,0.11257142857142857,0.5834285714285714,0.07828571428571429,0.7977142857142857,0.3382857142857143,0.030285714285714287,0.3658228571428571,0.44165142857142864,0.21885142857142859,0.12803799999999999
5,S4,6,id01,2024-08-06,2024-08-05,0.5141459516241352,0.539318589457077,0.10100083977461867,True,0.10100083977461867,0.0359072923324095,0.1442869139637413,0.9629629629629628,0.1389429541873064,0.6205170975813178,0.7751341937533128,0.0023542934137948,0.108433734939759,0.304,0.5069142857142857,0.0835032167752901,0.0005602442461665,0.4544844020967715,0.9089688041935432,0.0036358752167741,0.15072,0.0001676046897072,0.5236374407238362,-0.0156811487332407,0.0036358752167741,0.40752,0.0004941214647056,0.5114285714285715,0.9005714285714286,0.4382857142857143,0.5624914285714286,0.0036358752167741,0.0366734816421341,4.257519317113433,0.0009508239613693,0.0133119222140743,0.40752,0.516,0.5022857142857143,0.4057142857142857,0.07828571428571429,0.6222857142857143,0.3382857142857143,0.6348571428571429,0.4094514285714286,0.3904228571428572,0.3803257142857143,0.7342531428571429
6,Q1,0,id01,2024-08-07,2024-08-06,0.5712427809308589,0.5712427809308589,0.0,False,0.0,-0.0063125356768136,-0.0257275791645523,0.8888888888888888,0.0228689592573798,0.0,0.314034870183995,-0.0,0.5823293172690763,0.2457142857142857,0.4018285714285714,0.0535620370120574,0.0005590818224638,0.4871231325755249,0.9742462651510498,0.0038969850606042,0.438,0.0004088510989909,0.5823357649098182,0.0110929839789593,0.0038969850606042,0.4859999999999999,0.000251771994687,0.3817142857142857,0.7748571428571429,0.3251428571428571,0.4802057142857143,0.0038969850606042,0.0559469058043832,4.212370409559213,0.0007330590696927,0.0117366425869725,0.4859999999999999,0.15742857142857142,0.11485714285714285,0.2925714285714286,0.4582857142857143,0.4845714285714286,0.4742857142857143,0.2022857142857143,0.3477485714285714,0.4086971428571429,0.3505371428571429,0.12171199999999999
6,Q2,1,id01,2024-08-07,2024-08-06,0.5953821937104642,0.5953821937104642,0.0,False,0.0,0.0147251994356223,0.0615030535234162,0.9629629629629628,0.0592251626521786,0.0,0.3404499645236176,-0.0,0.5823293172690763,0.4611428571428571,0.5788571428571427,0.0560611243607963,0.0005620409140743,0.4871231325755249,0.9742462651510498,0.0038969850606042,0.438,0.0004088510989909,0.598761844419557,0.0033796507090928,0.0038969850606042,0.4859999999999999,2.372815775664172e-05,0.1354285714285714,0.7057142857142857,0.1091428571428571,0.3218971428571428,0.0038969850606042,0.0559469058043832,4.212370409559213,0.0007330590696927,0.0117366425869725,0.4859999999999999,0.15742857142857142,0.24685714285714286,0.5651428571428572,0.4582857142857143,0.22857142857142856,0.4742857142857143,0.21428571428571427,0.36757142857142855,0.406,0.40344,0.12865
6,Q3,2,id01,2024-08-07,2024-08-06,0.6009519918372921,0.6207118969909945,0.08313763772522104,True,0.08313763772522104,0.0281115215412024,0.1187680538931732,1.0,0.1187680538931732,0.5287739783152627,0.91176253632087,0.0015132061728484,0.5823293172690763,0.0262857142857142,0.3527085714285715,0.0812745437784265,0.0005460396623427,0.4871231325755249,0.9742462651510498,0.0038969850606042,0.438,0.0004088510989909,0.6259416411474428,0.0052297441564482,0.0038969850606042,0.4859999999999999,5.8191265641438505e-05,0.2165714285714285,0.5274285714285715,0.1748571428571428,0.3247085714285714,0.0038969850606042,0.0559469058043832,4.212370409559213,0.0007330590696927,0.0117366425869725,0.4859999999999999,0.4554285714285714,0.4594285714285714,0.08342857142857144,0.4582857142857143,0.23942857142857144,0.4742857142857143,0.6937142857142857,0.35409714285714283,0.3221714285714286,0.47014857142857136,0.7093437142857143
6,S1,3,id01,2024-08-07,2024-08-06,0.7886821487526844,0.7886821487526844,0.0,False,0.0,0.0026352675844197,0.015884830709808,0.7777777777777778,0.0123548683298507,0.0,0.3038576260444867,-0.0,0.5823293172690763,0.3514285714285714,0.3736914285714285,0.1165853465402271,0.0005608096239597,0.4871231325755249,0.9742462651510498,0.0038969850606042,0.438,0.0004088510989909,0.7939676627884658,0.0052855140357813,0.0038969850606042,0.4859999999999999,8.433068694013723e-05,0.2554285714285714,0.5662857142857143,0.2451428571428571,0.3636342857142857,0.0038969850606042,0.0559469058043832,4.212370409559213,0.0007330590696927,0.0117366425869725,0.4859999999999999,0.15742857142857142,0.064,0.34114285714285714,0.4582857142857143,0.30742857142857144,0.4742857142857143,0.19885714285714284,0.30438857142857145,0.37100000000000005,0.35818285714285714,0.106536
6,S2,4,id01,2024-08-07,2024-08-06,0.612538354070244,0.5542707137333157,-0.2400532596235247,True,0.2400532596235247,-0.0838046814227732,-0.3429332280336064,1.0,0.3429332280336064,0.7714762301918265,1.227306411982454,0.0131706790267208,0.5823293172690763,0.8714285714285714,0.7921485714285714,0.0565874796939935,0.000583852618845,0.4871231325755249,0.9742462651510498,0.0038969850606042,0.438,0.0004088510989909,0.5133517509878861,-0.0409189627454296,0.0038969850606042,0.4859999999999999,0.0033722762532066,0.9331428571428572,0.7182857142857143,0.8354285714285714,0.7892571428571429,0.0038969850606042,0.0559469058043832,4.212370409559213,0.0007330590696927,0.0117366425869725,0.4859999999999999,0.8211428571428572,0.8234285714285714,0.8942857142857142,0.4582857142857143,0.904,0.4742857142857143,0.8754285714285714,0.7420685714285715,0.7236857142857143,0.6742514285714285,0.8839308571428572
6,S3,5,id01,2024-08-07,2024-08-06,0.8503035903764421,0.8503035903764421,0.0,False,0.0,0.0036719426613659,0.0291442104012173,0.8148148148148148,0.0237471344009919,0.0,0.3149496786459733,-0.0,0.5823293172690763,0.3765714285714285,0.3735771428571429,0.2028013151971504,0.0005611156890159,0.4871231325755249,0.9742462651510498,0.0038969850606042,0.438,0.0004088510989909,0.8607547271299738,0.0104511367535317,0.0038969850606042,0.4859999999999999,0.0004375917490832,0.4811428571428571,0.4794285714285714,0.5588571428571428,0.4958171428571428,0.0038969850606042,0.0559469058043832,4.212370409559213,0.0007330590696927,0.0117366425869725,0.4859999999999999,0.15742857142857142,0.11942857142857143,0.35428571428571426,0.4582857142857143,0.5194285714285715,0.4742857142857143,0.20285714285714285,0.3679085714285714,0.43392571428571425,0.3618285714285715,0.128768
6,S4,6,id01,2024-08-07,2024-08-06,0.6126138047207095,0.6328214697458728,0.08602754308876848,True,0.08602754308876848,0.0287317686858615,0.1228964901268118,1.0,0.1228964901268118,0.5237698081734778,0.9084736320452944,0.0015994561248156,0.5823293172690763,0.7537142857142857,0.5946742857142857,0.0214924013012933,0.0005712066040438,0.4871231325755249,0.9742462651510498,0.0038969850606042,0.438,0.0004088510989909,0.6532292437930123,0.0204077740471394,0.0038969850606042,0.4859999999999999,0.0009035233805336,0.6457142857142857,0.5765714285714286,0.5811428571428572,0.5894171428571429,0.0038969850606042,0.0559469058043832,4.212370409559213,0.0007330590696927,0.0117366425869725,0.4859999999999999,0.4657142857142857,0.468,0.7417142857142857,0.4582857142857143,0.6474285714285715,0.4742857142857143,0.6897142857142857,0.5681142857142858,0.6007028571428572,0.58736,0.8056514285714287
7,Q1,0,id01,2024-08-09,2024-08-08,0.0956109107947407,0.1466324541766752,0.4857115363012765,True,0.4857115363012765,0.0790282002656745,0.6938736232875387,1.0,0.6938736232875387,0.9924937447873228,1.4777397028907484,0.026754895489015,0.5983935742971888,0.852,0.4892114285714286,0.0134024968913818,0.0005801969162215,0.4727267693492457,0.9454535386984916,0.0037818141547939,0.61472,0.0013977891205142,0.1795660560011507,0.0329336018244755,0.0037818141547939,0.40728,0.0040928262806227,0.9571428571428572,0.2902857142857142,0.9245714285714286,0.6902857142857143,0.0037818141547939,0.0470941323725041,4.291481976133343,0.0011614994895216,0.0075282940407232,0.40728,0.9297142857142857,0.9302857142857143,0.7262857142857143,0.6222857142857143,0.8097142857142857,0.3342857142857143,0.98,0.7409600000000002,0.6826057142857144,0.6834742857142858,0.8834320000000001
7,Q2,1,id01,2024-08-09,2024-08-08,0.5470612653540049,0.5470612653540049,0.0,False,0.0,-0.0174293005227357,-0.0701370083679761,1.0,0.0701370083679761,0.0,0.3572871244842147,-0.0,0.5983935742971888,0.164,0.2680628571428571,0.0068414865615907,0.0005567354955294,0.4727267693492457,0.9454535386984916,0.0037818141547939,0.61472,0.0013977891205142,0.5583267511240507,0.0112654857700458,0.0037818141547939,0.40728,0.0002564791176691,0.3862857142857143,0.9291428571428572,0.3257142857142857,0.4954971428571428,0.0037818141547939,0.0470941323725041,4.291481976133343,0.0011614994895216,0.0075282940407232,0.40728,0.15742857142857142,0.29085714285714287,0.11028571428571429,0.6222857142857143,0.5257142857142857,0.3342857142857143,0.22457142857142856,0.3863142857142857,0.3962057142857143,0.3308571428571429,0.13521
7,Q3,2,id01,2024-08-09,2024-08-08,0.5780399045937697,0.4917108437508116,-0.3478918195543518,True,0.3478918195543518,-0.123478235221373,-0.4969883136490736,1.0,0.4969883136490736,0.8023352793994996,1.2800340676916044,0.0280014556838232,0.5983935742971888,0.012,0.5337257142857144,0.1806803914260357,0.0005423546661378,0.4727267693492457,0.9454535386984916,0.0037818141547939,0.61472,0.0013977891205142,0.4697341744771669,-0.0219766692736446,0.0037818141547939,0.40728,0.0009669953556796,0.6645714285714286,0.6828571428571428,0.5765714285714286,0.5978742857142857,0.0037818141547939,0.0470941323725041,4.291481976133343,0.0011614994895216,0.0075282940407232,0.40728,0.8897142857142857,0.8925714285714286,0.2342857142857143,0.6222857142857143,0.6782857142857143,0.3342857142857143,0.8982857142857142,0.6097885714285715,0.5170857142857144,0.5687657142857143,0.8244048571428573
7,S1,3,id01,2024-08-09,2024-08-08,0.3813671038213733,0.3813671038213733,0.0,False,0.0,-0.0031519581102107,-0.0133813382779393,0.8518518518518519,0.0113989177923186,0.0,0.3106318929233227,-0.0,0.5983935742971888,0.2725714285714286,0.3421371428571428,0.0401009243681477,0.0005596255432982,0.4727267693492457,0.9454535386984916,0.0037818141547939,0.61472,0.0013977891205142,0.3839240792640274,0.002556975442654,0.0037818141547939,0.40728,1.3844489233472146e-05,0.0868571428571428,0.0697142857142857,0.0805714285714285,0.1204342857142857,0.0037818141547939,0.0470941323725041,4.291481976133343,0.0011614994895216,0.0075282940407232,0.40728,0.15742857142857142,0.05771428571428571,0.26,0.6222857142857143,0.013714285714285714,0.3342857142857143,0.204,0.24318285714285715,0.28883428571428577,0.35122285714285717,0.085114
7,S2,4,id01,2024-08-09,2024-08-08,0.5157607924549928,0.5701058542186728,0.21921898457031264,True,0.21921898457031264,0.0772036866584283,0.3131699779575896,0.9629629629629628,0.3015710898850863,0.6713928273561302,1.127250563618504,0.0109490616882312,0.5983935742971888,0.0897142857142857,0.5397714285714286,0.1597404145629269,0.0005533717514234,0.4727267693492457,0.9454535386984916,0.0037818141547939,0.61472,0.0013977891205142,0.5927329487402715,0.0226270945215987,0.0037818141547939,0.40728,0.0010494111519224,0.684,0.2445714285714285,0.6011428571428571,0.5053714285714286,0.0037818141547939,0.0470941323725041,4.291481976133343,0.0011614994895216,0.0075282940407232,0.40728,0.7902857142857143,0.7834285714285715,0.2977142857142857,0.6222857142857143,0.5497142857142857,0.3342857142857143,0.8171428571428572,0.5635657142857143,0.4912628571428572,0.5542171428571429,0.8036045714285716
7,S3,5,id01,2024-08-09,2024-08-08,0.735270022149455,0.7965533146411341,0.3433626272822208,True,0.3433626272822208,0.084094128803245,0.4905180389746006,1.0,0.4905180389746006,0.1651376146788991,0.6421502966245203,0.0180326547263136,0.5983935742971888,0.624,0.7846971428571429,0.3761706241445273,0.0005654249185819,0.4727267693492457,0.9454535386984916,0.0037818141547939,0.61472,0.0013977891205142,0.8174893841710013,0.0209360695298671,0.0037818141547939,0.40728,0.0013889675114369,0.7571428571428571,0.2668571428571428,0.764,0.5725485714285714,0.0037818141547939,0.0470941323725041,4.291481976133343,0.0011614994895216,0.0075282940407232,0.40728,0.8862857142857142,0.8891428571428571,0.7971428571428572,0.6222857142857143,0.6491428571428571,0.3342857142857143,0.4634285714285714,0.6819028571428573,0.6192000000000001,0.5309257142857142,0.8568562857142858
7,S4,6,id01,2024-08-09,2024-08-08,0.4499719353468342,0.433144784944163,-0.06824778141564244,True,0.06824778141564244,-0.0239941548944387,-0.0974968305937749,1.0,0.0974968305937749,0.5187656380316931,0.8957211444484408,0.0010625764694516,0.5983935742971888,0.5497142857142857,0.5088228571428571,0.0266667122853234,0.0005636621111087,0.4727267693492457,0.9454535386984916,0.0037818141547939,0.61472,0.0013977891205142,0.4198294230345096,-0.0133153619096533,0.0037818141547939,0.40728,0.0003619725200867,0.4474285714285714,0.0662857142857142,0.3868571428571428,0.3250971428571428,0.0037818141547939,0.0470941323725041,4.291481976133343,0.0011614994895216,0.0075282940407232,0.40728,0.37885714285714284,0.3891428571428571,0.5662857142857143,0.6222857142857143,0.26857142857142857,0.3342857142857143,0.6851428571428572,0.45390285714285716,0.4704457142857143,0.5603199999999999,0.7542562857142858
8,Q1,0,id01,2024-08-10,2024-08-09,0.4871969586270964,0.4871969586270964,0.0,False,0.0,0.0108453356385813,0.0433924997279604,1.0,0.0433924997279604,0.0,0.2108840163398017,-0.0,0.3453815261044177,0.1994285714285714,0.24656,0.0272647164214926,0.0005579306564092,0.4690943560305585,0.9381887120611172,0.0037527548482444,0.22984,0.0002094500408142,0.4885582388460777,0.0013612802189812,0.0037527548482444,0.3382399999999999,3.708431413507185e-06,0.0411428571428571,0.5022857142857143,0.036,0.1791314285714285,0.0037527548482444,0.0416529396691964,4.347652842965614,0.000408839555799,0.0128128908991902,0.3382399999999999,0.15742857142857142,0.19142857142857142,0.11314285714285714,0.1982857142857143,0.053142857142857144,0.21828571428571428,0.12742857142857142,0.1465257142857143,0.13440000000000002,0.16528571428571429,0.051283999999999996
8,Q2,1,id01,2024-08-10,2024-08-09,0.5298229073435359,0.5298229073435359,0.0,False,0.0,0.0074275287241721,0.0298449410744523,0.9629629629629628,0.0287395728865096,0.0,0.2000206658538097,-0.0,0.3453815261044177,0.3994285714285714,0.4133142857142857,0.0128750961162554,0.0005612895052869,0.4690943560305585,0.9381887120611172,0.0037527548482444,0.22984,0.0002094500408142,0.5173079126197249,-0.012514994723811,0.0037527548482444,0.3382399999999999,0.0003140878883174,0.4217142857142857,0.8354285714285714,0.3594285714285714,0.476,0.0037527548482444,0.0416529396691964,4.347652842965614,0.000408839555799,0.0128128908991902,0.3382399999999999,0.15742857142857142,0.13714285714285715,0.3965714285714286,0.1982857142857143,0.5188571428571429,0.21828571428571428,0.12342857142857143,0.29251428571428567,0.3353771428571429,0.21502285714285713,0.10237999999999998
8,Q3,2,id01,2024-08-10,2024-08-09,0.5265629473409531,0.5265629473409531,0.0,False,0.0,0.014993332662493,0.0602575392302208,0.9629629629629628,0.0580257785179904,0.0,0.2215186647102991,-0.0,0.3453815261044177,0.0748571428571428,0.3556228571428572,0.0265621845263847,0.0005524941556048,0.4690943560305585,0.9381887120611172,0.0037527548482444,0.22984,0.0002094500408142,0.5297588091324581,0.0031958617915049,0.0037527548482444,0.3382399999999999,2.0489672919454804e-05,0.1211428571428571,0.68,0.0971428571428571,0.2660114285714285,0.0037527548482444,0.0416529396691964,4.347652842965614,0.000408839555799,0.0128128908991902,0.3382399999999999,0.15742857142857142,0.24457142857142858,0.12,0.1982857142857143,0.172,0.21828571428571428,0.12971428571428573,0.18690285714285712,0.16955428571428574,0.16725142857142858,0.06541599999999999
8,S1,3,id01,2024-08-10,2024-08-09,0.7833614458734801,0.7833614458734801,0.0,False,0.0,-0.0048859551297949,-0.0285596170796924,0.925925925925926,0.0264440898886041,0.0,0.1984197510453478,-0.0,0.3453815261044177,0.4028571428571428,0.3408457142857142,0.0980250097041343,0.000561316651001,0.4690943560305585,0.9381887120611172,0.0037527548482444,0.22984,0.0002094500408142,0.7661379447013621,-0.017223501172118,0.0037527548482444,0.3382399999999999,0.0008579544289215,0.6371428571428571,0.6308571428571429,0.6302857142857143,0.5672457142857144,0.0037527548482444,0.0416529396691964,4.347652842965614,0.000408839555799,0.0128128908991902,0.3382399999999999,0.15742857142857142,0.12914285714285714,0.348,0.1982857142857143,0.6508571428571429,0.21828571428571428,0.12171428571428572,0.31228571428571433,0.3600742857142858,0.20573142857142857,0.10930000000000001
8,S2,4,id01,2024-08-10,2024-08-09,0.571821952388274,0.571821952388274,0.0,False,0.0,-0.0045543144135493,-0.018576781039916,1.0,0.018576781039916,0.0,0.1909869322917743,-0.0,0.3453815261044177,0.5508571428571428,0.4175314285714286,0.0296608281948318,0.000563703057154,0.4690943560305585,0.9381887120611172,0.0037527548482444,0.22984,0.0002094500408142,0.5752560540790768,0.0034341016908027,0.0037527548482444,0.3382399999999999,2.409941136749527e-05,0.1365714285714285,0.4782857142857142,0.1085714285714285,0.2260571428571428,0.0037527548482444,0.0416529396691964,4.347652842965614,0.000408839555799,0.0128128908991902,0.3382399999999999,0.15742857142857142,0.092,0.4982857142857143,0.1982857142857143,0.11428571428571428,0.21828571428571428,0.11714285714285715,0.20752571428571429,0.24708571428571433,0.23132,0.07263399999999999
8,S3,5,id01,2024-08-10,2024-08-09,0.8560330819755341,0.8319663663360969,-0.18309763014011793,True,0.18309763014011793,-0.035324225356193,-0.2615680430573115,0.9629629629629628,0.2518803377588925,0.9291075896580484,1.2463380897028244,0.0043107758227576,0.3453815261044177,0.6542857142857142,0.4284114285714285,0.0880683269176687,0.0005663963254928,0.4690943560305585,0.9381887120611172,0.0037527548482444,0.22984,0.0002094500408142,0.8103827749652867,-0.0215835913708102,0.0037527548482444,0.3382399999999999,0.0016127982328464,0.7914285714285715,0.716,0.7965714285714286,0.6826514285714287,0.0037527548482444,0.0416529396691964,4.347652842965614,0.000408839555799,0.0128128908991902,0.3382399999999999,0.7308571428571429,0.7228571428571429,0.5702857142857143,0.1982857142857143,0.8091428571428572,0.21828571428571428,0.9097142857142857,0.55872,0.5151257142857143,0.4979028571428571,0.801424
8,S4,6,id01,2024-08-10,2024-08-09,0.6526012611850679,0.6856607309200997,0.1494169733911801,True,0.1494169733911801,0.0466943581868316,0.2134528191302571,1.0,0.2134528191302571,0.3628023352793995,0.6700842933001617,0.0044862888983511,0.3453815261044177,0.8342857142857143,0.7917142857142857,0.1330860282923641,0.0005777590499282,0.4690943560305585,0.9381887120611172,0.0037527548482444,0.22984,0.0002094500408142,0.6821375101851865,-0.0035232207349131,0.0037527548482444,0.3382399999999999,2.8738824807472696e-05,0.16,0.7508571428571429,0.1348571428571428,0.3061028571428571,0.0037527548482444,0.0416529396691964,4.347652842965614,0.000408839555799,0.0128128908991902,0.3382399999999999,0.668,0.6731428571428572,0.8828571428571429,0.1982857142857143,0.24571428571428572,0.21828571428571428,0.5274285714285715,0.45534285714285716,0.40874857142857146,0.4318342857142857,0.7549042857142858
9,Q1,0,id01,2024-08-12,2024-08-11,0.1474992541446052,0.1092143052792624,-0.3444408559443204,True,0.3444408559443204,-0.0518396151424885,-0.492058365634743,1.0,0.492058365634743,0.1000834028356964,0.689660235035852,0.0109807043435666,0.8232931726907631,0.8531428571428571,0.8733714285714286,0.3497730683428575,0.0005802774747436,0.4571563628783008,0.9143127257566016,0.0036572509030264,0.40984,0.0005181069923134,0.1302798097428011,0.0210655044635387,0.0036572509030264,0.54992,0.0021633345984534,0.848,0.9862857142857144,0.8948571428571429,0.8486857142857143,0.0036572509030264,0.0640808791501618,4.019299025571035,0.0012554156342796,0.017190795900503,0.54992,0.8868571428571429,0.8897142857142857,0.9188571428571428,0.36628571428571427,0.9491428571428572,0.5862857142857143,0.47885714285714287,0.7425885714285715,0.7085085714285715,0.5567714285714286,0.8841648571428572
9,Q2,1,id01,2024-08-12,2024-08-11,0.6502796130241703,0.6502796130241703,0.0,False,0.0,-0.009780859981381,-0.0427389746896024,1.0,0.0427389746896024,0.0,0.4493824354019853,-0.0,0.8232931726907631,0.2565714285714285,0.25824,0.0525792020490528,0.0005593550348183,0.4571563628783008,0.9143127257566016,0.0036572509030264,0.40984,0.0005181069923134,0.6180051440127775,-0.0322744690113927,0.0036572509030264,0.54992,0.0022599472390121,0.8548571428571429,0.8971428571428571,0.7754285714285715,0.8061485714285714,0.0036572509030264,0.0640808791501618,4.019299025571035,0.0012554156342796,0.017190795900503,0.54992,0.15742857142857142,0.18914285714285714,0.16742857142857143,0.36628571428571427,0.9108571428571428,0.5862857142857143,0.31314285714285717,0.4361142857142857,0.49833142857142854,0.3684857142857143,0.15263999999999997
9,Q3,2,id01,2024-08-12,2024-08-11,0.6261245092438028,0.6597490444502253,0.14654965881982362,True,0.14654965881982362,0.0475788693758867,0.2093566554568909,1.0,0.2093566554568909,0.3878231859883236,0.9320026482628077,0.0044916206153355,0.8232931726907631,0.1497142857142857,0.4380342857142857,0.0515763661368976,0.0005562029389922,0.4571563628783008,0.9143127257566016,0.0036572509030264,0.40984,0.0005181069923134,0.7003028203945337,0.0405537759443084,0.0036572509030264,0.54992,0.0037405500617787,0.9485714285714286,0.9462857142857144,0.8748571428571429,0.8753142857142857,0.0036572509030264,0.0640808791501618,4.019299025571035,0.0012554156342796,0.017190795900503,0.54992,0.6594285714285715,0.6628571428571428,0.2542857142857143,0.36628571428571427,0.9708571428571429,0.5862857142857143,0.6708571428571428,0.5876514285714285,0.5618857142857143,0.49858857142857144,0.8144431428571428
9,S1,3,id01,2024-08-12,2024-08-11,0.3424435747342945,0.3424435747342945,0.0,False,0.0,-0.006771372594245,-0.0302169248034148,0.8888888888888888,0.0268594887141465,0.0,0.4378329785695096,-0.0,0.8232931726907631,0.3422857142857143,0.4573371428571429,0.0620419913769824,0.0005606922498737,0.4571563628783008,0.9143127257566016,0.0036572509030264,0.40984,0.0005181069923134,0.3294317801079361,-0.0130117946263583,0.0036572509030264,0.54992,0.0003782943100716,0.4531428571428571,0.236,0.4108571428571428,0.4138742857142857,0.0036572509030264,0.0640808791501618,4.019299025571035,0.0012554156342796,0.017190795900503,0.54992,0.15742857142857142,0.13142857142857142,0.3931428571428571,0.36628571428571427,0.38742857142857146,0.5862857142857143,0.308,0.3434,0.40784000000000004,0.4074685714285714,0.12018999999999999
9,S2,4,id01,2024-08-12,2024-08-11,0.5425302243733988,0.5962785506935936,0.2194497879103597,True,0.2194497879103597,0.0761694547898653,0.3134996970147999,1.0,0.3134996970147999,0.5537948290241869,1.1243893856382934,0.0107878532878419,0.8232931726907631,0.5285714285714286,0.71544,0.1382644341553039,0.0005631547519612,0.4571563628783008,0.9143127257566016,0.0036572509030264,0.40984,0.0005181069923134,0.60176022601838,0.0054816753247863,0.0036572509030264,0.54992,6.250436745147692e-05,0.2251428571428571,0.6817142857142857,0.1782857142857143,0.3831314285714285,0.0036572509030264,0.0640808791501618,4.019299025571035,0.0012554156342796,0.017190795900503,0.54992,0.792,0.7948571428571428,0.6988571428571428,0.36628571428571427,0.32857142857142857,0.5862857142857143,0.792,0.5550457142857143,0.5016685714285715,0.6173771428571428,0.7997705714285714
9,S3,5,id01,2024-08-12,2024-08-11,0.8062509718029807,0.8487076691316686,0.2986694510168926,True,0.2986694510168926,0.0581696347537452,0.4266706443098456,1.0,0.4266706443098456,0.1309424520433694,0.7157165398181393,0.0108263068077237,0.8232931726907631,0.7674285714285715,0.73872,0.3639230192189742,0.0005720728742791,0.4571563628783008,0.9143127257566016,0.0036572509030264,0.40984,0.0005181069923134,0.8554791009191468,0.0067714317874781,0.0036572509030264,0.54992,0.0001807896147535,0.34,0.5171428571428571,0.3817142857142857,0.4302628571428571,0.0036572509030264,0.0640808791501618,4.019299025571035,0.0012554156342796,0.017190795900503,0.54992,0.8645714285714285,0.8657142857142858,0.8251428571428572,0.36628571428571427,0.40914285714285714,0.5862857142857143,0.5051428571428571,0.5975542857142857,0.53572,0.5483142857142858,0.8188994285714286
9,S4,6,id01,2024-08-12,2024-08-11,0.5164102198555515,0.4972880481774325,-0.07651237737699912,True,0.07651237737699912,-0.0273182219862164,-0.1093033962528554,0.9629629629629628,0.1052551223175644,0.5863219349457881,1.0816734955621816,0.0013587685134691,0.8232931726907631,0.6468571428571429,0.5409142857142857,0.0189860794113948,0.0005659754922467,0.4571563628783008,0.9143127257566016,0.0036572509030264,0.40984,0.0005181069923134,0.4984036630805096,0.0011156149030771,0.0036572509030264,0.54992,2.489248436599034e-06,0.0337142857142857,0.5628571428571428,0.0302857142857142,0.2484342857142857,0.0036572509030264,0.0640808791501618,4.019299025571035,0.0012554156342796,0.017190795900503,0.54992,0.4268571428571429,0.4188571428571429,0.6514285714285715,0.36628571428571427,0.092,0.5862857142857143,0.7931428571428571,0.40943428571428575,0.4236514285714286,0.6092057142857144,0.7342454285714286
10,Q1,0,id01,2024-08-13,2024-08-12,0.0917044427526222,0.0767046561552894,-0.19498775086973952,True,0.19498775086973952,-0.0207126258759733,-0.278553929813913,1.0,0.278553929813913,0.1184320266889074,0.4901446059941214,0.0025368019005103,0.4417670682730923,0.7645714285714286,0.6985714285714285,0.2367908619255949,0.0005718425499832,0.481334883953699,0.962669767907398,0.0038506790716296,0.4844,0.0004988663040943,0.0834620630365506,0.0067574068812612,0.0038506790716296,0.49424,0.0003140654103029,0.4211428571428571,0.4742857142857143,0.5954285714285714,0.4810971428571429,0.0038506790716296,0.0649887068760415,3.877707366532701,0.0008581994936145,0.011470546930907,0.49424,0.7508571428571429,0.7542857142857143,0.8114285714285714,0.5222857142857142,0.4942857142857143,0.4982857142857143,0.34,0.6074171428571429,0.5703714285714286,0.51,0.8233377142857143
10,Q2,1,id01,2024-08-13,2024-08-12,0.5479289535702448,0.5342018668120326,-0.05528483635056622,True,0.05528483635056622,-0.019627251440298,-0.0789783376436662,1.0,0.0789783376436662,0.6255212677231026,0.9106700963136224,0.0007059266946666,0.4417670682730923,0.1828571428571428,0.3252,0.0158755549468031,0.0005573302056061,0.481334883953699,0.962669767907398,0.0038506790716296,0.4844,0.0004988663040943,0.5394071755852398,0.0052053087732071,0.0038506790716296,0.49424,5.447220976595446e-05,0.2097142857142857,0.3897142857142857,0.1662857142857143,0.2904,0.0038506790716296,0.0649887068760415,3.877707366532701,0.0008581994936145,0.011470546930907,0.49424,0.31885714285714284,0.32171428571428573,0.17257142857142857,0.5222857142857142,0.17142857142857143,0.4982857142857143,0.7148571428571429,0.3417428571428571,0.3464971428571429,0.51496,0.7037842857142858
10,Q3,2,id01,2024-08-13,2024-08-12,0.6561743656712474,0.6561743656712474,0.0,False,0.0,0.0056708028752101,0.0252358693547941,0.9629629629629628,0.0243012075268388,0.0,0.245354660494465,-0.0,0.4417670682730923,0.2531428571428571,0.3518285714285714,0.0149351323609701,0.0005592573558704,0.481334883953699,0.962669767907398,0.0038506790716296,0.4844,0.0004988663040943,0.6559270239538441,-0.0002473417174033,0.0038506790716296,0.49424,1.3556815570137104e-07,0.0097142857142857,0.3045714285714285,0.0085714285714285,0.1584228571428571,0.0038506790716296,0.0649887068760415,3.877707366532701,0.0008581994936145,0.011470546930907,0.49424,0.15742857142857142,0.12285714285714286,0.25085714285714283,0.5222857142857142,0.024,0.4982857142857143,0.152,0.2500342857142857,0.28538857142857144,0.34893714285714283,0.08751199999999999
10,S1,3,id01,2024-08-13,2024-08-12,0.3261448583995547,0.3104271131734202,-0.07244973691365286,True,0.07244973691365286,-0.0223249278044798,-0.1034996241623611,1.0,0.1034996241623611,0.4178482068390325,0.7212932046691178,0.0010455629174851,0.4417670682730923,0.6548571428571428,0.5501142857142857,0.1046913858621023,0.0005664059827552,0.481334883953699,0.962669767907398,0.0038506790716296,0.4844,0.0004988663040943,0.2961322167942221,-0.0142948963791981,0.0038506790716296,0.49424,0.0004814592344083,0.5045714285714286,0.4297142857142857,0.4674285714285714,0.4781714285714286,0.0038506790716296,0.0649887068760415,3.877707366532701,0.0008581994936145,0.011470546930907,0.49424,0.4074285714285714,0.41314285714285715,0.6645714285714286,0.5222857142857142,0.48114285714285715,0.4982857142857143,0.572,0.5145085714285714,0.5462171428571428,0.5578057142857142,0.7815288571428571
10,S2,4,id01,2024-08-13,2024-08-12,0.5123991191984351,0.5615081354310529,0.19767835700303554,True,0.19767835700303554,0.0698478546186353,0.2823976528614793,0.9629629629629628,0.2719384805332764,0.6271893244370309,0.996957935760541,0.0089416799224664,0.4417670682730923,0.0908571428571428,0.5270628571428572,0.1474005722110929,0.0005534457161773,0.481334883953699,0.962669767907398,0.0038506790716296,0.4844,0.0004988663040943,0.5601419043315035,-0.0013662310995494,0.0038506790716296,0.49424,3.789679643317889e-06,0.0422857142857142,0.912,0.0377142857142857,0.3230628571428571,0.0038506790716296,0.0649887068760415,3.877707366532701,0.0008581994936145,0.011470546930907,0.49424,0.7571428571428571,0.7445714285714286,0.29085714285714287,0.5222857142857142,0.22342857142857142,0.4982857142857143,0.7365714285714285,0.46910857142857143,0.39214857142857146,0.5431999999999999,0.7610988571428572
10,S3,5,id01,2024-08-13,2024-08-12,0.8079462685045036,0.8646190282324883,0.4174757904789317,True,0.4174757904789317,0.0762839990160937,0.5963939863984735,1.0,0.5963939863984735,0.1017514595496246,0.5058253881973201,0.019462362610489,0.4417670682730923,0.6445714285714286,0.8116228571428572,0.4239134058564424,0.0005659192748126,0.481334883953699,0.962669767907398,0.0038506790716296,0.4844,0.0004988663040943,0.880319387014319,0.0157003587818307,0.0038506790716296,0.49424,0.0010894806523566,0.6948571428571428,0.2182857142857142,0.7805714285714286,0.5661714285714287,0.0038506790716296,0.0649887068760415,3.877707366532701,0.0008581994936145,0.011470546930907,0.49424,0.9142857142857143,0.916,0.816,0.5222857142857142,0.6177142857142857,0.4982857142857143,0.3354285714285714,0.6719771428571428,0.6057542857142857,0.5093599999999999,0.8523897142857143
10,S4,6,id01,2024-08-13,2024-08-12,0.436159273244765,0.3868343067969694,-0.20387441474093299,True,0.20387441474093299,-0.0698338569711032,-0.2912491639156185,1.0,0.2912491639156185,0.3869891576313595,0.7621322686689921,0.0091790061818552,0.4417670682730923,0.1377142857142857,0.5399885714285715,0.1298210546421921,0.000555618231663,0.481334883953699,0.962669767907398,0.0038506790716296,0.4844,0.0004988663040943,0.3432640876850436,-0.0435702191119258,0.0038506790716296,0.49424,0.004063993700669,0.956,0.9394285714285714,0.8777142857142857,0.8631314285714285,0.0038506790716296,0.0649887068760415,3.877707366532701,0.0008581994936145,0.011470546930907,0.49424,0.768,0.7714285714285715,0.3365714285714286,0.5222857142857142,0.9691428571428572,0.4982857142857143,0.5702857142857143,0.6464457142857143,0.6007371428571429,0.49821714285714286,0.8409005714285716
11,Q1,0,id01,2024-08-14,2024-08-13,0.5153668089923147,0.5153668089923147,0.0,False,0.0,-0.005013510579275,-0.0200674860195648,0.8518518518518519,0.0170945251277774,0.0,0.147560395957759,-0.0,0.2610441767068273,0.3908571428571428,0.4172914285714286,0.0201604292065681,0.0005612212857733,0.404085796914649,0.808171593829298,0.0032326863753172,0.19472,0.000414330449084,0.5407135526005822,0.0253467436082674,0.0032326863753172,0.20312,0.0012880228692904,0.7388571428571429,0.9737142857142858,0.6491428571428571,0.6651885714285715,0.0032326863753172,0.0417094204492465,4.298408085512162,0.000456283625916,0.0116568121384988,0.20312,0.15742857142857142,0.08571428571428572,0.39257142857142857,0.09028571428571429,0.8022857142857143,0.038285714285714284,0.08628571428571429,0.3020514285714285,0.3571371428571429,0.13041714285714284,0.10571799999999998
11,Q2,1,id01,2024-08-14,2024-08-13,0.580610586719341,0.6125929875115891,0.13294448510474,True,0.13294448510474,0.0454143539960524,0.1899206930067711,0.9629629629629628,0.1828865932657795,0.4787322768974145,0.7301234332897075,0.0039025400169843,0.2610441767068273,0.7462857142857143,0.6630742857142857,0.0411397695642431,0.0005709688873555,0.404085796914649,0.808171593829298,0.0032326863753172,0.19472,0.000414330449084,0.6247764083355348,0.0121834208239457,0.0032326863753172,0.20312,0.0003139747732857,0.4205714285714286,0.12,0.3685714285714285,0.2768685714285714,0.0032326863753172,0.0417094204492465,4.298408085512162,0.000456283625916,0.0116568121384988,0.20312,0.6188571428571429,0.6045714285714285,0.7845714285714286,0.09028571428571429,0.232,0.038285714285714284,0.5817142857142857,0.38036571428571425,0.3301371428571429,0.35951428571428573,0.7211645714285715
11,Q3,2,id01,2024-08-14,2024-08-13,0.5502727683573873,0.5055049252394067,-0.17975225993932362,True,0.17975225993932362,-0.0640233232403535,-0.2567889427704626,1.0,0.2567889427704626,0.6972477064220184,0.9735673934032194,0.0074915072451683,0.2610441767068273,0.0885714285714285,0.4579085714285714,0.065670228347559,0.0005533663809411,0.404085796914649,0.808171593829298,0.0032326863753172,0.19472,0.000414330449084,0.4806367665137395,-0.0248681587256672,0.0032326863753172,0.20312,0.0012370590869292,0.7291428571428571,0.3108571428571428,0.6342857142857142,0.4992457142857143,0.0032326863753172,0.0417094204492465,4.298408085512162,0.000456283625916,0.0116568121384988,0.20312,0.7245714285714285,0.7291428571428571,0.22171428571428572,0.09028571428571429,0.5857142857142857,0.038285714285714284,0.7354285714285714,0.3954971428571429,0.2992228571428572,0.30738857142857146,0.7279737142857143
11,S1,3,id01,2024-08-14,2024-08-13,0.7980148542708336,0.7980148542708336,0.0,False,0.0,0.0023491558024769,0.0146379259473818,0.7777777777777778,0.0113850535146303,0.0,0.1417284920126475,-0.0,0.2610441767068273,0.316,0.36264,0.1114847835650518,0.0005604173274868,0.404085796914649,0.808171593829298,0.0032326863753172,0.19472,0.000414330449084,0.7927925021870413,-0.0052223520837922,0.0032326863753172,0.20312,8.40632569036881e-05,0.2542857142857143,0.536,0.2462857142857142,0.2857371428571429,0.0032326863753172,0.0417094204492465,4.298408085512162,0.000456283625916,0.0116568121384988,0.20312,0.15742857142857142,0.05657142857142857,0.30457142857142855,0.09028571428571429,0.24342857142857144,0.038285714285714284,0.08114285714285714,0.1510057142857143,0.17829714285714285,0.11293142857142857,0.052852
11,S2,4,id01,2024-08-14,2024-08-13,0.6239071000676251,0.5784757864191358,-0.1896458240820364,True,0.1896458240820364,-0.0653661469263151,-0.270922605831481,1.0,0.270922605831481,0.8248540450375312,1.1038038063469198,0.008116075507535,0.2610441767068273,0.1457142857142857,0.4491199999999999,0.0450662211349676,0.0005560041376724,0.404085796914649,0.808171593829298,0.0032326863753172,0.19472,0.000414330449084,0.5826469448974633,0.0041711584783274,0.0032326863753172,0.20312,3.570835681765416e-05,0.1788571428571428,0.952,0.1428571428571428,0.33472,0.0032326863753172,0.0417094204492465,4.298408085512162,0.000456283625916,0.0116568121384988,0.20312,0.7394285714285714,0.7422857142857143,0.264,0.09028571428571429,0.33371428571428574,0.038285714285714284,0.836,0.35306857142857145,0.24627428571428572,0.3471828571428571,0.7088808571428572
11,S3,5,id01,2024-08-14,2024-08-13,0.8183046362906573,0.8422241438292339,0.16996756451956285,True,0.16996756451956285,0.0333596061228887,0.2428108064565184,1.0,0.2428108064565184,0.1859883236030025,0.4587631277940376,0.0035992321645317,0.2610441767068273,0.0645714285714285,0.3057942857142857,0.2563774837308294,0.0005516141910491,0.404085796914649,0.808171593829298,0.0032326863753172,0.19472,0.000414330449084,0.8484528460882539,0.0062287022590199,0.0032326863753172,0.20312,0.0001475752711793,0.3171428571428571,0.292,0.3411428571428571,0.2712914285714286,0.0032326863753172,0.0417094204492465,4.298408085512162,0.000456283625916,0.0116568121384988,0.20312,0.7097142857142857,0.7114285714285714,0.07028571428571428,0.09028571428571429,0.22057142857142858,0.038285714285714284,0.33085714285714285,0.2601314285714286,0.1308057142857143,0.1506685714285714,0.667059142857143
11,S4,6,id01,2024-08-14,2024-08-13,0.512018681523908,0.512018681523908,0.0,False,0.0,-0.0040678846585461,-0.0162781199560366,0.925925925925926,0.0150723332926265,0.0,0.1453877258605606,-0.0,0.2610441767068273,0.3194285714285714,0.3756,0.0173840663073202,0.0005604837923928,0.404085796914649,0.808171593829298,0.0032326863753172,0.19472,0.000414330449084,0.5054025203600411,-0.0066161611638668,0.0032326863753172,0.20312,8.75817670065171e-05,0.2588571428571428,0.0931428571428571,0.2102857142857143,0.17408,0.0032326863753172,0.0417094204492465,4.298408085512162,0.000456283625916,0.0116568121384988,0.20312,0.15742857142857142,0.07485714285714286,0.31885714285714284,0.09028571428571429,0.072,0.038285714285714284,0.084,0.11831428571428572,0.13406857142857143,0.11641714285714286,0.04141
12,Q1,0,id01,2024-08-15,2024-08-14,0.415993926661522,0.4537704814295021,0.15379299314092398,True,0.15379299314092398,0.0541574955692257,0.2197042759156062,1.0,0.2197042759156062,0.7422852376980817,1.1396358752396716,0.005433863227064,0.5220883534136547,0.1194285714285714,0.2469428571428571,0.0055294170641366,0.0005548897669751,0.4883512951424498,0.9767025902848996,0.0039068103611396,0.49256,0.0004373440774965,0.4367265678902225,-0.0170439135392795,0.0039068103611396,0.60272,0.000587360747684,0.544,0.988,0.472,0.6576457142857144,0.0039068103611396,0.0375406175824494,4.38816723519454,0.0011492368421708,0.0198257016250603,0.60272,0.6782857142857143,0.6817142857142857,0.062285714285714285,0.5342857142857143,0.7102857142857143,0.6782857142857143,0.8468571428571429,0.5522685714285714,0.5090457142857143,0.5853485714285714,0.7985208571428573
12,Q2,1,id01,2024-08-15,2024-08-14,0.5263864276333604,0.5263864276333604,0.0,False,0.0,0.006136069974433,0.024630066094761,0.9629629629629628,0.0237178414245847,0.0,0.2847148456605151,-0.0,0.5220883534136547,0.4531428571428571,0.3889314285714286,0.0065824755089074,0.0005619181639416,0.4883512951424498,0.9767025902848996,0.0039068103611396,0.49256,0.0004373440774965,0.5562617838277286,0.0298753561943682,0.0039068103611396,0.60272,0.0017949223464186,0.8148571428571428,0.8537142857142858,0.7148571428571429,0.7823314285714287,0.0039068103611396,0.0375406175824494,4.38816723519454,0.0011492368421708,0.0198257016250603,0.60272,0.15742857142857142,0.11885714285714286,0.4097142857142857,0.5342857142857143,0.8668571428571429,0.6782857142857143,0.184,0.4938457142857142,0.5933428571428572,0.43577142857142853,0.17284599999999997
12,Q3,2,id01,2024-08-15,2024-08-14,0.5750153292254253,0.5423068588055675,-0.13271056124049002,True,0.13271056124049002,-0.046855887110128,-0.1895865160578427,1.0,0.1895865160578427,0.7222685571309424,1.1076123336090675,0.0040535266777579,0.5220883534136547,0.1405714285714285,0.3417028571428571,0.0151488157565452,0.0005557337864065,0.4883512951424498,0.9767025902848996,0.0039068103611396,0.49256,0.0004373440774965,0.5387209842392555,-0.0035858745663119,0.0039068103611396,0.60272,2.5892116163106493e-05,0.1474285714285714,0.7828571428571428,0.1131428571428571,0.3780114285714285,0.0039068103611396,0.0375406175824494,4.38816723519454,0.0011492368421708,0.0198257016250603,0.60272,0.6182857142857143,0.6217142857142857,0.15371428571428572,0.5342857142857143,0.29714285714285715,0.6782857142857143,0.8234285714285714,0.45933142857142856,0.41458285714285714,0.5943085714285714,0.7566991428571429
12,S1,3,id01,2024-08-15,2024-08-14,0.8086601946030273,0.8086601946030273,0.0,False,0.0,0.0015166250827624,0.0098316465897814,0.7037037037037037,0.006918566118735,0.0,0.2690487507491372,-0.0,0.5220883534136547,0.4342857142857143,0.4023085714285714,0.1166574697727282,0.0005616311009037,0.4883512951424498,0.9767025902848996,0.0039068103611396,0.49256,0.0004373440774965,0.7884782047940077,-0.0201819898090196,0.0039068103611396,0.60272,0.0012827704750042,0.7365714285714285,0.8125714285714286,0.7342857142857143,0.7450285714285714,0.0039068103611396,0.0375406175824494,4.38816723519454,0.0011492368421708,0.0198257016250603,0.60272,0.15742857142857142,0.04057142857142857,0.4074285714285714,0.5342857142857143,0.8274285714285714,0.6782857142857143,0.1782857142857143,0.4668571428571428,0.5813314285714286,0.43353142857142857,0.16339999999999996
12,S2,4,id01,2024-08-15,2024-08-14,0.558780265236678,0.558780265236678,0.0,False,0.0,0.0104697553645245,0.0425786192433186,0.9629629629629628,0.0410016333454179,0.0,0.2980939194169474,-0.0,0.5220883534136547,0.2508571428571428,0.4455428571428571,0.0456812178356428,0.000559221858999,0.4883512951424498,0.9767025902848996,0.0039068103611396,0.49256,0.0004373440774965,0.5767269130602655,0.0179466478235874,0.0039068103611396,0.60272,0.0006552067789167,0.5645714285714286,0.1891428571428571,0.4948571428571429,0.47872,0.0039068103611396,0.0375406175824494,4.38816723519454,0.0011492368421708,0.0198257016250603,0.60272,0.15742857142857142,0.18571428571428572,0.33314285714285713,0.5342857142857143,0.46514285714285714,0.6782857142857143,0.18914285714285714,0.4026342857142857,0.46208000000000005,0.42363428571428574,0.140922
12,S3,5,id01,2024-08-15,2024-08-14,0.8660328418721388,0.8372632240978997,-0.22832366766707568,True,0.22832366766707568,-0.0425460966946285,-0.3261766680958218,0.9629629629629628,0.3140960507589395,0.9499582985821518,1.370064796615451,0.0065178284817399,0.5220883534136547,0.7531428571428571,0.4569028571428571,0.0507028815128029,0.0005712028846914,0.4883512951424498,0.9767025902848996,0.0039068103611396,0.49256,0.0004373440774965,0.8087494041011615,-0.0285138199967381,0.0039068103611396,0.60272,0.0028548373592441,0.9005714285714286,0.7457142857142857,0.8902857142857142,0.8257828571428572,0.0039068103611396,0.0375406175824494,4.38816723519454,0.0011492368421708,0.0198257016250603,0.60272,0.8051428571428572,0.7954285714285714,0.6548571428571428,0.5342857142857143,0.9245714285714286,0.6782857142857143,0.9525714285714286,0.7385200000000001,0.7245885714285715,0.72584,0.8823340000000001
12,S4,6,id01,2024-08-15,2024-08-14,0.500478491822276,0.4779634589053494,-0.09011727163840592,True,0.09011727163840592,-0.0321423095012723,-0.1287389594834369,0.9629629629629628,0.1239708498729393,0.5779816513761468,0.9332510996667364,0.001881751992881,0.5220883534136547,0.292,0.3204514285714285,0.0061901413800877,0.0005600514716278,0.4883512951424498,0.9767025902848996,0.0039068103611396,0.49256,0.0004373440774965,0.4984916074489529,0.0205281485436034,0.0039068103611396,0.60272,0.0008436680717651,0.632,0.9714285714285714,0.5428571428571428,0.7030399999999999,0.0039068103611396,0.0375406175824494,4.38816723519454,0.0011492368421708,0.0198257016250603,0.60272,0.47828571428571426,0.4714285714285714,0.25257142857142856,0.5342857142857143,0.7742857142857142,0.6782857142857143,0.7125714285714285,0.5482628571428572,0.5651371428571429,0.5766285714285714,0.7967182857142858
13,Q1,0,id01,2024-08-17,2024-08-16,0.5508859927350321,0.5508859927350321,0.0,False,0.0,-0.0002388563415836,-0.0009653774386038,0.5555555555555556,0.0005363207992243,0.0,0.3158327994654432,-0.0,0.6305220883534136,0.2748571428571428,0.3058228571428572,0.0006841919263285,0.00055969701089,0.4506515213545117,0.9013030427090234,0.0036052121708361,0.22928,0.0003493329771165,0.5768859839210669,0.0259999911860348,0.0036052121708361,0.43704,0.0013716764709259,0.7531428571428571,0.864,0.6662857142857143,0.70496,0.0036052121708361,0.0487572492786739,4.275200432239597,0.0009933491685917,0.0146472050858445,0.43704,0.15742857142857142,0.0034285714285714284,0.22285714285714286,0.1782857142857143,0.8125714285714286,0.3942857142857143,0.21142857142857144,0.3169828571428572,0.40174857142857145,0.2509142857142857,0.110944
13,Q2,1,id01,2024-08-17,2024-08-16,0.5769196566561313,0.5561424946634292,-0.08461994580320253,True,0.08461994580320253,-0.0297465551111252,-0.1208856368617179,1.0,0.1208856368617179,0.6755629691409508,1.0834483700929578,0.0016397208038858,0.6305220883534136,0.0942857142857142,0.2988,0.0150908343174793,0.0005537207664955,0.4506515213545117,0.9013030427090234,0.0036052121708361,0.22928,0.0003493329771165,0.548002926598178,-0.0081395680652512,0.0036052121708361,0.43704,0.0001340377445102,0.3045714285714285,0.2108571428571428,0.252,0.28592,0.0036052121708361,0.0487572492786739,4.275200432239597,0.0009933491685917,0.0146472050858445,0.43704,0.46114285714285713,0.4634285714285714,0.08571428571428572,0.1782857142857143,0.184,0.3942857142857143,0.812,0.2789542857142857,0.23350285714285715,0.4184114285714286,0.6755294285714286
13,Q3,2,id01,2024-08-17,2024-08-16,0.5847417723979433,0.5429551762694034,-0.1700244735930819,True,0.1700244735930819,-0.0599177820079457,-0.2428921051329738,1.0,0.2428921051329738,0.7731442869057548,1.2307723979778302,0.0066479840424938,0.6305220883534136,0.6828571428571428,0.6913714285714285,0.057117236224724,0.0005674133391198,0.4506515213545117,0.9013030427090234,0.0036052121708361,0.22928,0.0003493329771165,0.5029310775907623,-0.040024098678641,0.0036052121708361,0.43704,0.0032162981817289,0.9245714285714286,0.8211428571428572,0.8262857142857143,0.7952457142857143,0.0036052121708361,0.0487572492786739,4.275200432239597,0.0009933491685917,0.0146472050858445,0.43704,0.7102857142857143,0.712,0.7708571428571429,0.1782857142857143,0.92,0.3942857142857143,0.88,0.6296457142857144,0.6156285714285715,0.5634971428571429,0.8333405714285715
13,S1,3,id01,2024-08-17,2024-08-16,0.8245065451156727,0.8245065451156727,0.0,False,0.0,0.0071423894999842,0.0501755920617184,0.8888888888888888,0.044600526277083,0.0,0.3544834569840253,-0.0,0.6305220883534136,0.3148571428571428,0.4128914285714286,0.1784771027218577,0.0005603949083708,0.4506515213545117,0.9013030427090234,0.0036052121708361,0.22928,0.0003493329771165,0.8191370941654548,-0.0053694509502179,0.0036052121708361,0.43704,9.88393764319584e-05,0.2702857142857143,0.5885714285714285,0.2782857142857143,0.3681142857142857,0.0036052121708361,0.0487572492786739,4.275200432239597,0.0009933491685917,0.0146472050858445,0.43704,0.15742857142857142,0.19657142857142856,0.3485714285714286,0.1782857142857143,0.34,0.3942857142857143,0.23257142857142857,0.27446857142857145,0.3023371428571429,0.28030857142857146,0.096064
13,S2,4,id01,2024-08-17,2024-08-16,0.557073394526688,0.6077603086730755,0.20861454607588495,True,0.20861454607588495,0.0717829626881723,0.298020780108407,0.9629629629629628,0.2869829734377253,0.4778982485404504,0.9457036037520342,0.009657613713621,0.6305220883534136,0.3571428571428571,0.6409371428571429,0.1416742381637903,0.000560903925571,0.4506515213545117,0.9013030427090234,0.0036052121708361,0.22928,0.0003493329771165,0.6105366837024304,0.0027763750293549,0.0036052121708361,0.43704,1.6181113675406422e-05,0.0977142857142857,0.8062857142857143,0.0891428571428571,0.3135085714285714,0.0036052121708361,0.0487572492786739,4.275200432239597,0.0009933491685917,0.0146472050858445,0.43704,0.7748571428571429,0.7628571428571429,0.5468571428571428,0.1782857142857143,0.22685714285714287,0.3942857142857143,0.6857142857142857,0.43137714285714285,0.35194857142857144,0.4610057142857143,0.7441197142857143
13,S3,5,id01,2024-08-17,2024-08-16,0.8129438848019024,0.8355998643992115,0.15659312828948146,True,0.15659312828948146,0.0316688718390134,0.2237044689849736,1.0,0.2237044689849736,0.1976647206005004,0.6506044383049373,0.0031552080872014,0.6305220883534136,0.0611428571428571,0.2996228571428571,0.2425986752670026,0.0005512353519847,0.4506515213545117,0.9013030427090234,0.0036052121708361,0.22928,0.0003493329771165,0.8368566227955074,0.0012567583962959,0.0036052121708361,0.43704,5.760559301015711e-06,0.0577142857142857,0.3154285714285714,0.0685714285714285,0.1755885714285714,0.0036052121708361,0.0487572492786739,4.275200432239597,0.0009933491685917,0.0146472050858445,0.43704,0.6834285714285714,0.6885714285714286,0.06514285714285714,0.1782857142857143,0.037714285714285714,0.3942857142857143,0.48514285714285715,0.27479428571428577,0.16452,0.31011428571428573,0.6736574285714286
13,S4,6,id01,2024-08-17,2024-08-16,0.526820448241447,0.5481392328790934,0.0857703676615275,True,0.0857703676615275,0.0304061790311466,0.1225290966593251,1.0,0.1225290966593251,0.572977481234362,0.9814346374751052,0.0016927092399692,0.6305220883534136,0.688,0.6321371428571427,0.0563877837340612,0.00056777590887,0.4506515213545117,0.9013030427090234,0.0036052121708361,0.22928,0.0003493329771165,0.5803948734278208,0.0322556405487274,0.0036052121708361,0.43704,0.0021106507335684,0.8405714285714285,0.9428571428571428,0.7548571428571429,0.7765714285714286,0.0036052121708361,0.0487572492786739,4.275200432239597,0.0009933491685917,0.0146472050858445,0.43704,0.4645714285714286,0.4662857142857143,0.7342857142857143,0.1782857142857143,0.8977142857142857,0.3942857142857143,0.7331428571428571,0.5565371428571428,0.5899657142857143,0.50992,0.8004417142857143
14,Q1,0,id01,2024-09-02,2024-09-01,0.2943379321499763,0.2549100024552317,-0.19818653271019093,True,0.19818653271019093,-0.0552218269690787,-0.283123618157416,1.0,0.283123618157416,0.1684737281067556,0.6738599384713702,0.0069789558921478,0.7068273092369478,0.7205714285714285,0.7809600000000001,0.1816930568892307,0.0005694140625818,0.4693455782573453,0.9386911565146906,0.0037547646260587,0.43824,0.0004886422967094,0.2335598965421238,-0.0213501059131078,0.0037547646260587,0.4904,0.0012231634833868,0.7234285714285714,0.6051428571428571,0.7017142857142857,0.6533942857142856,0.0037547646260587,0.0430319582888177,4.305314845010766,0.0012602207555738,0.0113381790290059,0.4904,0.7582857142857143,0.76,0.8274285714285714,0.42628571428571427,0.732,0.49028571428571427,0.4908571428571429,0.6518514285714287,0.6262914285714285,0.5351542857142857,0.843333142857143
14,Q2,1,id01,2024-09-02,2024-09-01,0.5814373972533974,0.5814373972533974,0.0,False,0.0,-0.0183717987933067,-0.0750637773402673,1.0,0.0750637773402673,0.0,0.4147058215710182,-0.0,0.7068273092369478,0.1942857142857142,0.2248685714285714,0.0227918773494842,0.0005577045919385,0.4693455782573453,0.9386911565146906,0.0037547646260587,0.43824,0.0004886422967094,0.5666080533039078,-0.0148293439494895,0.0037547646260587,0.4904,0.0004503844216561,0.4897142857142857,0.284,0.4251428571428571,0.42752,0.0037547646260587,0.0430319582888177,4.305314845010766,0.0012602207555738,0.0113381790290059,0.4904,0.15742857142857142,0.3068571428571429,0.09085714285714286,0.42628571428571427,0.41942857142857143,0.49028571428571427,0.27314285714285713,0.33680000000000004,0.3393885714285715,0.3329028571428571,0.11788000000000001
14,Q3,2,id01,2024-09-02,2024-09-01,0.5883167242663031,0.5883167242663031,0.0,False,0.0,0.004933529412246,0.0204070563968594,1.0,0.0204070563968594,0.0,0.3736537918397432,-0.0,0.7068273092369478,0.1131428571428571,0.3027542857142857,0.065583488695733,0.0005545871453863,0.4693455782573453,0.9386911565146906,0.0037547646260587,0.43824,0.0004886422967094,0.561239877806247,-0.0270768464600561,0.0037547646260587,0.4904,0.0015044139759231,0.7725714285714286,0.9782857142857144,0.6868571428571428,0.7596342857142857,0.0037547646260587,0.0430319582888177,4.305314845010766,0.0012602207555738,0.0113381790290059,0.4904,0.15742857142857142,0.10171428571428572,0.10285714285714286,0.42628571428571427,0.8605714285714285,0.49028571428571427,0.25257142857142856,0.39426285714285714,0.46446857142857145,0.32848,0.13799199999999998
14,S1,3,id01,2024-09-02,2024-09-01,0.4364048735594469,0.3955642474423337,-0.16821645105925748,True,0.16821645105925748,-0.0579413556540587,-0.2403092157989392,1.0,0.2403092157989392,0.323603002502085,0.818697617669444,0.0062954598216607,0.7068273092369478,0.7788571428571428,0.7892114285714285,0.1196574415313196,0.0005726773665517,0.4693455782573453,0.9386911565146906,0.0037547646260587,0.43824,0.0004886422967094,0.3606167633083482,-0.0349474841339854,0.0037547646260587,0.4904,0.0025827386257299,0.8777142857142857,0.7342857142857143,0.8028571428571428,0.7663314285714287,0.0037547646260587,0.0430319582888177,4.305314845010766,0.0012602207555738,0.0113381790290059,0.4904,0.7051428571428572,0.7085714285714285,0.8594285714285714,0.42628571428571427,0.8714285714285714,0.49028571428571427,0.6011428571428571,0.6838799999999999,0.6810514285714285,0.5762057142857142,0.857746
14,S2,4,id01,2024-09-02,2024-09-01,0.579615680095713,0.5626228819694493,-0.06938214933537912,True,0.06938214933537912,-0.0243230991829774,-0.0991173561933987,1.0,0.0991173561933987,0.5804837364470392,1.01234221668015,0.0010990602307696,0.7068273092369478,0.6274285714285714,0.4401714285714285,0.0118735043178144,0.0005655313942458,0.4693455782573453,0.9386911565146906,0.0037547646260587,0.43824,0.0004886422967094,0.5567259473210765,-0.0058969346483728,0.0037547646260587,0.4904,7.058709868490443e-05,0.2377142857142857,0.216,0.1874285714285714,0.2628571428571428,0.0037547646260587,0.0430319582888177,4.305314845010766,0.0012602207555738,0.0113381790290059,0.4904,0.38685714285714284,0.39257142857142857,0.5622857142857143,0.42628571428571427,0.13314285714285715,0.49028571428571427,0.7565714285714286,0.39884,0.4109257142857143,0.5724571428571428,0.7294780000000001
14,S3,5,id01,2024-09-02,2024-09-01,0.8009179147342619,0.8398878980738034,0.2653529864303632,True,0.2653529864303632,0.0536786024641067,0.3790756949005185,1.0,0.3790756949005185,0.1634695579649708,0.6846362142987106,0.0089267165256464,0.7068273092369478,0.248,0.5484457142857142,0.3114269151063518,0.000559113455743,0.4693455782573453,0.9386911565146906,0.0037547646260587,0.43824,0.0004886422967094,0.8628467585683847,0.0229588604945812,0.0037547646260587,0.4904,0.0020418953430245,0.8348571428571429,0.64,0.8697142857142857,0.7399314285714287,0.0037547646260587,0.0430319582888177,4.305314845010766,0.0012602207555738,0.0113381790290059,0.4904,0.8388571428571429,0.8388571428571429,0.40285714285714286,0.42628571428571427,0.8474285714285714,0.49028571428571427,0.49142857142857144,0.6193542857142857,0.5525085714285715,0.45891428571428566,0.8287094285714287
14,S4,6,id01,2024-09-02,2024-09-01,0.5261926274729248,0.4778937733632078,-0.19334909574741288,True,0.19334909574741288,-0.0689247507722494,-0.2762129939248751,1.0,0.2762129939248751,0.457047539616347,0.9607184841147522,0.0086578839854584,0.7068273092369478,0.8674285714285714,0.8028342857142856,0.0756598631030389,0.0005822323949926,0.4693455782573453,0.9386911565146906,0.0037547646260587,0.43824,0.0004886422967094,0.4561567881733094,-0.0217369851898984,0.0037547646260587,0.4904,0.0009483623406116,0.6605714285714286,0.1205714285714285,0.5742857142857143,0.4864685714285714,0.0037547646260587,0.0430319582888177,4.305314845010766,0.0012602207555738,0.0113381790290059,0.4904,0.748,0.7514285714285714,0.8965714285714286,0.42628571428571427,0.5045714285714286,0.49028571428571427,0.6925714285714286,0.6201885714285714,0.5940171428571429,0.6121485714285714,0.8290848571428572
15,Q1,0,id01,2024-09-03,2024-09-02,0.2462983179011829,0.207868640969296,-0.21936772202175225,True,0.21936772202175225,-0.0534854845047305,-0.3133824600310742,1.0,0.3133824600310742,0.1442869057547956,0.4375443265184678,0.0074336807496735,0.2690763052208835,0.6577142857142857,0.7518400000000001,0.226345685038364,0.0005664656679525,0.4568029491338584,0.9136058982677168,0.0036544235930708,0.4064,0.0005607591184438,0.1885174472112933,-0.0193511937580027,0.0036544235930708,0.39088,0.0011645295070184,0.712,0.0754285714285714,0.7234285714285714,0.4946742857142857,0.0036544235930708,0.0593711472342522,4.110226427637118,0.0011516035017801,0.0083039184621841,0.39088,0.7908571428571428,0.7937142857142857,0.7937142857142857,0.35828571428571426,0.5445714285714286,0.29428571428571426,0.29085714285714287,0.5655314285714287,0.5049828571428572,0.39908571428571427,0.804489142857143
15,Q2,1,id01,2024-09-03,2024-09-02,0.5652561050524169,0.5652561050524169,0.0,False,0.0,-0.0167934121603381,-0.0680605391611388,1.0,0.0680605391611388,0.0,0.1911419261953474,-0.0,0.2690763052208835,0.1885714285714285,0.2374514285714285,0.0139900610781302,0.0005575505451839,0.4568029491338584,0.9136058982677168,0.0036544235930708,0.4064,0.0005607591184438,0.5374742294395574,-0.0277818756128594,0.0036544235930708,0.39088,0.0015635562646791,0.7834285714285715,0.4811428571428571,0.6925714285714286,0.6144457142857144,0.0036544235930708,0.0593711472342522,4.110226427637118,0.0011516035017801,0.0083039184621841,0.39088,0.15742857142857142,0.2834285714285714,0.09885714285714285,0.35828571428571426,0.7085714285714285,0.29428571428571426,0.10228571428571429,0.3564857142857143,0.36398857142857144,0.2136685714285714,0.12476999999999999
15,Q3,2,id01,2024-09-03,2024-09-02,0.6633741637989141,0.6877183982299708,0.11110695331281595,True,0.11110695331281595,0.034478106537521,0.1587242190183085,1.0,0.1587242190183085,0.421184320266889,0.6676721584119221,0.0024695549318374,0.2690763052208835,0.096,0.4185371428571429,0.0766069175463478,0.0005538078375223,0.4568029491338584,0.9136058982677168,0.0036544235930708,0.4064,0.0005607591184438,0.6906813574405603,0.0029629592105894,0.0036544235930708,0.39088,2.0474741101894622e-05,0.1205714285714285,0.2325714285714285,0.1057142857142857,0.1722742857142857,0.0036544235930708,0.0593711472342522,4.110226427637118,0.0011516035017801,0.0083039184621841,0.39088,0.5548571428571428,0.56,0.19142857142857142,0.35828571428571426,0.04285714285714286,0.29428571428571426,0.5388571428571428,0.3027085714285715,0.23129142857142856,0.3700342857142857,0.6862188571428572
15,S1,3,id01,2024-09-03,2024-09-02,0.3029533885934872,0.269178670642593,-0.16552032594054988,True,0.16552032594054988,-0.0474991315103249,-0.2364576084864995,1.0,0.2364576084864995,0.2460383653044203,0.5208852657707799,0.0050338556430633,0.2690763052208835,0.8062857142857143,0.7368685714285714,0.1936324743816407,0.0005747697754977,0.4568029491338584,0.9136058982677168,0.0036544235930708,0.4064,0.0005607591184438,0.2401298167174014,-0.0290488539251915,0.0036544235930708,0.39088,0.0021968852915449,0.8502857142857143,0.8262857142857143,0.8137142857142857,0.7482514285714287,0.0036544235930708,0.0593711472342522,4.110226427637118,0.0011516035017801,0.0083039184621841,0.39088,0.6982857142857143,0.7017142857142857,0.8428571428571429,0.35828571428571426,0.8725714285714286,0.29428571428571426,0.4188571428571429,0.6359771428571429,0.6180685714285714,0.4488914285714286,0.8361897142857144
15,S2,4,id01,2024-09-03,2024-09-02,0.5621847212158895,0.5379127009426687,-0.09809094898218201,True,0.09809094898218201,-0.0347364764006761,-0.140129927117403,1.0,0.140129927117403,0.6263552960800667,0.8625515390278441,0.0022188498727074,0.2690763052208835,0.7874285714285715,0.6851314285714286,0.0553800338512111,0.0005732395347637,0.4568029491338584,0.9136058982677168,0.0036544235930708,0.4064,0.0005607591184438,0.5546239908613605,0.0167112899186917,0.0036544235930708,0.39088,0.0005628272095024,0.5337142857142857,0.8308571428571428,0.4662857142857143,0.5532342857142857,0.0036544235930708,0.0593711472342522,4.110226427637118,0.0011516035017801,0.0083039184621841,0.39088,0.504,0.5085714285714286,0.8125714285714286,0.35828571428571426,0.616,0.29428571428571426,0.6777142857142857,0.5419657142857143,0.5567771428571429,0.5262742857142857,0.7938845714285715
15,S3,5,id01,2024-09-03,2024-09-02,0.7832618917527464,0.8158236710866215,0.2035272721744381,True,0.2035272721744381,0.0453087196923756,0.2907532459634825,1.0,0.2907532459634825,0.1751459549624687,0.463600631300755,0.0058405741425342,0.2690763052208835,0.0108571428571428,0.25344,0.3149790614544143,0.0005416838771086,0.4568029491338584,0.9136058982677168,0.0036544235930708,0.4064,0.0005607591184438,0.8313408949191281,0.0155172238325066,0.0036544235930708,0.39088,0.0008194956744228,0.6228571428571429,0.1942857142857142,0.6708571428571428,0.4770285714285714,0.0036544235930708,0.0593711472342522,4.110226427637118,0.0011516035017801,0.0083039184621841,0.39088,0.7668571428571429,0.7697142857142857,0.019428571428571427,0.35828571428571426,0.5211428571428571,0.29428571428571426,0.32571428571428573,0.4172342857142857,0.30729142857142855,0.27086857142857146,0.7377554285714286
15,S4,6,id01,2024-09-03,2024-09-02,0.4895688830650555,0.4449383613390002,-0.17941288689604676,True,0.17941288689604676,-0.0635308827900664,-0.2563041241372097,1.0,0.2563041241372097,0.4145120934111759,0.6946191425339105,0.007386764719479,0.2690763052208835,0.8331428571428572,0.7825371428571429,0.0746134386195954,0.0005775412085872,0.4568029491338584,0.9136058982677168,0.0036544235930708,0.4064,0.0005607591184438,0.4157493556435661,-0.0291890056954341,0.0036544235930708,0.39088,0.001733455824191,0.808,0.3297142857142857,0.7091428571428572,0.5912457142857144,0.0036544235930708,0.0593711472342522,4.110226427637118,0.0011516035017801,0.0083039184621841,0.39088,0.7234285714285714,0.728,0.8771428571428571,0.35828571428571426,0.6777142857142857,0.29428571428571426,0.5445714285714286,0.6093999999999999,0.5808800000000001,0.4952914285714286,0.82423
16,Q1,0,id01,2024-09-04,2024-09-03,0.4910111852448078,0.4910111852448078,0.0,False,0.0,-0.014714539216086,-0.0589254062841587,1.0,0.0589254062841587,0.0,0.3122231636666736,-0.0,0.5261044176706827,0.2102857142857143,0.4439657142857143,0.0414310895038188,0.0005582677118846,0.6243660117674108,1.2487320235348216,0.0049949280941393,0.8075999999999999,0.0006674797404772,0.4543775038413084,-0.0366336814034993,0.0049949280941393,0.70664,0.0026896982835384,0.8874285714285715,0.8731428571428571,0.796,0.8610514285714286,0.0049949280941393,0.0422609771023509,4.356244059533309,0.0013814095672623,0.0102871085974504,0.70664,0.15742857142857142,0.24628571428571427,0.30057142857142854,0.8902857142857142,0.9388571428571428,0.8582857142857143,0.19428571428571428,0.6156285714285714,0.7029371428571429,0.5534171428571428,0.21547
16,Q2,1,id01,2024-09-04,2024-09-03,0.5465171347107587,0.5465171347107587,0.0,False,0.0,0.0012202832618816,0.0049248878932175,0.7777777777777778,0.0038304683613914,0.0,0.2670544958564963,-0.0,0.5261044176706827,0.396,0.3693942857142857,0.0210408944983963,0.0005612705785243,0.6243660117674108,1.2487320235348216,0.0049949280941393,0.8075999999999999,0.0006674797404772,0.5649336907886393,0.0184165560778806,0.0049949280941393,0.70664,0.0006860013918232,0.5771428571428572,0.7937142857142857,0.504,0.6594742857142857,0.0049949280941393,0.0422609771023509,4.356244059533309,0.0013814095672623,0.0102871085974504,0.70664,0.15742857142857142,0.02057142857142857,0.36114285714285715,0.8902857142857142,0.6908571428571428,0.8582857142857143,0.1777142857142857,0.5190057142857143,0.6474799999999999,0.5590171428571429,0.18165199999999998
16,Q3,2,id01,2024-09-04,2024-09-03,0.5653221271098943,0.5653221271098943,0.0,False,0.0,-0.0024384719058512,-0.0099169100935886,0.8518518518518519,0.0084477382278718,0.0,0.2727720487438605,-0.0,0.5261044176706827,0.1565714285714285,0.2610571428571429,0.0046119365844991,0.0005564922637105,0.6243660117674108,1.2487320235348216,0.0049949280941393,0.8075999999999999,0.0006674797404772,0.5409616234001141,-0.0243605037097801,0.0049949280941393,0.70664,0.0012027771115749,0.7194285714285714,0.8828571428571429,0.6285714285714286,0.7626971428571429,0.0049949280941393,0.0422609771023509,4.356244059533309,0.0013814095672623,0.0102871085974504,0.70664,0.15742857142857142,0.04914285714285714,0.096,0.8902857142857142,0.824,0.8582857142857143,0.18057142857142858,0.5083314285714285,0.6186742857142857,0.5122057142857143,0.177916
