kbsooo/etri/hitl/h109_decoder_coefficient_equation_solver_hsjepa/h109_top_field_cells.csv
candidate_id,flat_index,row,subject_id,sleep_date,lifelog_date,target,target_index,h057_prob,q061,cell_q061_gain,public_score,invariant_score,private_safe_score,latent_shortcut_energy,bad_pressure_rank,h068_cell_health,outside_h069_cell,outside_h070_cell,is_h050_null,source_count,source_weight,source_family_count,source_consensus,source_mean_move,source_action_delta,source_posterior_delta,hit_h071,hit_h074,hit_h076,hit_h079,h080_bad_same_raw,h080_bad_opp_raw,h080_bad_same_rank,h080_bad_opp_rank,h080_bad_margin_rank,h079_cell,h079_row,h079_role,h080_cell_score,h085_q,h085_q_move,h085_q_gain,h085_abs_q_move,h082_cell,h084_dark_cell,source_agrees_h085,h085_cell_score,q_hard,best_world_y,confidence,hard_gain,combined_score,hard_logit_delta,binary_shock,h086_resp_weight,h086_resp_lift,h086_resp_rank,h086_equation_alignment,h086_resp_action_score,hard_logit_move,hard_diag_gain,h088_prob,h088_logit_move,h088_active,h088_q_delta,h088_q_bad,h088_bad_rank,h088_move_abs_rank,h088_toxicity,h057_positive_weight,h057_positive_logit_move,h095_safe_cell_score,sleep_dow,lifelog_dow,date_gap_days,row_norm,row_sin1,row_cos1,row_sin3,row_cos3,subject_idx,within_subject_norm,subject_block_size,target_Q1,target_Q2,target_Q3,target_S1,target_S2,target_S3,target_S4,sleep_dow_0,lifelog_dow_0,sleep_dow_1,lifelog_dow_1,sleep_dow_2,lifelog_dow_2,sleep_dow_3,lifelog_dow_3,sleep_dow_4,lifelog_dow_4,sleep_dow_5,lifelog_dow_5,sleep_dow_6,lifelog_dow_6,is_q,is_s,is_subjective_quality,is_objective_stage,h057_h088_anti_conflict,h057_h088_same_conflict,conflict_strength,h098_frontier_cell_score,h108_vote_sum,h108_vote_abs,h108_vote_weight,h108_vote_count,h108_raw_mean_move,h108_vote_consensus,h108_family_count,h108_family_consensus,h108_family_signed_count,h108_h103_move,h108_has_h103,h108_h104_move,h108_has_h104,h108_h105_move,h108_has_h105,h108_h106_move,h108_has_h106,h108_h107_move,h108_has_h107,h108_anti_h088,h108_align_h057,h108_decoder_jury_score,h109_field_move
h109_strict_coeff_null_c60_t8_a_0b68b47b,1150,164,id07,2024-07-26,2024-07-25,Q3,2,0.4259565486750093,0.4269931880734391,2.196973457047058e-06,0.2573485714285714,0.5277371428571428,0.3815033714285714,0.4755571428571428,0.1785714285714285,0.3029848571428571,1.0,1.0,0,4.0,7.150759261260218,1.0,1.0,0.0018921461975348,-3.1386519561959727e-09,-1.501803454773649e-06,0.0,0.0,0.0,1.0,0.0,0.1449356177140495,0.1785714285714285,0.6674285714285715,0.6782857142857143,1.0,1.0,seed_q061_companion,0.4895571428571429,0.4270190049503677,0.0043437215818961,2.100024117157595e-06,0.0043437215818961,1.0,0.0,1.0,0.2906211428571428,0.4461046069309509,0,0.5538953930690491,3.0615352131698396e-07,0.5612685714285714,0.0658539470598237,0.0014462362567198,0.0005931515106564,1.0380151436487377,0.8931428571428571,0.3058667154411794,0.6421355428571428,0.0819453714389487,0.0008269628319164,0.4365566105950964,0.043218942955514,1.0,0.0001829166359995,0.0001829166359995,0.9805714285714284,0.6462857142857142,0.8331428571428572,0.8843714285714287,-0.0160914243791249,0.1454114285714285,4.0,3.0,1.0,0.6586345381526104,-0.839699808785118,-0.5430508550092121,-0.15082429716137438,0.9885605855918884,6.0,0.41379310344827586,30.0,0.0,0.0,1.0,0.0,0.0,0.0,0.0,0.0,0.0,0.0,0.0,0.0,0.0,0.0,1.0,1.0,0.0,0.0,0.0,0.0,0.0,1.0,0.0,1.0,0.0,1.0,0.0,0.7368077387755103,0.5973442857142858,-1.8360305094315577,1.8360305094315577,18.5277806,14.0,-0.09909608436487308,0.9999999999994553,5,0.9999999999994553,1.0,-0.2684074001865446,True,-0.08924628940014354,True,-1.2774505545213555,True,-0.18910674880403996,True,-0.011819516519474096,True,1.0,1.0,0.9347071999999346,-0.3
h109_strict_coeff_null_c60_t8_a_0b68b47b,1151,164,id07,2024-07-26,2024-07-25,S1,3,0.9223507042282848,0.9216005296464892,3.917279624177095e-06,0.2585542857142857,0.5277371428571428,-0.1077577142857144,0.9476857142857142,0.9794285714285714,0.3269070857142857,1.0,1.0,0,4.0,7.150759261260218,1.0,1.0,-0.0046557360965975,-2.455648310831864e-09,-2.6763739925174846e-06,0.0,0.0,0.0,1.0,0.580049688553327,0.0,0.9822857142857144,0.0777142857142857,0.1788571428571428,1.0,1.0,seed_q061_companion,0.24256,0.9217729289840444,-0.0080398963166077,2.11564951174692e-06,0.0080398963166077,0.0,1.0,1.0,0.1396150285714285,0.934273302796362,1,0.934273302796362,1.2071833231409308e-06,0.8719085714285715,0.2506320694487556,0.0026125534551015,0.0005915360823307,1.035188144078876,0.8891428571428571,0.8372818556296139,0.4899545142857143,0.1795407734626453,0.0010428642033394,0.9220945637329848,-0.0035709979341165,1.0,-1.6061254654586854e-06,0.0,0.4542857142857143,0.4657142857142857,0.4590857142857142,0.9133771428571428,0.0710912959861103,0.0364342857142856,4.0,3.0,1.0,0.6586345381526104,-0.839699808785118,-0.5430508550092121,-0.15082429716137438,0.9885605855918884,6.0,0.41379310344827586,30.0,0.0,0.0,0.0,1.0,0.0,0.0,0.0,0.0,0.0,0.0,0.0,0.0,0.0,0.0,1.0,1.0,0.0,0.0,0.0,0.0,0.0,0.0,1.0,0.0,1.0,1.0,0.0,0.4193183980408162,0.3923701142857143,2.2406668042049764,2.2406668042049764,14.410493984000002,12.0,0.15548854929557845,0.9999999999995537,4,0.9999999999995537,1.0,0.0,False,0.05036263782233717,True,1.5640943001600025,True,0.622215033685716,True,0.003994832536921119,True,1.0,1.0,0.8425279474285178,0.3
h109_strict_coeff_null_c60_t8_a_0b68b47b,1059,151,id06,2024-08-25,2024-08-24,Q3,2,0.8051517532471274,0.8030150111803502,1.4511156814778214e-05,0.3337085714285714,0.7080171428571429,0.1520932571428572,0.9230857142857144,0.956,0.3712925714285713,1.0,1.0,0,0.0,0.0,0.0,0.0,0.0,0.0,0.0,0.0,0.0,0.0,0.0,0.2271737521378298,0.006086278522037,0.9222857142857144,0.2165714285714285,0.1788571428571428,0.0,0.0,,-0.7007057142857144,0.8030744767017115,-0.0131878844070159,1.2479027673317766e-05,0.0131878844070159,0.0,0.0,0.0,0.0559329142857143,0.7951378735404838,1,0.7951378735404838,5.971452035624195e-08,0.3412114285714285,0.0361493346156307,0.0011125015620337,0.0005754150819827,1.0069763934697766,0.7565714285714286,0.4100387233611863,0.4062238857142857,-0.0626314127524751,0.0003155568519088,0.8043516859284782,-0.0050918768989105,1.0,-8.541367909509212e-06,0.0,0.4542857142857143,0.4731428571428571,0.4653428571428571,0.9348628571428572,0.0987807473681059,0.0054983999999999,6.0,5.0,1.0,0.606425702811245,-0.6199605408122385,-0.7846329892604547,-0.9067516281939827,0.42166513345018397,5.0,1.0,24.0,0.0,0.0,1.0,0.0,0.0,0.0,0.0,0.0,0.0,0.0,0.0,0.0,0.0,0.0,0.0,0.0,0.0,0.0,1.0,1.0,0.0,1.0,0.0,1.0,0.0,1.0,0.0,0.43503175297959185,0.4528153828571429,4.467380328697425,4.467380328697425,20.3112302,16.0,0.21994631958320307,0.9999999999997762,5,0.9999999999997762,1.0,1.754940436005198,True,0.6798725068800002,True,1.564094300159999,True,0.46277686406793855,True,0.005696221584288544,True,1.0,1.0,0.855570392457116,0.3
h109_strict_coeff_null_c60_t8_a_0b68b47b,1057,151,id06,2024-08-25,2024-08-24,Q1,0,0.2931200235617892,0.2940047415236316,1.8877009515527732e-06,0.3332628571428572,0.7080171428571429,0.4039888571428572,0.5654857142857144,0.4817142857142857,0.3501362285714285,1.0,1.0,0,1.0,0.98640079466928,1.0,1.0,0.0042660984396376,-1.0020730809332893e-08,-1.8877009515527732e-06,1.0,0.0,0.0,0.0,0.0069087191295727,0.1085813693048932,0.46,0.5908571428571429,0.5965714285714285,0.0,0.0,,0.4900228571428571,0.2940407945891951,0.0044397867305515,1.860541860465581e-06,0.0044397867305515,1.0,0.0,1.0,0.2779978285714286,0.3160480568474452,1,0.6839519431525547,3.543989487264716e-07,0.5622057142857144,0.0767078893727275,0.0004647756016188,0.000563572964942,0.9862526886486588,0.3011428571428571,0.2390823668590611,0.2716846857142857,0.1082853490810346,0.001250143867855,0.2941165191992924,0.0048045551477717,1.0,-2.0308272858926557e-06,0.0,0.4542857142857143,0.4708571428571428,0.4616571428571429,0.8998400000000001,-0.0315774597083073,0.2318356571428572,6.0,5.0,1.0,0.606425702811245,-0.6199605408122385,-0.7846329892604547,-0.9067516281939827,0.42166513345018397,5.0,1.0,24.0,1.0,0.0,0.0,0.0,0.0,0.0,0.0,0.0,0.0,0.0,0.0,0.0,0.0,0.0,0.0,0.0,0.0,0.0,1.0,1.0,0.0,1.0,0.0,1.0,0.0,1.0,0.0,0.4154175634285715,0.5168146514285716,-2.597909395933383,2.597909395933383,20.4822806,16.0,-0.1268369204908391,0.9999999999996151,5,0.9999999999996151,1.0,-0.6311134875343815,True,-0.14143058324350327,True,-1.5640943001600016,True,-0.25453071073504424,True,-0.006740314260453016,True,1.0,1.0,0.9106986546285253,-0.3
h109_strict_coeff_null_c60_t8_a_0b68b47b,1154,164,id07,2024-07-26,2024-07-25,S4,6,0.3773264958983826,0.3806992444389726,2.417989854019975e-05,0.3498857142857143,0.5277371428571428,-0.0450253714285713,0.9542,0.92,0.3851811428571428,1.0,1.0,0,4.0,7.150759261260218,1.0,1.0,0.006397676751739,-1.1884740666293036e-08,-1.652587185190865e-05,0.0,0.0,0.0,1.0,0.3149601376641728,0.0,0.9497142857142856,0.0777142857142857,0.1788571428571428,1.0,1.0,seed_q061_companion,0.2868685714285713,0.3806108503006162,0.0139551743480836,2.086447315363671e-05,0.0139551743480836,0.0,1.0,1.0,0.2017081142857142,0.3827457929282127,0,0.6172542070717872,4.143843838059222e-07,0.6303542857142858,-0.0798121694974146,0.0046721907240113,0.0005578411478312,0.9762220087046362,0.1765714285714285,0.6369021237462911,0.1225257142857142,0.0230015601792245,6.238347097342611e-05,0.3820022291534626,0.0198530550945121,1.0,-1.8827635697604705e-05,0.0,0.4542857142857143,0.5508571428571428,0.4944,0.9444742857142856,-0.1028137296766391,0.088597257142857,4.0,3.0,1.0,0.6586345381526104,-0.839699808785118,-0.5430508550092121,-0.15082429716137438,0.9885605855918884,6.0,0.41379310344827586,30.0,0.0,0.0,0.0,0.0,0.0,0.0,1.0,0.0,0.0,0.0,0.0,0.0,0.0,0.0,1.0,1.0,0.0,0.0,0.0,0.0,0.0,0.0,1.0,0.0,1.0,1.0,0.0,0.4669480868571428,0.39203521142857145,-2.426797576206274,2.426797576206274,15.692237984000002,13.0,-0.15464955213402395,0.9999999999995879,4,0.9999999999995879,1.0,0.0,False,-0.036171242281766124,True,-1.5640943001600016,True,-0.7928717188548591,True,-0.033660314909646966,True,1.0,1.0,0.8482026998856648,-0.3
h109_strict_coeff_null_c60_t8_a_0b68b47b,1010,144,id06,2024-08-14,2024-08-13,Q3,2,0.7530964107373385,0.7533060688078742,1.1822187706567187e-07,0.1906514285714285,0.670817142857143,0.3328430285714286,0.4842571428571429,0.4268571428571429,0.2659077142857142,1.0,1.0,0,3.0,1.4815760139224,1.0,1.0,0.0011278662604456,-5.3211147464858437e-11,-1.1822187706567182e-07,0.0,1.0,0.0,0.0,0.00365308581125,0.156435418150198,0.4182857142857142,0.6862857142857143,0.688,0.0,0.0,,0.4532971428571428,0.7533312901862517,0.0012635893748875,1.350275770084508e-07,0.0012635893748875,1.0,0.0,1.0,0.2487823428571428,0.7611739450510254,1,0.7611739450510254,4.467222197900529e-08,0.3201142857142857,0.029716187931472,0.0017199612737889,0.000627826127369,1.0986957228958183,0.9451428571428572,0.3740817901993886,0.643182742857143,0.0439311011078744,0.0001767593750644,0.7637201240802629,0.0579890534623943,1.0,0.0002959477991754,0.0002959477991754,0.992,0.7085714285714285,0.8645428571428572,0.919554285714286,-0.0458518275004828,0.1008794285714285,2.0,1.0,1.0,0.5783132530120482,-0.47243956847967067,-0.881363066014649,-0.9955262728085589,-0.09448513188803238,5.0,0.6956521739130435,24.0,0.0,0.0,1.0,0.0,0.0,0.0,0.0,0.0,0.0,0.0,1.0,1.0,0.0,0.0,0.0,0.0,0.0,0.0,0.0,0.0,0.0,1.0,0.0,1.0,0.0,1.0,0.0,0.794994089469388,0.7304870285714288,-3.469657634171484,3.469657634171484,21.2656646,17.0,-0.16315773334313383,0.9999999999997118,5,0.9999999999997118,1.0,-0.9491157411556422,True,-0.338369800535155,True,-1.564094300159999,True,-0.5852529726301914,True,-0.032824819690496,True,1.0,1.0,0.919023452571394,-0.3
h109_strict_coeff_null_c60_t8_a_0b68b47b,1148,164,id07,2024-07-26,2024-07-25,Q1,0,0.5726236359257583,0.5785182382955152,7.107495999258973e-05,0.3531828571428571,0.5277371428571428,-0.0308976285714285,0.9647428571428572,0.9491428571428572,0.3696770285714286,1.0,1.0,0,4.0,7.150759261260218,1.0,1.0,0.0107728068932244,-1.2662505403575502e-08,-4.8598608335352806e-05,0.0,0.0,0.0,1.0,0.2847313265208278,0.0,0.9405714285714286,0.0777142857142857,0.1788571428571428,1.0,1.0,seed_q061_companion,0.2934971428571428,0.5784324143683724,0.023777970260246,6.281269137575762e-05,0.023777970260246,0.0,1.0,1.0,0.2427167428571428,0.6057356549616199,0,0.6057356549616199,2.395791371501162e-07,0.5222971428571428,-0.0601479714388651,0.0028665154478622,0.0005256559126248,0.919897847093514,0.0462857142857142,0.2934742653132805,0.0831499428571428,0.1368584367882453,0.0022566059611043,0.5926098562501864,0.082201326412172,1.0,0.0003458175576152,0.0003458175576152,0.9942857142857144,0.7868571428571428,0.8911714285714286,0.9825542857142858,-0.1970064082271105,0.0275415999999998,4.0,3.0,1.0,0.6586345381526104,-0.839699808785118,-0.5430508550092121,-0.15082429716137438,0.9885605855918884,6.0,0.41379310344827586,30.0,1.0,0.0,0.0,0.0,0.0,0.0,0.0,0.0,0.0,0.0,0.0,0.0,0.0,0.0,1.0,1.0,0.0,0.0,0.0,0.0,0.0,1.0,0.0,1.0,0.0,1.0,0.0,0.8756243064489797,0.6744735314285715,-4.617688754500697,4.617688754500697,19.5581966,15.0,-0.23609992520989698,0.9999999999997834,5,0.9999999999997834,1.0,-1.661996588232961,True,-0.3670565068800004,True,-1.564094300160001,True,-0.9092210526430383,True,-0.11532030658469737,True,1.0,1.0,0.8637503069714026,-0.3
h109_strict_coeff_null_c60_t8_a_0b68b47b,1025,146,id06,2024-08-20,2024-08-19,S1,3,0.8954549884000682,0.8959698352864354,1.417783483670387e-06,0.3377485714285714,0.7720971428571428,0.5372021142857144,0.4566714285714286,0.1785714285714285,0.3825,1.0,1.0,0,2.0,1.93657810305736,1.0,1.0,0.0055115996762786,-7.210063458333783e-09,-1.417783483614876e-06,1.0,0.0,0.0,0.0,0.0,0.1814867640869667,0.1785714285714285,0.7262857142857143,0.7297142857142858,0.0,0.0,,0.5688714285714286,0.8960266401379597,0.0061211893265373,1.5910230796167824e-06,0.0061211893265373,0.0,0.0,1.0,0.2748399428571428,0.9013371564884484,1,0.9013371564884484,9.526538141963833e-08,0.5840571428571429,0.0605883148573789,0.0025008685591644,0.0005691878083733,0.996078664653354,0.5982857142857143,0.5025209256459693,0.4072595428571429,0.0644567290925564,0.0001879499485854,0.8960564726868825,0.006441449137962,1.0,-1.7434042313135834e-06,0.0,0.4542857142857143,0.4811428571428571,0.4641428571428571,0.6506171428571429,-0.0038684142351774,0.1833594285714285,1.0,0.0,1.0,0.5863453815261044,-0.51629923627004,-0.8564082546466804,-0.9983886888289513,0.05674527309307293,5.0,0.782608695652174,24.0,0.0,0.0,0.0,1.0,0.0,0.0,0.0,0.0,1.0,1.0,0.0,0.0,0.0,0.0,0.0,0.0,0.0,0.0,0.0,0.0,0.0,0.0,1.0,0.0,1.0,1.0,0.0,0.3019792995918367,0.4251408571428571,-0.927981211332041,0.927981211332041,17.5459742,14.0,-0.0528885544201922,0.9999999999989224,4,0.9999999999989224,1.0,-0.0761780231632794,True,-0.016361944257899923,True,-0.8245199421048619,True,0.0,False,-0.0109213018059998,True,1.0,1.0,0.9217564628570134,-0.24759821881842042
h109_strict_coeff_null_c60_t8_a_0b68b47b,978,139,id06,2024-07-19,2024-07-18,S3,5,0.9998322183658211,0.999999,0.0001616728804585,0.4656228571428571,0.5280971428571429,0.4865783428571429,0.1508142857142857,0.1785714285714285,0.5339149714285715,1.0,0.0,0,20.0,17.52959496159584,3.0,1.0,4.949453310907217,-4.8125692751349655e-08,-0.0001614180034248,1.0,1.0,1.0,0.0,0.0,5.6968126966891885,0.1785714285714285,0.9765714285714284,0.9765714285714284,0.0,0.0,,0.707,0.999999,5.1228301330624095,0.0001016286010929,5.1228301330624095,0.0,0.0,1.0,0.5420378857142857,0.999999,1,0.999999,1.39734928052286e-08,0.5102685714285714,3.225330133061135,0.0,0.0006646334757489,1.1631085825605856,0.9657142857142856,0.9670264094251232,0.7171987428571429,2.5,0.0001515211396148,0.9999761255879857,1.9500000000024809,1.0,-0.0001419710140791,0.0,0.4542857142857143,0.9948571428571428,0.6441428571428571,0.7005885714285714,-1.8975000000012745,0.3646849142857143,4.0,3.0,1.0,0.5582329317269076,-0.3577789366275639,-0.9338063142352645,-0.8901457403773956,-0.4556759384562435,5.0,0.4782608695652174,24.0,0.0,0.0,0.0,0.0,0.0,1.0,0.0,0.0,0.0,0.0,0.0,0.0,0.0,0.0,1.0,1.0,0.0,0.0,0.0,0.0,0.0,0.0,1.0,0.0,1.0,1.0,0.0,0.4512791240816327,0.40608277714285723,0.0259141266168769,0.0259141266168769,1.1172000000000002,1.0,0.023195602055901984,0.9999999999614111,1,0.9999999999614111,1.0,0.0,False,0.0259141266168769,True,0.0,False,0.0,False,0.0,False,0.0,0.0,0.7233889853667981,-1.0572875908110292e-12
h109_strict_coeff_null_c60_t8_a_0b68b47b,950,135,id06,2024-07-14,2024-07-13,S3,5,0.9998174319302912,0.9999690243965154,9.66556169085143e-05,0.41248,0.4153771428571429,0.4060846285714286,0.1434428571428571,0.1785714285714285,0.4921344,1.0,1.0,0,10.0,8.8123413858064,2.0,1.0,1.7740747865535766,-2.262030586979623e-08,-9.66556169085143e-05,1.0,1.0,0.0,0.0,0.0,5.8767346452884475,0.1785714285714285,0.9777142857142858,0.9777142857142858,0.0,0.0,,0.6325457142857144,0.999999,5.2073046728950665,0.0001106688193046,5.2073046728950665,1.0,0.0,1.0,0.5681642857142857,0.999999,1,0.999999,1.5611654156441006e-08,0.5173485714285715,3.3098046728945274,8.273637275291179e-08,0.0006977555522572,1.221072216450262,0.9817142857142858,0.9460383938620918,0.760486742857143,2.5,0.0001650960133852,0.9999740212292776,1.9499999999975175,1.0,-0.0001546556291109,0.0,0.4542857142857143,0.9914285714285714,0.6443142857142858,0.7002114285714286,-1.897500000000539,0.4285694857142857,6.0,5.0,1.0,0.5421686746987951,-0.2618644849608063,-0.9651046531419334,-0.7137661126871386,-0.7003841348713511,5.0,0.30434782608695654,24.0,0.0,0.0,0.0,0.0,0.0,1.0,0.0,0.0,0.0,0.0,0.0,0.0,0.0,0.0,0.0,0.0,0.0,0.0,1.0,1.0,0.0,0.0,1.0,0.0,1.0,1.0,0.0,0.4511562264489797,0.4576712342857143,-0.006953495191781553,0.061105297001421324,2.1493395840000007,2.0,-0.0032351775603730354,0.11379529325429869,2,0.11379529325429869,0.0,0.0,False,0.027075900904819886,True,-0.03402939609660144,True,0.0,False,0.0,False,1.0,1.0,0.8084621874190872,-9.748646334628574e-13
h109_strict_coeff_null_c60_t8_a_0b68b47b,1041,148,id06,2024-08-22,2024-08-21,S3,5,0.9361183144435908,0.9361373579345706,3.032468082198036e-09,0.2425085714285714,0.7161771428571428,0.2124818571428571,0.6913428571428571,0.8028571428571428,0.3338125714285714,1.0,1.0,0,0.0,0.0,0.0,0.0,0.0,0.0,0.0,0.0,0.0,0.0,0.0,0.0879823729694417,0.019916201502723,0.7988571428571428,0.3228571428571428,0.1788571428571428,0.0,0.0,,-0.6628942857142858,0.936125093118697,0.000113359828759,3.4963043571423214e-10,0.000113359828759,0.0,0.0,0.0,0.0165948571428571,0.9379886815215852,1,0.9379886815215852,6.462248414651673e-08,0.5006857142857143,0.0622834374671334,0.0017001708065911,0.000566411245282,0.9912196792435818,0.4314285714285714,0.3945004187617598,0.1392216,0.0317117943206639,2.9519338848954524e-05,0.9361208533714318,4.245719425011174e-05,1.0,-2.3390531178613116e-10,0.0,0.4542857142857143,0.4411428571428571,0.4483714285714286,0.894897142857143,0.0305716431464717,-0.0321539428571428,3.0,2.0,1.0,0.5943775100401606,-0.5588441929376089,-0.8292726741066008,-0.978409140945573,0.20667741268495202,5.0,0.8695652173913043,24.0,0.0,0.0,0.0,0.0,0.0,1.0,0.0,0.0,0.0,0.0,0.0,0.0,1.0,1.0,0.0,0.0,0.0,0.0,0.0,0.0,0.0,0.0,1.0,0.0,1.0,0.0,1.0,0.0,0.035968548571428616,0.0,0.0,0.0,0.0,0.0,0.0,0,0.0,0.0,0.0,False,0.0,False,0.0,False,0.0,False,0.0,False,0.0,0.0,0.1724253305142857,2.842170943040401e-15
h109_strict_coeff_null_c60_t8_a_0b68b47b,949,135,id06,2024-07-14,2024-07-13,S2,4,0.9120002370412033,0.9128559625035724,4.575502052239777e-06,0.3906628571428571,0.4153771428571429,0.2220676,0.6870285714285714,0.6325714285714286,0.400656,0.0,1.0,0,0.0,0.0,0.0,0.0,0.0,0.0,0.0,0.0,0.0,0.0,0.0,0.0306072182800029,0.0387905347810696,0.6485714285714286,0.4114285714285714,0.3845714285714285,0.0,0.0,,-0.6916942857142857,0.9128484616979826,0.0106153362211465,4.091754492618893e-06,0.0106153362211465,0.0,0.0,0.0,0.0204137714285714,0.9250982584531292,1,0.9250982584531292,2.2462660630838865e-07,0.7114057142857144,0.1055641087159346,0.0028894661390598,0.0005657735831001,0.9901037704252228,0.4017142857142857,0.1604154161182626,0.1480686857142857,0.1754166861823174,0.0011206919463118,0.916900949362351,0.062660043836634,1.0,0.0001017187385513,0.0001017187385513,0.9645714285714284,0.7251428571428571,0.8401142857142857,0.9117314285714286,-0.0698525774663827,-0.1410235428571428,6.0,5.0,1.0,0.5421686746987951,-0.2618644849608063,-0.9651046531419334,-0.7137661126871386,-0.7003841348713511,5.0,0.30434782608695654,24.0,0.0,0.0,0.0,0.0,1.0,0.0,0.0,0.0,0.0,0.0,0.0,0.0,0.0,0.0,0.0,0.0,0.0,0.0,1.0,1.0,0.0,0.0,1.0,0.0,1.0,1.0,0.0,0.765958597877551,0.5573068457142858,-1.1996481604625246,1.1996481604625246,12.410861984000002,11.0,-0.09666114746977335,0.9999999999991663,4,0.9999999999991663,1.0,-0.3281779660470133,True,0.0,False,-0.06625208238483939,True,-0.6989797120588503,True,-0.10623839997182152,True,1.0,1.0,0.8681839538284712,2.131628207280301e-15
h109_strict_coeff_null_c60_t8_a_0b68b47b,468,66,id03,2024-08-25,2024-08-24,S4,6,0.1090691589631718,0.0925354210128106,0.0014742532697309,0.8057142857142858,0.7341371428571428,0.7542016571428571,0.0691285714285714,0.1785714285714285,0.7550506285714286,1.0,0.0,0,21.0,18.02115831398056,3.0,1.0,-0.1881848605189606,-1.5056521501758397e-06,-0.0014624604662128,1.0,1.0,1.0,0.0,0.0,0.3646583484587129,0.1785714285714285,0.8971428571428571,0.8982857142857142,0.0,0.0,,0.8934485714285715,0.0924883739882124,-0.1833387890417324,0.0013539945243964,0.1833387890417324,1.0,0.0,1.0,0.7671149714285714,0.0952705938276586,0,0.9047294061723412,5.966091239426189e-07,0.7746057142857143,-0.1506300634424677,0.0009894389397965,0.0005843699411908,1.022647397083944,0.8577142857142858,0.714702836958023,0.8270308571428571,-0.1506300634424677,0.0010184797228693,0.0925131714101652,-0.1830433860360547,1.0,-0.0014828619683357,0.0,0.4542857142857143,0.9422857142857144,0.6639428571428572,0.0,6.661338147750939e-16,0.5394198857142858,6.0,5.0,1.0,0.26506024096385544,0.995526272808559,-0.09448513188803123,-0.9599762679439228,0.2800813542249071,2.0,0.35,21.0,0.0,0.0,0.0,0.0,0.0,0.0,1.0,0.0,0.0,0.0,0.0,0.0,0.0,0.0,0.0,0.0,0.0,0.0,1.0,1.0,0.0,0.0,1.0,0.0,1.0,0.0,0.0,0.0,0.2891459885714286,0.0,0.0,0.0,0.0,0.0,0.0,0,0.0,0.0,0.0,False,0.0,False,0.0,False,0.0,False,0.0,False,0.0,0.0,0.2731596909714286,-2.131628207280301e-15
h109_strict_coeff_null_c60_t8_a_0b68b47b,775,110,id05,2024-10-02,2024-10-01,S3,5,0.1128446788230897,0.1119846933062383,3.7020060912884567e-06,0.3538171428571429,0.2893571428571428,0.0671582857142857,0.7699999999999999,0.7634285714285715,0.3798390857142857,0.0,1.0,0,0.0,0.0,0.0,0.0,0.0,0.0,0.0,0.0,0.0,0.0,0.0,0.0936749602624233,0.0048962969533286,0.8057142857142857,0.208,0.1788571428571428,0.0,0.0,,-0.780597142857143,0.1120125118209247,-0.0083393493512811,3.154646572578468e-06,0.0083393493512811,0.0,0.0,0.0,-0.0356787714285714,0.1130985572722478,0,0.8869014427277522,5.19959802926101e-08,0.3897028571428571,0.0433885457595315,0.001504074670862,0.0005668465044179,0.991981382731413,0.4611428571428571,0.5270455492328706,0.1357423428571428,0.0025334896482731,3.217043242353945e-07,0.1129004893696817,0.0005573677226196,1.0,4.793754068144196e-07,4.793754068144196e-07,0.9091428571428573,0.4451428571428571,0.7007714285714287,0.8992685714285714,0.0408550561112579,-0.1574324571428571,2.0,1.0,1.0,0.44176706827309237,0.3577789366275641,-0.9338063142352645,0.8901457403773968,-0.45567593845624127,4.0,0.15,21.0,0.0,0.0,0.0,0.0,0.0,1.0,0.0,0.0,0.0,0.0,1.0,1.0,0.0,0.0,0.0,0.0,0.0,0.0,0.0,0.0,0.0,0.0,1.0,0.0,1.0,0.0,1.0,0.0,-0.005821531428571405,0.0,0.0,0.0,0.0,0.0,0.0,0,0.0,0.0,0.0,False,0.0,False,0.0,False,0.0,False,0.0,False,0.0,0.0,0.1638040873142857,-1.4210854715202005e-15
h109_strict_coeff_null_c60_t8_a_0b68b47b,418,59,id03,2024-08-17,2024-08-16,S3,5,0.4914079862891782,0.5207319786114325,0.0017201314913561,0.7023542857142858,0.2099771428571428,0.1239880571428571,0.6545428571428571,0.7622857142857142,0.4742742857142856,1.0,1.0,1,2.0,3.6,1.0,1.0,0.0187755082728389,-4.406422012923495e-07,-0.0005037629273076,0.0,0.0,0.0,1.0,0.027019398725474,0.1019272240005926,0.6262857142857143,0.5731428571428572,0.5354285714285715,1.0,1.0,episode_neighbor_q061,0.4107742857142857,0.5207546045569594,0.1174375865253018,0.001567832060321,0.1174375865253018,0.0,0.0,1.0,0.0651145142857143,0.5042616426712064,0,0.5042616426712064,1.8030993461917497e-07,0.4621257142857143,0.0514184217929981,0.0052836133444926,0.000568057092225,0.994099911393886,0.5354285714285715,0.4947751140802287,0.3338630857142857,0.0514184217929984,0.0003304696271168,0.4914079862891782,0.0,0.0,0.0,0.0,0.4542857142857143,0.2202857142857142,0.0,0.0,3.434752482434078e-16,0.2971654857142857,5.0,4.0,1.0,0.23694779116465864,0.9966391096058345,0.08191755125789245,-0.9698873816105272,-0.24355382771099207,2.0,0.0,21.0,0.0,0.0,0.0,0.0,0.0,1.0,0.0,0.0,0.0,0.0,0.0,0.0,0.0,0.0,0.0,0.0,1.0,1.0,0.0,0.0,0.0,0.0,1.0,0.0,1.0,0.0,0.0,0.0,-0.027426308571428595,0.0,0.0,0.0,0.0,0.0,0.0,0,0.0,0.0,0.0,False,0.0,False,0.0,False,0.0,False,0.0,False,0.0,0.0,0.14361265051428573,-1.099120794378905e-15
h109_strict_coeff_null_c60_t8_a_0b68b47b,445,63,id03,2024-08-21,2024-08-20,S2,4,0.4934571823608755,0.5171946013397078,0.0011270797424255,0.8294628571428572,0.5162771428571429,0.6601655428571429,0.1193857142857143,0.1785714285714285,0.7361880000000001,1.0,0.0,0,8.0,7.454869048437761,2.0,1.0,0.0949783019691543,-3.510394435369524e-06,-0.0011270797424255,1.0,1.0,0.0,0.0,0.0,0.0891673539340589,0.1785714285714285,0.5434285714285715,0.5708571428571428,0.0,0.0,,0.818302857142857,0.5172013161983613,0.0950051932182444,0.0010262657014062,0.0950051932182444,1.0,0.0,1.0,0.6693176285714285,0.5055327205796207,1,0.5055327205796207,1.64123225819808e-07,0.4911542857142856,0.0483045501618129,0.0044916790742941,0.0005635961710077,0.98629329926353,0.3022857142857142,0.7190095884822229,0.4495746857142857,0.0483045501618132,0.0002916540927192,0.5121289985550052,0.074698278512986,1.0,-0.0010762211502418,0.0,0.4542857142857143,0.772,0.6079714285714286,0.0,3.41740524767431e-16,0.4778847999999999,2.0,1.0,1.0,0.25301204819277107,0.9998209226697378,-0.01892412724101873,-0.9983886888289513,0.05674527309307318,2.0,0.2,21.0,0.0,0.0,0.0,0.0,1.0,0.0,0.0,0.0,0.0,0.0,1.0,1.0,0.0,0.0,0.0,0.0,0.0,0.0,0.0,0.0,0.0,0.0,1.0,0.0,1.0,0.0,0.0,0.0,0.2521176228571429,0.0,0.0,0.0,0.0,0.0,0.0,0,0.0,0.0,0.0,False,0.0,False,0.0,False,0.0,False,0.0,False,0.0,0.0,0.26860180205714285,-1.0935696792557792e-15
h109_strict_coeff_null_c60_t8_a_0b68b47b,536,76,id03,2024-10-04,2024-10-03,S2,4,0.4959453022668407,0.4789472530357377,0.0005781230604299,0.6032057142857143,0.3049971428571428,0.1012926857142857,0.7354571428571429,0.7782857142857142,0.406962,1.0,1.0,1,0.0,0.0,0.0,0.0,0.0,0.0,0.0,0.0,0.0,0.0,0.0,0.0346567561313344,0.0439054651962622,0.6668571428571428,0.4291428571428571,0.3874285714285714,0.0,0.0,,-0.7385485714285714,0.4789333976016777,-0.0680971797350643,0.000526975970855,0.0680971797350643,0.0,0.0,0.0,-0.1428993428571428,0.4878794619814485,0,0.5121205380185514,7.371311896108029e-08,0.3363885714285713,-0.0322725054674871,0.0017431846134587,0.0005526762905972,0.9671835085452172,0.1125714285714285,0.2958517527540331,0.0081015428571428,-0.0322725054674873,0.0001301411133665,0.4959453022668407,0.0,0.0,0.0,0.0,0.4542857142857143,0.2202857142857142,0.0,0.0,3.3827107781547743e-16,0.1020129142857142,4.0,3.0,1.0,0.30522088353413657,0.9404097448144256,-0.3400433970217137,-0.5054532658565805,0.862853983032423,2.0,0.85,21.0,0.0,0.0,0.0,0.0,1.0,0.0,0.0,0.0,0.0,0.0,0.0,0.0,0.0,0.0,1.0,1.0,0.0,0.0,0.0,0.0,0.0,0.0,1.0,0.0,1.0,0.0,0.0,0.0,-0.12406728000000002,0.0,0.0,0.0,0.0,0.0,0.0,0,0.0,0.0,0.0,False,0.0,False,0.0,False,0.0,False,0.0,False,0.0,0.0,0.1259322402285714,-1.0824674490095276e-15
h109_strict_coeff_null_c60_t8_a_0b68b47b,860,122,id05,2024-11-14,2024-11-13,S4,6,0.4996549110062109,0.5222188988437275,0.0010185923153628,0.6499085714285715,0.6462571428571428,0.6360654285714284,0.1146142857142857,0.1785714285714285,0.5874617142857143,1.0,0.0,0,25.0,25.17191757524078,4.0,1.0,0.076461769132874,-8.381210728168225e-07,-0.0009232300528178,1.0,1.0,1.0,1.0,0.0,0.1540255699964995,0.1785714285714285,0.6811428571428572,0.6908571428571428,1.0,1.0,seed_q061_companion,0.8279428571428572,0.5222353527597416,0.0903804683752584,0.0009283294805308,0.0903804683752584,1.0,0.0,1.0,0.6851529714285713,0.5139925460402868,0,0.5139925460402868,2.244811852046824e-07,0.38528,0.0573651585286545,0.000913653403456,0.0005809928923962,1.0167375616935022,0.832,0.5243540942681952,0.7702033142857143,0.0573651585286547,0.000411186688217,0.5204250956082137,0.0831262296977514,1.0,-0.0010135132054051,0.0,0.4542857142857143,0.7891428571428571,0.6117428571428571,0.0,3.3350058825654116e-16,0.4638696,3.0,2.0,1.0,0.4899598393574297,0.06304235635795515,-0.9980108522981284,0.18812486236863374,-0.9821451197042027,4.0,0.75,21.0,0.0,0.0,0.0,0.0,0.0,0.0,1.0,0.0,0.0,0.0,0.0,0.0,1.0,1.0,0.0,0.0,0.0,0.0,0.0,0.0,0.0,0.0,1.0,0.0,1.0,0.0,0.0,0.0,0.15392124571428575,0.0,0.0,0.0,0.0,0.0,0.0,0,0.0,0.0,0.0,False,0.0,False,0.0,False,0.0,False,0.0,False,0.0,0.0,0.2639731869714286,-1.0672018824209318e-15
h109_strict_coeff_null_c60_t8_a_0b68b47b,865,123,id05,2024-11-16,2024-11-15,S2,4,0.2269255776844951,0.2348794569695953,0.0001788518159778,0.4264571428571428,0.5219571428571429,0.0406773428571429,0.8135428571428571,0.7548571428571429,0.2422619999999999,0.0,1.0,1,3.0,5.4,1.0,1.0,0.0074653747602854,-1.491783435586821e-07,-5.427935857752845e-05,0.0,0.0,0.0,1.0,0.1091140936368432,0.0193105340394478,0.8262857142857143,0.3171428571428571,0.1788571428571428,1.0,1.0,episode_neighbor_q061,0.23782,0.2348442735523141,0.0445964607437667,0.0001612352553828,0.0445964607437667,0.0,0.0,1.0,-0.1614232857142857,0.2172733853897546,0,0.7827266146102454,1.510783939045624e-07,0.4797600000000001,-0.0558738736215054,0.0006060281538065,0.000566669432459,0.9916715068032828,0.4502857142857143,0.3288196346175127,0.1813419999999999,-0.0558738736215049,0.0002682569418617,0.2269255776844951,0.0,0.0,0.0,0.0,0.4542857142857143,0.2202857142857142,0.0,0.0,3.3306690738754696e-16,0.0709011428571428,5.0,4.0,1.0,0.4939759036144578,0.03784147671767042,-0.9992837548163315,0.1133076776012707,-0.9935599479631848,4.0,0.8,21.0,0.0,0.0,0.0,0.0,1.0,0.0,0.0,0.0,0.0,0.0,0.0,0.0,0.0,0.0,0.0,0.0,1.0,1.0,0.0,0.0,0.0,0.0,1.0,0.0,1.0,0.0,0.0,0.0,-0.15493274285714287,0.0,0.0,0.0,0.0,0.0,0.0,0,0.0,0.0,0.0,False,0.0,False,0.0,False,0.0,False,0.0,False,0.0,0.0,0.10719917599999995,-1.0658141036401504e-15
h109_strict_coeff_null_c60_t8_a_0b68b47b,850,121,id05,2024-11-13,2024-11-12,S1,3,0.1809913980991527,0.1837501519279108,2.5570604808622388e-05,0.2206114285714286,0.513257142857143,0.0938977714285714,0.7591428571428571,0.6937142857142857,0.3191317714285713,1.0,1.0,0,3.0,5.4,1.0,1.0,0.0030835918927663,4.89578912325913e-09,-7.772293758904574e-06,0.0,0.0,0.0,1.0,0.0945684979855081,0.0245117111891306,0.808,0.344,0.1788571428571428,1.0,1.0,episode_neighbor_q061,0.2261485714285713,0.1837158365023646,0.0182727439940215,2.2689002879161535e-05,0.0182727439940215,0.0,1.0,1.0,0.2273314857142856,0.2014489929485611,0,0.7985510070514388,1.1947339084362513e-08,0.3671771428571428,-0.0162161610295907,0.0041270808236177,0.0005379652064943,0.9414391113651246,0.0634285714285714,0.0344207583369411,0.0510105142857143,0.1323824493158703,0.0013725685709601,0.1809913980991527,0.0,0.0,0.0,0.0,0.4542857142857143,0.2202857142857142,0.0,0.9621485714285716,-0.1485986103454615,0.2418818285714286,2.0,1.0,1.0,0.4859437751004016,0.08820309663897652,-0.996102511663983,0.2618644849608076,-0.965104653141933,4.0,0.7,21.0,0.0,0.0,0.0,1.0,0.0,0.0,0.0,0.0,0.0,0.0,1.0,1.0,0.0,0.0,0.0,0.0,0.0,0.0,0.0,0.0,0.0,0.0,1.0,0.0,1.0,0.0,0.0,0.0,0.06378818285714286,0.0,0.0,0.0,0.0,0.0,0.0,0,0.0,0.0,0.0,False,0.0,False,0.0,False,0.0,False,0.0,False,0.0,0.0,0.1863256187428571,-1.0658141036401504e-15
h109_strict_coeff_null_c60_t8_a_0b68b47b,1358,194,id08,2024-09-09,2024-09-08,Q1,0,0.1795397979872517,0.1824977116798246,2.957139741632808e-05,0.3440914285714285,0.647297142857143,0.0058568,0.9539428571428572,0.9342857142857144,0.3540896,0.0,1.0,0,0.0,0.0,0.0,0.0,0.0,0.0,0.0,0.0,0.0,0.0,0.0,0.3830161753554608,0.0,0.9628571428571427,0.0777142857142857,0.1788571428571428,0.0,0.0,,-0.7828371428571429,0.1823884738030219,0.0192200724645124,2.495591387613461e-05,0.0192200724645124,0.0,0.0,0.0,0.0323433714285714,0.1879685316538867,0,0.8120314683461133,3.147683883859422e-07,0.6196342857142857,-0.0847203035645463,0.0007565634305787,0.0004967037510494,0.8692315643364872,0.024,0.673047336872372,-0.0088307428571428,0.056203976107692,0.0002382675947435,0.1795397979872517,0.0,0.0,0.0,0.0,0.4542857142857143,0.2202857142857142,0.0,0.9567485714285714,-0.116722585289218,0.0943808,0.0,6.0,1.0,0.7791164658634538,-0.9833123395532226,0.18192537723574445,0.8531342035272765,-0.5216915092004848,7.0,0.6666666666666666,19.0,1.0,0.0,0.0,0.0,0.0,0.0,0.0,1.0,0.0,0.0,0.0,0.0,0.0,0.0,0.0,0.0,0.0,0.0,0.0,0.0,1.0,1.0,0.0,1.0,0.0,0.0,0.0,0.0,0.1806167657142858,0.0,0.0,0.0,0.0,0.0,0.0,0,0.0,0.0,0.0,False,0.0,False,0.0,False,0.0,False,0.0,False,0.0,0.0,0.16813799634285712,-1.0658141036401504e-15
h109_strict_coeff_null_c60_t8_a_0b68b47b,1573,224,id09,2024-09-19,2024-09-18,S3,5,0.7129285037891734,0.7211878305107203,0.000167629338818,0.5134571428571428,0.4825571428571429,0.4878233714285714,0.2200714285714285,0.1785714285714285,0.5214918857142857,1.0,0.0,0,21.0,18.02115831398056,3.0,1.0,0.0409313682780418,-1.2493271401437097e-07,-0.0001667506969295,1.0,1.0,1.0,0.0,0.0,0.1973729143101904,0.1785714285714285,0.7588571428571429,0.7605714285714286,0.0,0.0,,0.6840942857142859,0.7212217961016458,0.0408803755622144,0.0001538670549946,0.0408803755622144,1.0,0.0,1.0,0.5096618571428572,0.7290951861931715,1,0.7290951861931715,3.570338549263928e-07,0.6629714285714287,0.0803869360363587,0.0047125971288627,0.0005642771807205,0.9874850662609996,0.3314285714285714,0.5211593341111387,0.4018705714285714,0.0803869360363582,0.0006459462593852,0.7246611792588173,0.0580519522141629,1.0,-0.0001394474974755,0.0,0.4542857142857143,0.7091428571428572,0.5582571428571429,0.0,-2.775557561562891e-16,0.3250262857142857,3.0,2.0,1.0,0.8995983935742972,-0.589824826065802,0.8075312220319698,-0.9486899975206162,-0.3162076668968245,8.0,0.8846153846153846,27.0,0.0,0.0,0.0,0.0,0.0,1.0,0.0,0.0,0.0,0.0,0.0,0.0,1.0,1.0,0.0,0.0,0.0,0.0,0.0,0.0,0.0,0.0,1.0,0.0,1.0,0.0,0.0,0.0,0.2425969142857143,0.0,0.0,0.0,0.0,0.0,0.0,0,0.0,0.0,0.0,False,0.0,False,0.0,False,0.0,False,0.0,False,0.0,0.0,0.260578048,8.881784197001252e-16
h109_strict_coeff_null_c60_t8_a_0b68b47b,84,12,id01,2024-08-15,2024-08-14,Q1,0,0.453770481429502,0.4375029916535805,0.0005350047503429,0.5507085714285715,0.6085171428571429,0.2074731142857143,0.5971714285714286,0.8685714285714285,0.4846297142857143,1.0,1.0,0,6.0,8.273738158986857,2.0,1.0,-0.0426582400496008,-2.4164926157238984e-07,-0.0004279702831333,1.0,0.0,0.0,1.0,0.2097271977993491,0.0,0.912,0.0777142857142857,0.1788571428571428,1.0,1.0,seed_q061_companion,0.4852085714285715,0.437545422365418,-0.0656821285861189,0.000484398839444,0.0656821285861189,1.0,0.0,1.0,0.4441707714285715,0.472076217174739,0,0.527923782825261,3.740888151554267e-07,0.5249485714285714,0.0736362554397666,0.001925200568749,0.0005664829237354,0.991345116537023,0.436,0.5201658736608709,0.3774796000000001,0.0736362554397668,0.0006745963928045,0.4598000161257053,0.0242999642951229,1.0,0.0004675014509478,0.0004675014509478,0.9977142857142856,0.5674285714285714,0.8319428571428571,0.0,2.775557561562891e-16,0.2116419428571428,3.0,2.0,1.0,0.04819277108433735,0.29819791104666543,0.9545040627715552,0.7885283215303659,0.6149984440179536,0.0,0.46153846153846156,27.0,1.0,0.0,0.0,0.0,0.0,0.0,0.0,0.0,0.0,0.0,0.0,0.0,1.0,1.0,0.0,0.0,0.0,0.0,0.0,0.0,0.0,1.0,0.0,1.0,0.0,0.0,0.0,0.0,0.42059390857142853,0.0,0.0,0.0,0.0,0.0,0.0,0,0.0,0.0,0.0,False,0.0,False,0.0,False,0.0,False,0.0,False,0.0,0.0,0.18868585348571426,-8.881784197001252e-16
h109_strict_coeff_null_c60_t8_a_0b68b47b,1175,167,id07,2024-08-15,2024-08-14,S4,6,0.4187952550026659,0.4153738905065821,2.406423207745867e-05,0.3569657142857143,0.6460971428571429,0.1602490857142856,0.8935428571428572,0.8211428571428572,0.3810195428571428,1.0,1.0,0,0.0,0.0,0.0,0.0,0.0,0.0,0.0,0.0,0.0,0.0,0.0,0.1786892572201537,0.0,0.8977142857142857,0.0777142857142857,0.1788571428571428,0.0,0.0,,-0.7058085714285716,0.4154237161616416,-0.0138673346538145,2.1266172281819703e-05,0.0138673346538145,0.0,0.0,0.0,0.0724438857142857,0.397893060653096,0,0.6021069393469041,3.735135839635843e-08,0.2687657142857143,0.023777535904542,0.0024743494451238,0.0005553987812059,0.97194786711036,0.1428571428571428,0.4706968753010347,0.0426798857142857,-0.0865308454366386,0.0009019509107703,0.4187952550026659,0.0,0.0,0.0,0.0,0.4542857142857143,0.2202857142857142,0.0,0.9521142857142858,0.1103083813411807,0.1436223999999999,3.0,2.0,1.0,0.6706827309236948,-0.8783652016699012,-0.4779901384917829,0.07562874588445713,0.997136045279652,6.0,0.5172413793103449,30.0,0.0,0.0,0.0,0.0,0.0,0.0,1.0,0.0,0.0,0.0,0.0,0.0,1.0,1.0,0.0,0.0,0.0,0.0,0.0,0.0,0.0,0.0,1.0,0.0,1.0,0.0,0.0,0.0,0.0435450971428572,0.0,0.0,0.0,0.0,0.0,0.0,0,0.0,0.0,0.0,False,0.0,False,0.0,False,0.0,False,0.0,False,0.0,0.0,0.17163149531428568,-7.993605777301126e-16
h109_strict_coeff_null_c60_t8_a_0b68b47b,684,97,id04,2024-10-18,2024-10-17,S3,5,0.479631624236183,0.4804097350267681,1.2128747800543849e-06,0.1991085714285714,0.3319371428571428,0.1160379999999999,0.6367428571428572,0.6302857142857143,0.2820034285714286,1.0,1.0,0,0.0,0.0,0.0,0.0,0.0,0.0,0.0,0.0,0.0,0.0,0.0,0.0165078907724509,0.038610001902934,0.5588571428571428,0.4102857142857143,0.4171428571428571,0.0,0.0,,-0.7043457142857144,0.4804153696138951,0.0031399943509431,1.1197551992303545e-06,0.0031399943509431,0.0,0.0,0.0,0.0171502285714285,0.4965007889004909,1,0.5034992110995091,8.87769268920184e-08,0.2819314285714285,0.0359390460301221,0.0017813135498686,0.0005652600399335,0.9892050698837253,0.372,0.2387742994725407,0.1196924571428571,0.0675215430277943,0.000569669006841,0.4799336266508728,0.0012099879885599,1.0,-7.656143358181211e-07,0.0,0.4542857142857143,0.4525714285714285,0.4532571428571428,0.9015142857142858,-0.0315824969976724,-0.0319545142857143,4.0,3.0,1.0,0.3895582329317269,0.6395602484380403,-0.7687409762838665,0.8722647273621938,0.4890339920698331,3.0,0.6538461538461539,27.0,0.0,0.0,0.0,0.0,0.0,1.0,0.0,0.0,0.0,0.0,0.0,0.0,0.0,0.0,1.0,1.0,0.0,0.0,0.0,0.0,0.0,0.0,1.0,0.0,1.0,1.0,0.0,0.4086177893877551,0.08249597714285717,0.0,0.0,0.0,0.0,0.0,0.0,0,0.0,0.0,0.0,False,0.0,False,0.0,False,0.0,False,0.0,False,0.0,0.0,0.26829639908571423,-7.549516567451064e-16
h109_strict_coeff_null_c60_t8_a_0b68b47b,1344,192,id08,2024-09-05,2024-09-04,Q1,0,0.2078446697905825,0.2019298394949684,0.0001069993861328,0.5079428571428571,0.5613171428571428,0.5221525142857142,0.2331285714285714,0.1785714285714285,0.4444336,1.0,1.0,0,17.0,15.60862380962552,3.0,1.0,-0.0374014029034862,-1.8876287295872593e-07,-0.000106348726536,1.0,1.0,1.0,0.0,0.0,0.175022385693853,0.1785714285714285,0.7182857142857143,0.7211428571428572,0.0,0.0,,0.6935228571428571,0.2018967164225355,-0.036515279598237,9.851612826983214e-05,0.036515279598237,1.0,0.0,1.0,0.4984923714285714,0.2010532561358056,1,0.7989467438641944,7.879397685237152e-08,0.34336,-0.0417579854771843,0.0004242170885979,0.0005671018187459,0.9924281828053813,0.4777142857142857,0.7284423432957309,0.4538162857142857,-0.0417579854771839,0.0001412145219396,0.2008860418385309,-0.0427992946119057,1.0,-0.0001050279467105,0.0,0.4542857142857143,0.6451428571428571,0.5358857142857143,0.0,2.220446049250313e-16,0.3199352,3.0,2.0,1.0,0.7710843373493976,-0.9912377749919373,0.13208964164170242,0.9220586030376134,-0.3870502972022174,7.0,0.5555555555555556,19.0,1.0,0.0,0.0,0.0,0.0,0.0,0.0,0.0,0.0,0.0,0.0,0.0,1.0,1.0,0.0,0.0,0.0,0.0,0.0,0.0,0.0,1.0,0.0,1.0,0.0,0.0,0.0,0.0,0.12544780571428574,0.0,0.0,0.0,0.0,0.0,0.0,0,0.0,0.0,0.0,False,0.0,False,0.0,False,0.0,False,0.0,False,0.0,0.0,0.2556375293714286,-7.105427357601002e-16
h109_strict_coeff_null_c60_t8_a_0b68b47b,1613,230,id10,2024-08-07,2024-08-06,S1,3,0.1942143652689266,0.1828677684139628,0.0004176173432147,0.4757257142857143,0.1591771428571428,0.3162997142857143,0.1918428571428571,0.1785714285714285,0.4288313142857143,1.0,1.0,0,16.0,15.182109962689523,3.0,1.0,-0.0761321032538616,-3.188857558314503e-07,-0.0004144555087079,1.0,1.0,1.0,0.0,0.0,0.297486197984483,0.1785714285714285,0.8537142857142858,0.8554285714285714,0.0,0.0,,0.6467057142857142,0.1828201133505269,-0.0745013472642204,0.0003836686884775,0.0745013472642204,0.0,0.0,1.0,0.4655116571428572,0.178005568440287,0,0.821994431559713,4.970049296369669e-07,0.7935771428571429,-0.1070635669795698,0.0028916640083101,0.0005756976000057,1.007470800010126,0.7594285714285715,0.5310285989836936,0.5996448000000001,-0.1070635669795692,0.0008579644151548,0.1793107964376611,-0.0981686655969964,1.0,-0.000379527559464,0.0,0.4542857142857143,0.8325714285714285,0.6093428571428572,0.0,2.220446049250313e-16,0.2479134857142856,2.0,1.0,1.0,0.9236947791164659,-0.4612822464534058,0.8872534525753616,-0.9912377749919372,0.1320896416417037,9.0,0.09523809523809523,22.0,0.0,0.0,0.0,1.0,0.0,0.0,0.0,0.0,0.0,0.0,1.0,1.0,0.0,0.0,0.0,0.0,0.0,0.0,0.0,0.0,0.0,0.0,1.0,0.0,1.0,0.0,0.0,0.0,0.20880734857142857,0.0,0.0,0.0,0.0,0.0,0.0,0,0.0,0.0,0.0,False,0.0,False,0.0,False,0.0,False,0.0,False,0.0,0.0,0.2553708253714285,-7.105427357601002e-16
h109_strict_coeff_null_c60_t8_a_0b68b47b,1152,164,id07,2024-07-26,2024-07-25,S2,4,0.7538345402841149,0.7500709494352068,3.8035724328921994e-05,0.2278685714285714,0.5277371428571428,0.1399890285714284,0.7647714285714287,0.7068571428571429,0.339762,1.0,1.0,0,4.0,7.150759261260218,1.0,1.0,-0.0090085858636104,1.1216877966442056e-08,-2.598463029362642e-05,0.0,0.0,0.0,1.0,0.0840149022542807,0.0082219878324713,0.7925714285714286,0.24,0.1788571428571428,1.0,1.0,seed_q061_companion,0.2385142857142857,0.7501270305095151,-0.0198790915093278,3.358262319086425e-05,0.0198790915093278,0.0,1.0,1.0,0.2436715999999999,0.7215187706973304,1,0.7215187706973304,5.40396334747948e-09,0.3106057142857142,-0.0097533200951613,0.0028053014211901,0.0005328107600353,0.9324188300618762,0.0531428571428571,0.0354539206980433,0.0710665142857142,-0.1671612547593745,0.0027367644722983,0.7358102184035964,-0.0948644755418399,1.0,0.0004966030815453,0.0004966030815453,1.0,0.8205714285714286,0.9102571428571428,0.9704057142857144,0.1574079346642131,0.0213868571428571,4.0,3.0,1.0,0.6586345381526104,-0.839699808785118,-0.5430508550092121,-0.15082429716137438,0.9885605855918884,6.0,0.41379310344827586,30.0,0.0,0.0,0.0,0.0,1.0,0.0,0.0,0.0,0.0,0.0,0.0,0.0,0.0,0.0,1.0,1.0,0.0,0.0,0.0,0.0,0.0,0.0,1.0,0.0,1.0,1.0,0.0,0.8833187328979593,0.36941297142857143,0.0,0.0,0.0,0.0,0.0,0.0,0,0.0,0.0,0.0,False,0.0,False,0.0,False,0.0,False,0.0,False,0.0,0.0,0.25906871885714283,-7.105427357601002e-16
h109_strict_coeff_null_c60_t8_a_0b68b47b,1147,163,id07,2024-07-25,2024-07-24,S4,6,0.313170502559186,0.3179880779430268,5.3801803711062135e-05,0.3996685714285714,0.4828971428571429,-0.0460948571428571,0.9666,0.936,0.4247862857142856,1.0,1.0,0,3.0,5.4,1.0,1.0,0.0037175084971993,-8.605756845896571e-09,-1.6360486752501714e-05,0.0,0.0,0.0,1.0,0.4164040925550456,0.0,0.9697142857142858,0.0777142857142857,0.1788571428571428,1.0,1.0,episode_neighbor_q061,0.2845942857142858,0.3178738994320464,0.0217785208880832,4.666082904747349e-05,0.0217785208880832,0.0,0.0,1.0,0.1794163999999999,0.3306661834444417,0,0.6693338165555582,4.76357941734445e-07,0.64696,-0.0864581017266703,0.0009141269107894,0.0005429679470228,0.9501939072899842,0.0748571428571428,0.8907675955172624,0.0858785142857142,0.080164741532995,0.000704606018848,0.313170502559186,0.0,0.0,0.0,0.0,0.4542857142857143,0.2202857142857142,0.0,0.9742685714285716,-0.166622843259665,0.2460150857142857,3.0,2.0,1.0,0.6546184738955824,-0.8257307732991008,-0.564064437832123,-0.2251559405226937,0.9743227403932134,6.0,0.3793103448275862,30.0,0.0,0.0,0.0,0.0,0.0,0.0,1.0,0.0,0.0,0.0,0.0,0.0,1.0,1.0,0.0,0.0,0.0,0.0,0.0,0.0,0.0,0.0,1.0,0.0,1.0,0.0,0.0,0.0,0.2177300228571429,-0.1747415691861325,0.1747415691861325,1.1172000000000002,1.0,-0.15641028391154319,0.9999999999942772,1,0.9999999999942772,1.0,0.0,False,-0.1747415691861325,True,0.0,False,0.0,False,0.0,False,0.0,1.0,0.656167098056456,-7.105427357601002e-16
h109_strict_coeff_null_c60_t8_a_0b68b47b,1619,231,id10,2024-08-08,2024-08-07,Q3,2,0.5015760727110592,0.5192647982166482,0.0006259654039927,0.1214457142857142,0.2357971428571428,-0.0739177714285714,0.6950571428571429,0.7582857142857143,0.2431511428571428,1.0,1.0,0,0.0,0.0,0.0,0.0,0.0,0.0,0.0,0.0,0.0,0.0,0.0,0.0757677056292562,0.0097566571652209,0.7794285714285715,0.2485714285714285,0.1788571428571428,0.0,0.0,,-0.79368,0.5192276420464461,0.0706442021461748,0.0005672623256455,0.0706442021461748,0.0,0.0,0.0,0.1802529999999999,0.493652598418547,0,0.506347401581453,7.204740881055409e-08,0.3068685714285714,-0.031695282094883,0.0008049530597525,0.0005613568379249,0.9823744663686724,0.2428571428571428,0.1765654284706684,0.0856046285714285,-0.0316952820948838,0.0001255652114084,0.5093495017965693,0.0310980551485602,1.0,-0.0004280533687259,0.0,0.4542857142857143,0.5931428571428572,0.5394000000000001,0.0,-2.207435623180487e-16,0.0308479999999999,3.0,2.0,1.0,0.927710843373494,-0.43874910597176553,0.898609604894682,-0.9784091409455726,0.20667741268495352,9.0,0.14285714285714285,22.0,0.0,0.0,1.0,0.0,0.0,0.0,0.0,0.0,0.0,0.0,0.0,0.0,1.0,1.0,0.0,0.0,0.0,0.0,0.0,0.0,0.0,1.0,0.0,1.0,0.0,0.0,0.0,0.0,0.0952905142857143,0.0,0.0,0.0,0.0,0.0,0.0,0,0.0,0.0,0.0,False,0.0,False,0.0,False,0.0,False,0.0,False,0.0,0.0,0.17989116342857142,7.063793994177559e-16
h109_strict_coeff_null_c60_t8_a_0b68b47b,1108,158,id07,2024-07-20,2024-07-19,Q3,2,0.4629441071163506,0.4687766239024657,6.837420692007434e-05,0.4532914285714286,0.4115171428571429,-0.0301147714285713,0.9566285714285714,0.9194285714285716,0.4384657142857143,0.0,1.0,0,3.0,5.350759261260217,1.0,1.0,0.0106731730730729,-2.5840064320656368e-08,-4.7196580664888656e-05,0.0,0.0,0.0,1.0,0.3923151384782111,0.0,0.9662857142857144,0.0777142857142857,0.1788571428571428,1.0,1.0,seed_q061_companion,0.2600571428571429,0.468657458042566,0.0229610781045376,5.970256032261645e-05,0.0229610781045376,0.0,0.0,1.0,0.1453136857142857,0.4809132903160751,1,0.5190867096839249,8.352032982213713e-07,0.7245828571428571,-0.1080589621376829,0.0031818320095194,0.000585563150147,1.024735512757406,0.8651428571428571,0.6101298993396619,0.5289924,0.0721118891958311,0.0006483331223887,0.4629441071163506,0.0,0.0,0.0,0.0,0.4542857142857143,0.2202857142857142,0.0,0.9780742857142858,-0.1801708513335141,0.2019601142857143,5.0,4.0,1.0,0.6345381526104418,-0.7481888711643655,-0.6634858047206379,-0.5692622352080666,0.8221560116948096,6.0,0.20689655172413793,30.0,0.0,0.0,1.0,0.0,0.0,0.0,0.0,0.0,0.0,0.0,0.0,0.0,0.0,0.0,0.0,0.0,1.0,1.0,0.0,0.0,0.0,1.0,0.0,1.0,0.0,0.0,0.0,0.0,0.14501315428571426,0.0,0.0,0.0,0.0,0.0,0.0,0,0.0,0.0,0.0,False,0.0,False,0.0,False,0.0,False,0.0,False,0.0,0.0,0.1717499604571428,-6.217248937900876e-16
h109_strict_coeff_null_c60_t8_a_0b68b47b,614,87,id04,2024-09-20,2024-09-19,S3,5,0.4878373866996912,0.454242920412742,0.0022626891656754,0.3621657142857143,0.668777142857143,0.1898723714285715,0.7013428571428572,0.8651428571428571,0.5292308571428572,1.0,1.0,0,11.0,12.854869048437765,3.0,1.0,-0.087664815211758,2.151219632602467e-06,-0.0016018197086791,1.0,1.0,0.0,1.0,0.0963653451227131,0.0,0.812,0.0777142857142857,0.1788571428571428,1.0,1.0,episode_neighbor_q061,0.3907028571428572,0.4542612398520136,-0.1348078968798252,0.0020572450769503,0.1348078968798252,0.0,1.0,1.0,0.5511368571428572,0.4868307854347649,1,0.5131692145652351,1.1550816246945402e-09,0.2824228571428571,-0.0040289918341034,0.007108978431553,0.0005642515327343,0.9874401822851734,0.3291428571428571,0.018840448875629,0.3163318857142858,-0.0040289918341031,2.02775964486257e-06,0.4878373866996912,0.0,0.0,0.0,0.0,0.4542857142857143,0.2202857142857142,0.0,0.0,1.769417945496343e-16,0.4445531428571429,4.0,3.0,1.0,0.3493975903614458,0.8112359912185924,-0.5847188782240471,0.2981979110466653,0.9545040627715552,3.0,0.2692307692307692,27.0,0.0,0.0,0.0,0.0,0.0,1.0,0.0,0.0,0.0,0.0,0.0,0.0,0.0,0.0,1.0,1.0,0.0,0.0,0.0,0.0,0.0,0.0,1.0,0.0,1.0,0.0,0.0,0.0,0.16697531428571427,0.0,0.0,0.0,0.0,0.0,0.0,0,0.0,0.0,0.0,False,0.0,False,0.0,False,0.0,False,0.0,False,0.0,0.0,0.20018666971428567,-5.662137425588298e-16
h109_strict_coeff_null_c60_t8_a_0b68b47b,1423,203,id09,2024-08-08,2024-08-07,Q3,2,0.4851038722023089,0.4888492695731675,2.8077009054938703e-05,0.4221314285714286,0.7410171428571429,0.1906626285714287,0.9083714285714286,0.8485714285714285,0.4102805714285713,1.0,1.0,0,0.0,0.0,0.0,0.0,0.0,0.0,0.0,0.0,0.0,0.0,0.0,0.1645174181216767,0.0,0.8874285714285715,0.0777142857142857,0.1788571428571428,0.0,0.0,,-0.6753457142857143,0.4888066039056419,0.0148210828981254,2.497111199983859e-05,0.0148210828981254,0.0,0.0,0.0,0.1010321714285714,0.5029386750643167,1,0.5029386750643167,1.0124057004567889e-07,0.4062399999999999,-0.0377321919895299,0.0027017454460215,0.0005568824064983,0.9745442113720496,0.1594285714285714,0.3403072673703008,0.0725289142857142,0.0713569848369292,0.0006364093836639,0.4851038722023089,0.0,0.0,0.0,0.0,0.4542857142857143,0.2202857142857142,0.0,0.9516285714285716,-0.1090891768264591,0.1702395428571428,3.0,2.0,1.0,0.8152610441767069,-0.9171019939194981,0.3986526467350754,0.33410417149739,-0.9425361545256726,8.0,0.07692307692307693,27.0,0.0,0.0,1.0,0.0,0.0,0.0,0.0,0.0,0.0,0.0,0.0,0.0,1.0,1.0,0.0,0.0,0.0,0.0,0.0,0.0,0.0,1.0,0.0,1.0,0.0,0.0,0.0,0.0,0.08390966857142859,0.0,0.0,0.0,0.0,0.0,0.0,0,0.0,0.0,0.0,False,0.0,False,0.0,False,0.0,False,0.0,False,0.0,0.0,0.1756055067428571,-5.662137425588298e-16
h109_strict_coeff_null_c60_t8_a_0b68b47b,688,98,id04,2024-10-19,2024-10-18,Q3,2,0.6981825756891072,0.7011993785201208,2.1635987129675627e-05,0.3479714285714286,0.4586171428571429,0.0803957428571429,0.8899428571428571,0.8828571428571429,0.3648977142857142,1.0,1.0,0,0.0,0.0,0.0,0.0,0.0,0.0,0.0,0.0,0.0,0.0,0.0,0.128289419164791,0.0326897171979781,0.8508571428571429,0.3794285714285714,0.1788571428571428,0.0,0.0,,-0.7237342857142858,0.701166370329946,0.0141998366881104,1.926238223715071e-05,0.0141998366881104,0.0,0.0,0.0,0.0522108,0.7066376998242407,0,0.7066376998242407,3.2706063118415013e-07,0.62528,-0.0751999414577945,0.0017692327569704,0.0005574560381295,0.9755480667267952,0.172,0.2194314665902509,0.0462868571428571,0.0404513637968168,0.0001705439002315,0.6981825756891072,0.0,0.0,0.0,0.0,0.4542857142857143,0.2202857142857142,0.0,0.9512742857142856,-0.1156513052546113,0.1248068571428571,5.0,4.0,1.0,0.39357429718875503,0.6199605408122387,-0.7846329892604544,0.9067516281939827,0.4216651334501838,3.0,0.6923076923076923,27.0,0.0,0.0,1.0,0.0,0.0,0.0,0.0,0.0,0.0,0.0,0.0,0.0,0.0,0.0,0.0,0.0,1.0,1.0,0.0,0.0,0.0,1.0,0.0,1.0,0.0,0.0,0.0,0.0,0.0854921142857143,0.0,0.0,0.0,0.0,0.0,0.0,0,0.0,0.0,0.0,False,0.0,False,0.0,False,0.0,False,0.0,False,0.0,0.0,0.1770543131428571,-5.329070518200752e-16
h109_strict_coeff_null_c60_t8_a_0b68b47b,392,56,id02,2024-10-14,2024-10-13,Q1,0,0.4247265602686833,0.4254250072913895,9.981390700630757e-07,0.2216628571428571,0.5154171428571428,-0.0881558,0.8472571428571427,0.8948571428571429,0.2728982857142857,1.0,1.0,0,0.0,0.0,0.0,0.0,0.0,0.0,0.0,0.0,0.0,0.0,0.0,0.2986560244325922,0.0,0.9457142857142856,0.0777142857142857,0.1788571428571428,0.0,0.0,,-0.7872942857142857,0.4253470618977596,0.0025390801085778,7.16893214014469e-07,0.0025390801085778,0.0,0.0,0.0,-0.0288310285714285,0.4062488023131335,1,0.5937511976868666,6.153966981967459e-07,0.6133257142857143,-0.0950626311386134,0.0009753960888723,0.0005486885883097,0.9602050295420356,0.0931428571428571,0.6753740893359157,-0.0278358857142857,-0.0760946861556736,0.0007015222711563,0.4247265602686833,0.0,0.0,0.0,0.0,0.4542857142857143,0.2202857142857142,0.0,0.8927428571428572,-0.0189679449829398,0.0432690285714285,0.0,6.0,1.0,0.2248995983935743,0.9875894586558354,0.15705750905917895,-0.8901457403773966,-0.4556759384562417,1.0,0.9354838709677419,32.0,1.0,0.0,0.0,0.0,0.0,0.0,0.0,1.0,0.0,0.0,0.0,0.0,0.0,0.0,0.0,0.0,0.0,0.0,0.0,0.0,1.0,1.0,0.0,1.0,0.0,0.0,0.0,0.0,0.16399604571428578,0.0,0.0,0.0,0.0,0.0,0.0,0,0.0,0.0,0.0,False,0.0,False,0.0,False,0.0,False,0.0,False,0.0,0.0,0.16663186468571428,-4.440892098500626e-16
h109_strict_coeff_null_c60_t8_a_0b68b47b,432,61,id03,2024-08-19,2024-08-18,S3,5,0.4835789213561608,0.4814017987874172,9.490897164288192e-06,0.2929085714285714,0.3370171428571429,-0.0619744285714286,0.8623428571428573,0.8994285714285715,0.3448964571428571,1.0,1.0,0,2.0,3.6,1.0,1.0,-0.00139507150486,-2.709755271231037e-09,-2.7790419522277787e-06,0.0,0.0,0.0,1.0,0.209522601133933,0.0,0.9114285714285716,0.0777142857142857,0.1788571428571428,1.0,1.0,episode_neighbor_q061,0.2362457142857142,0.4814571944855456,-0.0084973080270469,8.20283112001885e-06,0.0084973080270469,0.0,0.0,1.0,0.1009617714285714,0.4819900669049786,0,0.5180099330950214,2.0193839847131825e-07,0.3697028571428571,0.0543884327223334,0.0008893541727483,0.0005638505649118,0.9867384885957086,0.312,0.5381676052087209,0.1506107428571428,-0.0063629664466685,5.05472920575567e-06,0.4821199420381252,-0.0058427958838835,1.0,-8.134415479310597e-06,0.0,0.4542857142857143,0.4788571428571428,0.4667142857142857,0.9184628571428572,0.0607513991690019,0.0456938285714285,0.0,6.0,1.0,0.24497991967871485,0.9995025893658627,0.03153686495097154,-0.995526272808559,-0.09448513188803126,2.0,0.1,21.0,0.0,0.0,0.0,0.0,0.0,1.0,0.0,1.0,0.0,0.0,0.0,0.0,0.0,0.0,0.0,0.0,0.0,0.0,0.0,0.0,1.0,0.0,1.0,0.0,1.0,1.0,0.0,0.42865973632653065,0.3732023542857143,0.22029276072382334,0.22029276072382334,4.538,4.0,0.04854401955129457,0.9999999999954605,2,0.9999999999954605,1.0,0.0,False,0.0,False,0.0,False,0.21698543442815948,True,0.003307326295663846,True,1.0,1.0,0.8306984998851695,-3.774758283725532e-16
h109_strict_coeff_null_c60_t8_a_0b68b47b,496,70,id03,2024-09-16,2024-09-15,S4,6,0.2663878824709172,0.266430642287554,4.677845888423349e-09,0.2004857142857143,0.6828971428571429,0.4277388,0.4419285714285715,0.1785714285714285,0.2856466285714286,1.0,1.0,0,3.0,5.4,1.0,1.0,3.646543722557461e-05,-1.3523709303405379e-12,-1.4239180945452284e-09,0.0,0.0,0.0,1.0,0.0,0.23075909347128,0.1785714285714285,0.796,0.7971428571428572,1.0,1.0,episode_neighbor_q061,0.5122428571428572,0.266486396829328,0.0005040428275719,2.2593996229502977e-08,0.0005040428275719,0.0,0.0,1.0,0.2230740571428572,0.2614918733526798,0,0.7385081266473201,1.1243960260297945e-08,0.4020685714285714,-0.0143028036432542,0.0092484242694693,0.0005621042158096,0.9836823776668668,0.2582857142857143,0.4386876925820905,0.237068,-0.0252019129045881,6.157205254719855e-05,0.266414627832247,0.000136852779865,1.0,-1.1651894782360728e-08,0.0,0.4542857142857143,0.4422857142857143,0.4488857142857143,0.8797085714285714,0.0108991092613337,0.1571523428571428,0.0,6.0,1.0,0.28112449799196787,0.9809388143902331,-0.19431686088109762,-0.8327815731637613,0.553601708269484,2.0,0.55,21.0,0.0,0.0,0.0,0.0,0.0,0.0,1.0,1.0,0.0,0.0,0.0,0.0,0.0,0.0,0.0,0.0,0.0,0.0,0.0,0.0,1.0,0.0,1.0,0.0,1.0,0.0,1.0,0.0,0.3111689485714286,0.0,0.0,0.0,0.0,0.0,0.0,0,0.0,0.0,0.0,False,0.0,False,0.0,False,0.0,False,0.0,False,0.0,0.0,0.25492723222857144,-3.552713678800501e-16
h109_strict_coeff_null_c60_t8_a_0b68b47b,795,113,id05,2024-10-07,2024-10-06,S2,4,0.2280191339382252,0.1852688184617634,0.0054469246426024,0.8414057142857143,0.7425371428571429,0.7782409714285714,0.0503571428571428,0.1785714285714285,0.7976160000000001,0.0,0.0,0,16.0,13.13939844098144,3.0,1.0,-0.2610573198802019,-2.7477631126037636e-06,-0.0054309698321993,1.0,1.0,1.0,0.0,0.0,0.293541002492221,0.1785714285714285,0.8497142857142858,0.8502857142857143,0.0,0.0,,0.8906771428571427,0.1852361910744718,-0.2617363283416729,0.0049825115709704,0.2617363283416729,1.0,0.0,1.0,0.7948754285714286,0.2046340387485835,1,0.7953659612514165,9.283643683119276e-07,0.7256457142857142,-0.1380489117700263,0.0001697123823337,0.0005481520345104,0.9592660603932652,0.0925714285714285,0.6026699952029279,0.4414852571428572,-0.1380489117700261,0.0015930661698523,0.1905485774566525,-0.2269193816647683,1.0,-0.0053633153415276,0.0,0.4542857142857143,0.9531428571428572,0.6838285714285715,0.0,1.1102230246251563e-16,0.5488205714285713,0.0,6.0,1.0,0.4538152610441767,0.286131673508569,-0.9581903075147367,0.7646910926171754,-0.6443970304648762,4.0,0.3,21.0,0.0,0.0,0.0,0.0,1.0,0.0,0.0,1.0,0.0,0.0,0.0,0.0,0.0,0.0,0.0,0.0,0.0,0.0,0.0,0.0,1.0,0.0,1.0,0.0,1.0,0.0,0.0,0.0,0.43830548571428574,0.233242414005649,0.233242414005649,2.646602112,2.0,0.08812900622576124,0.9999999999957125,1,0.9999999999957125,1.0,0.0,False,0.233242414005649,True,0.0,False,0.0,False,0.0,False,1.0,0.0,0.7801132479994854,-3.552713678800501e-16
h109_strict_coeff_null_c60_t8_a_0b68b47b,350,50,id02,2024-10-07,2024-10-06,Q1,0,0.2129363154887272,0.2133138480652142,4.250423215612642e-07,0.14548,0.3565371428571429,-0.1747508571428572,0.8549428571428572,0.9154285714285716,0.2009069714285714,1.0,1.0,0,0.0,0.0,0.0,0.0,0.0,0.0,0.0,0.0,0.0,0.0,0.0,0.259695597626672,0.0164283517729645,0.9331428571428572,0.2965714285714286,0.1788571428571428,0.0,0.0,,-0.8179057142857143,0.2132546264715882,0.0018982588091065,2.7497066501513956e-07,0.0018982588091065,0.0,0.0,0.0,-0.0632692,0.1951626205954369,0,0.8048373794045631,4.760216209634623e-07,0.7088685714285715,-0.1031475790158773,0.0029859150695603,0.0006268533466303,1.0969933566030297,0.9417142857142856,0.379799289169488,0.4083798857142857,-0.1094910480038153,0.0009625182466271,0.2129363154887272,0.0,0.0,0.0,0.0,0.4542857142857143,0.2202857142857142,0.0,0.9385714285714286,0.0538808494258891,0.0150134857142857,0.0,6.0,1.0,0.20080321285140562,0.952603925155422,0.3042133491128933,-0.5999661014486953,-0.8000254227913347,1.0,0.7419354838709677,32.0,1.0,0.0,0.0,0.0,0.0,0.0,0.0,1.0,0.0,0.0,0.0,0.0,0.0,0.0,0.0,0.0,0.0,0.0,0.0,0.0,1.0,1.0,0.0,1.0,0.0,0.0,0.0,0.0,0.02872992000000002,0.0,0.0,0.0,0.0,0.0,0.0,0,0.0,0.0,0.0,False,0.0,False,0.0,False,0.0,False,0.0,False,0.0,0.0,0.1610655853714285,-3.552713678800501e-16
h109_strict_coeff_null_c60_t8_a_0b68b47b,1173,167,id07,2024-08-15,2024-08-14,S2,4,0.5887897802641952,0.5843132682887072,4.133867305666783e-05,0.32436,0.6460971428571429,-0.0154002285714285,0.9708285714285714,0.9748571428571428,0.381282,1.0,1.0,0,0.0,0.0,0.0,0.0,0.0,0.0,0.0,0.0,0.0,0.0,0.0,0.5604509116827857,0.0,0.9811428571428572,0.0777142857142857,0.1788571428571428,0.0,0.0,,-0.7465914285714287,0.5844596925726677,-0.0178564441345801,3.5196234297263373e-05,0.0178564441345801,0.0,0.0,0.0,0.0713651428571429,0.5810951247646348,0,0.5810951247646348,1.1011067597323203e-06,0.6252685714285714,0.1264245979650153,0.0004401889294229,0.0005440616847588,0.9521079483279284,0.08,0.7362309678426668,0.0300014857142857,-0.0316940397909474,0.0001220467876403,0.5887897802641952,0.0,0.0,0.0,0.0,0.4542857142857143,0.2202857142857142,0.0,0.97392,0.1581186377559628,0.1451570285714285,3.0,2.0,1.0,0.6706827309236948,-0.8783652016699012,-0.4779901384917829,0.07562874588445713,0.997136045279652,6.0,0.5172413793103449,30.0,0.0,0.0,0.0,0.0,1.0,0.0,0.0,0.0,0.0,0.0,0.0,0.0,1.0,1.0,0.0,0.0,0.0,0.0,0.0,0.0,0.0,0.0,1.0,0.0,1.0,0.0,0.0,0.0,-0.04929572571428571,0.0,0.0,0.0,0.0,0.0,0.0,0,0.0,0.0,0.0,False,0.0,False,0.0,False,0.0,False,0.0,False,0.0,0.0,0.1596517366857143,0.0
h109_strict_coeff_null_c60_t8_a_0b68b47b,1171,167,id07,2024-08-15,2024-08-14,Q3,2,0.6622282680507035,0.6593671945468277,1.8272572976041342e-05,0.28656,0.6460971428571429,0.0097151142857142,0.9285714285714286,0.9325714285714286,0.3243517142857142,1.0,1.0,0,0.0,0.0,0.0,0.0,0.0,0.0,0.0,0.0,0.0,0.0,0.0,0.2411467115143672,0.0022711868523263,0.9262857142857144,0.184,0.1788571428571428,0.0,0.0,,-0.7406828571428573,0.6594319821196599,-0.0124760273743058,1.5882525844168605e-05,0.0124760273743058,0.0,0.0,0.0,0.0457197142857142,0.6523399386994059,1,0.6523399386994059,1.7175302543279741e-07,0.4842057142857143,0.0519347606544551,0.0025725301137093,0.0005616930367444,0.9829628143028276,0.2531428571428571,0.5385106948574682,0.0955969142857143,-0.0438993568060119,0.0002175452194616,0.6622282680507035,0.0,0.0,0.0,0.0,0.4542857142857143,0.2202857142857142,0.0,0.9387542857142858,0.0958341174604671,0.1176191999999999,3.0,2.0,1.0,0.6706827309236948,-0.8783652016699012,-0.4779901384917829,0.07562874588445713,0.997136045279652,6.0,0.5172413793103449,30.0,0.0,0.0,1.0,0.0,0.0,0.0,0.0,0.0,0.0,0.0,0.0,0.0,1.0,1.0,0.0,0.0,0.0,0.0,0.0,0.0,0.0,1.0,0.0,1.0,0.0,0.0,0.0,0.0,0.2272872914285714,0.0,0.0,0.0,0.0,0.0,0.0,0,0.0,0.0,0.0,False,0.0,False,0.0,False,0.0,False,0.0,False,0.0,0.0,0.17482388022857137,0.0
h109_strict_coeff_null_c60_t8_a_0b68b47b,1170,167,id07,2024-08-15,2024-08-14,Q2,1,0.2585691541490846,0.2656770629503839,0.0001309932058867,0.3634057142857143,0.6160971428571429,0.015473657142857,0.9244,0.9474285714285714,0.1863294857142857,1.0,1.0,0,0.0,0.0,0.0,0.0,0.0,0.0,0.0,0.0,0.0,0.0,0.0,0.2431035113946808,0.0,0.928,0.0777142857142857,0.1788571428571428,0.0,0.0,,-0.8061657142857144,0.2656212524374888,0.0364652463893921,0.0001172978222279,0.0364652463893921,0.0,0.0,0.0,0.1339982285714285,0.2437316668342044,1,0.7562683331657956,2.262064050041485e-07,0.5965714285714286,-0.0647693111962839,0.0011915399036031,0.0005602798533651,0.9804897433889596,0.2131428571428571,0.4372368655949322,0.1128355428571429,-0.0789096415282653,0.0005815780733707,0.2585691541490846,0.0,0.0,0.0,0.0,0.4542857142857143,0.2202857142857142,0.0,0.0,0.0,0.1264089142857142,3.0,2.0,1.0,0.6706827309236948,-0.8783652016699012,-0.4779901384917829,0.07562874588445713,0.997136045279652,6.0,0.5172413793103449,30.0,0.0,1.0,0.0,0.0,0.0,0.0,0.0,0.0,0.0,0.0,0.0,0.0,1.0,1.0,0.0,0.0,0.0,0.0,0.0,0.0,0.0,1.0,0.0,0.0,0.0,0.0,0.0,0.0,0.13296089142857148,0.0,0.0,0.0,0.0,0.0,0.0,0,0.0,0.0,0.0,False,0.0,False,0.0,False,0.0,False,0.0,False,0.0,0.0,0.11131888137142854,0.0
h109_strict_coeff_null_c60_t8_a_0b68b47b,1169,167,id07,2024-08-15,2024-08-14,Q1,0,0.1647731313648371,0.16955528225438,8.245002283902014e-05,0.3733828571428571,0.6460971428571429,0.010278857142857,0.9819428571428572,0.9702857142857144,0.3762905142857142,0.0,1.0,0,0.0,0.0,0.0,0.0,0.0,0.0,0.0,0.0,0.0,0.0,0.0,0.3707005717670846,0.0,0.9605714285714284,0.0777142857142857,0.1788571428571428,0.0,0.0,,-0.77646,0.16945211794197,0.033618635571607,7.180199451334301e-05,0.033618635571607,0.0,0.0,0.0,0.0727952571428571,0.1903249847441018,1,0.8096750152558982,1.7471686055652549e-07,0.6090057142857144,-0.0633874329836676,0.0058823107838218,0.0004267069860478,0.7467372255837849,0.0108571428571428,0.5361968854677784,0.0065185142857143,0.1752339261738353,0.0022809588384993,0.1647731313648371,0.0,0.0,0.0,0.0,0.4542857142857143,0.2202857142857142,0.0,0.9814114285714286,-0.2228761221544036,0.1348905142857142,3.0,2.0,1.0,0.6706827309236948,-0.8783652016699012,-0.4779901384917829,0.07562874588445713,0.997136045279652,6.0,0.5172413793103449,30.0,1.0,0.0,0.0,0.0,0.0,0.0,0.0,0.0,0.0,0.0,0.0,0.0,1.0,1.0,0.0,0.0,0.0,0.0,0.0,0.0,0.0,1.0,0.0,1.0,0.0,0.0,0.0,0.0,0.20920328000000005,0.0,0.0,0.0,0.0,0.0,0.0,0,0.0,0.0,0.0,False,0.0,False,0.0,False,0.0,False,0.0,False,0.0,0.0,0.17153551405714285,0.0
h109_strict_coeff_null_c60_t8_a_0b68b47b,1168,166,id07,2024-07-28,2024-07-27,S4,6,0.3835559021110223,0.3580812239736613,0.0013846229171905,0.6026171428571429,0.616657142857143,0.4521977714285715,0.4126428571428572,0.1785714285714285,0.3893893714285714,1.0,1.0,1,0.0,0.0,0.0,0.0,0.0,0.0,0.0,0.0,0.0,0.0,0.0,0.0,0.1974370752348368,0.1785714285714285,0.7594285714285715,0.7611428571428571,0.0,0.0,,-0.5230542857142859,0.3580293007399143,-0.109445570659614,0.0012660272371051,0.109445570659614,0.0,0.0,0.0,0.0679713714285714,0.3608604477350215,1,0.6391395522649784,6.284534714027365e-07,0.6933371428571429,-0.0971492464474823,0.0014170807632976,0.0005603248295453,0.9805684517044184,0.2142857142857142,0.529313581319482,0.2017797714285714,-0.0971492464474827,0.0010978597004569,0.3835559021110223,0.0,0.0,0.0,0.0,0.4542857142857143,0.2202857142857142,0.0,0.0,0.0,0.2977357714285714,6.0,5.0,1.0,0.6666666666666666,-0.8660254037844384,-0.5000000000000004,-4.898587196589413e-16,1.0,6.0,0.4827586206896552,30.0,0.0,0.0,0.0,0.0,0.0,0.0,1.0,0.0,0.0,0.0,0.0,0.0,0.0,0.0,0.0,0.0,0.0,0.0,1.0,1.0,0.0,0.0,1.0,0.0,1.0,0.0,0.0,0.0,-0.011412137142857132,0.0,0.0,0.0,0.0,0.0,0.0,0,0.0,0.0,0.0,False,0.0,False,0.0,False,0.0,False,0.0,False,0.0,0.0,0.18905316022857138,0.0
h109_strict_coeff_null_c60_t8_a_0b68b47b,1167,166,id07,2024-07-28,2024-07-27,S3,5,0.78496572983817,0.7855980238074883,1.1851113628225107e-06,0.1321199999999999,0.616657142857143,-0.2670326857142856,0.9689428571428572,0.9542857142857144,0.0214457142857143,1.0,1.0,1,0.0,0.0,0.0,0.0,0.0,0.0,0.0,0.0,0.0,0.0,0.0,0.409814650690152,0.0,0.968,0.0777142857142857,0.1788571428571428,0.0,0.0,,-0.896577142857143,0.7855045344167187,0.0031949826110999,7.8306443174192e-07,0.0031949826110999,0.0,0.0,0.0,-0.4383046857142857,0.7664154641156825,1,0.7664154641156825,5.7256106081898e-07,0.7148914285714285,-0.1066622946257538,0.000978507915703,0.0005657951171741,0.9901414550547571,0.4028571428571428,0.510722971273249,0.0176572571428571,-0.1066622946257538,0.0009990060712304,0.78496572983817,0.0,0.0,0.0,0.0,0.4542857142857143,0.2202857142857142,0.0,0.0,0.0,-0.1765410285714285,6.0,5.0,1.0,0.6666666666666666,-0.8660254037844384,-0.5000000000000004,-4.898587196589413e-16,1.0,6.0,0.4827586206896552,30.0,0.0,0.0,0.0,0.0,0.0,1.0,0.0,0.0,0.0,0.0,0.0,0.0,0.0,0.0,0.0,0.0,0.0,0.0,1.0,1.0,0.0,0.0,1.0,0.0,1.0,0.0,0.0,0.0,-0.22877410285714284,0.0,0.0,0.0,0.0,0.0,0.0,0,0.0,0.0,0.0,False,0.0,False,0.0,False,0.0,False,0.0,False,0.0,0.0,0.07770198445714285,0.0
h109_strict_coeff_null_c60_t8_a_0b68b47b,1172,167,id07,2024-08-15,2024-08-14,S1,3,0.3015200201273463,0.3032899224644574,7.4287743706547005e-06,0.2511885714285714,0.6460971428571429,0.1518918,0.7788571428571429,0.7371428571428571,0.3169985142857143,1.0,1.0,0,0.0,0.0,0.0,0.0,0.0,0.0,0.0,0.0,0.0,0.0,0.0,0.1039040619725408,0.0273932604993417,0.82,0.3577142857142857,0.1788571428571428,0.0,0.0,,-0.6898314285714287,0.3032553567834103,0.0082263351320291,6.498367508767089e-06,0.0082263351320291,0.0,0.0,0.0,0.0429442857142857,0.308692032129006,0,0.6913079678709939,8.45107085067326e-08,0.4600457142857143,-0.0370586853092125,0.002316884970054,0.0005470300963756,0.9573026686573,0.088,0.1938168849984478,0.0103923428571428,0.0338288122918607,0.0001215769326667,0.3015200201273463,0.0,0.0,0.0,0.0,0.4542857142857143,0.2202857142857142,0.0,0.9238857142857144,-0.0708874976010736,0.1127108571428571,3.0,2.0,1.0,0.6706827309236948,-0.8783652016699012,-0.4779901384917829,0.07562874588445713,0.997136045279652,6.0,0.5172413793103449,30.0,0.0,0.0,0.0,1.0,0.0,0.0,0.0,0.0,0.0,0.0,0.0,0.0,1.0,1.0,0.0,0.0,0.0,0.0,0.0,0.0,0.0,0.0,1.0,0.0,1.0,0.0,0.0,0.0,0.15781165714285716,0.0,0.0,0.0,0.0,0.0,0.0,0,0.0,0.0,0.0,False,0.0,False,0.0,False,0.0,False,0.0,False,0.0,0.0,0.18242800914285712,0.0
h109_strict_coeff_null_c60_t8_a_0b68b47b,1166,166,id07,2024-07-28,2024-07-27,S2,4,0.687843943118029,0.699563535632062,0.0003220842785971,0.4739085714285714,0.616657142857143,0.3864850857142858,0.5295285714285715,0.1785714285714285,0.293814,1.0,1.0,1,0.0,0.0,0.0,0.0,0.0,0.0,0.0,0.0,0.0,0.0,0.0,0.0,0.1646713945902295,0.1785714285714285,0.7022857142857143,0.7057142857142857,0.0,0.0,,-0.577517142857143,0.699602702994693,0.0553479446343648,0.0002952136568427,0.0553479446343648,0.0,0.0,0.0,-0.0672350285714285,0.6914137701234012,1,0.6914137701234012,1.6882089942455438e-08,0.3755771428571428,0.0166783856478289,0.0045141456616271,0.0005680565846134,0.994099023073461,0.5348571428571428,0.649059361583703,0.2896947428571428,0.0166783856478289,2.973809151229911e-05,0.687843943118029,0.0,0.0,0.0,0.0,0.4542857142857143,0.2202857142857142,0.0,0.0,0.0,0.1700907428571428,6.0,5.0,1.0,0.6666666666666666,-0.8660254037844384,-0.5000000000000004,-4.898587196589413e-16,1.0,6.0,0.4827586206896552,30.0,0.0,0.0,0.0,0.0,1.0,0.0,0.0,0.0,0.0,0.0,0.0,0.0,0.0,0.0,0.0,0.0,0.0,0.0,1.0,1.0,0.0,0.0,1.0,0.0,1.0,0.0,0.0,0.0,-0.020176639999999982,0.0,0.0,0.0,0.0,0.0,0.0,0,0.0,0.0,0.0,False,0.0,False,0.0,False,0.0,False,0.0,False,0.0,0.0,0.1823203286857143,0.0
h109_strict_coeff_null_c60_t8_a_0b68b47b,1165,166,id07,2024-07-28,2024-07-27,S1,3,0.8205125702353004,0.8072475147185486,0.0005863393644514,0.1458571428571428,0.616657142857143,-0.0481444857142857,0.9175142857142856,0.852,0.1208554285714285,1.0,1.0,1,0.0,0.0,0.0,0.0,0.0,0.0,0.0,0.0,0.0,0.0,0.0,0.0598741763540013,0.0396711927925013,0.7485714285714286,0.4142857142857143,0.1788571428571428,0.0,0.0,,-0.8266800000000001,0.8072463139864761,-0.0876083463719761,0.0005329918530519,0.0876083463719761,0.0,0.0,0.0,-0.1729074285714285,0.822920879374616,1,0.822920879374616,1.1072216029700533e-08,0.2461371428571429,0.0164393630140253,0.0009157950973214,0.0005572789186875,0.9752381077032032,0.1628571428571428,0.2706613997864033,0.0009399999999999,0.0164393630140253,1.9760635650678537e-05,0.8205125702353004,0.0,0.0,0.0,0.0,0.4542857142857143,0.2202857142857142,0.0,0.0,0.0,0.0750274285714285,6.0,5.0,1.0,0.6666666666666666,-0.8660254037844384,-0.5000000000000004,-4.898587196589413e-16,1.0,6.0,0.4827586206896552,30.0,0.0,0.0,0.0,1.0,0.0,0.0,0.0,0.0,0.0,0.0,0.0,0.0,0.0,0.0,0.0,0.0,0.0,0.0,1.0,1.0,0.0,0.0,1.0,0.0,1.0,0.0,0.0,0.0,-0.12126297142857144,0.0,0.0,0.0,0.0,0.0,0.0,0,0.0,0.0,0.0,False,0.0,False,0.0,False,0.0,False,0.0,False,0.0,0.0,0.11652370971428566,0.0
h109_strict_coeff_null_c60_t8_a_0b68b47b,0,0,id01,2024-07-31,2024-07-30,Q1,0,0.1839999885504578,0.1859798815132273,1.3017998536424267e-05,0.1591257142857143,0.5036571428571429,-0.1510166,0.9116857142857144,0.9942857142857144,0.2134978285714286,1.0,1.0,0,0.0,0.0,0.0,0.0,0.0,0.0,0.0,0.0,0.0,0.0,0.0,0.4499457217892925,0.0,0.9737142857142858,0.0777142857142857,0.1788571428571428,0.0,0.0,,-0.8172142857142858,0.1858619952198355,0.0123532200779004,1.04775064904139e-05,0.0123532200779004,0.0,0.0,0.0,-0.0034667999999999,0.1740280510468655,0,0.8259719489531344,8.340373967629908e-07,0.8519771428571429,-0.1410307038891238,0.0049244316366865,0.0005836784565496,1.0214372989619325,0.8514285714285714,0.2036628993139571,0.4128265142857142,-0.0678656400928148,0.0003359187653473,0.1839999885504578,0.0,0.0,0.0,0.0,0.4542857142857143,0.2202857142857142,0.0,0.9185085714285716,-0.0477935952200724,0.0701917714285714,2.0,1.0,1.0,0.0,0.0,1.0,0.0,1.0,0.0,0.0,27.0,1.0,0.0,0.0,0.0,0.0,0.0,0.0,0.0,0.0,0.0,1.0,1.0,0.0,0.0,0.0,0.0,0.0,0.0,0.0,0.0,0.0,1.0,0.0,1.0,0.0,0.0,0.0,0.0,0.20094849142857155,0.0,0.0,0.0,0.0,0.0,0.0,0,0.0,0.0,0.0,False,0.0,False,0.0,False,0.0,False,0.0,False,0.0,0.0,0.16665609965714287,0.0
h109_strict_coeff_null_c60_t8_a_0b68b47b,1181,168,id07,2024-08-16,2024-08-15,S3,5,0.7431536737216731,0.7435108192474427,3.342260201932845e-07,0.2160228571428571,0.5314971428571429,-0.1188369142857143,0.8553428571428572,0.9502857142857144,0.3093181714285714,0.0,1.0,0,0.0,0.0,0.0,0.0,0.0,0.0,0.0,0.0,0.0,0.0,0.0,0.4242798197271744,0.0,0.9708571428571428,0.0777142857142857,0.1788571428571428,0.0,0.0,,-0.82474,0.743414734920727,0.0013681536146239,1.6249764556164337e-07,0.0013681536146239,0.0,0.0,0.0,-0.0793424,0.7326922149519417,1,0.7326922149519417,2.572607634345479e-07,0.6981714285714286,-0.0682815987415768,0.0052702016640162,0.0005576233671474,0.9758408925080948,0.1731428571428571,0.6414996808881369,0.0094038857142857,-0.054099929723397,0.0002841963158095,0.7431536737216731,0.0,0.0,0.0,0.0,0.4542857142857143,0.2202857142857142,0.0,0.8836457142857144,-0.0141816690181797,-0.0173716571428571,4.0,3.0,1.0,0.6746987951807228,-0.8901457403773966,-0.4556759384562417,0.15082429716137163,0.9885605855918889,6.0,0.5517241379310345,30.0,0.0,0.0,0.0,0.0,0.0,1.0,0.0,0.0,0.0,0.0,0.0,0.0,0.0,0.0,1.0,1.0,0.0,0.0,0.0,0.0,0.0,0.0,1.0,0.0,1.0,0.0,0.0,0.0,0.06669403428571435,0.0,0.0,0.0,0.0,0.0,0.0,0,0.0,0.0,0.0,False,0.0,False,0.0,False,0.0,False,0.0,False,0.0,0.0,0.15719346422857144,0.0
h109_strict_coeff_null_c60_t8_a_0b68b47b,1174,167,id07,2024-08-15,2024-08-14,S3,5,0.7722241432679042,0.7711755576943448,3.1221789483781848e-06,0.2317314285714286,0.6460971428571429,-0.0588174857142856,0.9247714285714286,0.9617142857142856,0.3159833142857142,1.0,1.0,0,0.0,0.0,0.0,0.0,0.0,0.0,0.0,0.0,0.0,0.0,0.0,0.5134044704270241,0.0,0.976,0.0777142857142857,0.1788571428571428,0.0,0.0,,-0.7682371428571428,0.7713083858268329,-0.0051989457833034,2.167121824103724e-06,0.0051989457833034,0.0,0.0,0.0,-0.0086879999999999,0.7872302156139718,0,0.7872302156139718,1.0263590487625962e-06,0.8358514285714286,0.1424864796383005,0.0028562295591054,0.0005737732842484,1.0041032474348348,0.7222857142857143,0.7913652114986713,0.3573603428571429,0.0873971839356679,0.000650399770852,0.7722241432679042,0.0,0.0,0.0,0.0,0.4542857142857143,0.2202857142857142,0.0,0.9126857142857144,0.0550892957026325,0.0640457142857142,3.0,2.0,1.0,0.6706827309236948,-0.8783652016699012,-0.4779901384917829,0.07562874588445713,0.997136045279652,6.0,0.5172413793103449,30.0,0.0,0.0,0.0,0.0,0.0,1.0,0.0,0.0,0.0,0.0,0.0,0.0,1.0,1.0,0.0,0.0,0.0,0.0,0.0,0.0,0.0,0.0,1.0,0.0,1.0,0.0,0.0,0.0,-0.13119542857142857,0.0,0.0,0.0,0.0,0.0,0.0,0,0.0,0.0,0.0,False,0.0,False,0.0,False,0.0,False,0.0,False,0.0,0.0,0.15283446857142852,0.0
h109_strict_coeff_null_c60_t8_a_0b68b47b,1176,168,id07,2024-08-16,2024-08-15,Q1,0,0.7095773537492385,0.7110860103831336,5.5279749872072514e-06,0.27996,0.5314971428571429,0.0481714857142857,0.8554571428571427,0.8857142857142857,0.3114489142857142,1.0,1.0,0,0.0,0.0,0.0,0.0,0.0,0.0,0.0,0.0,0.0,0.0,0.0,0.1885389035538449,0.0,0.9028571428571428,0.0777142857142857,0.1788571428571428,0.0,0.0,,-0.7543742857142858,0.7110475597069048,0.0071449572345133,4.77751187077935e-06,0.0071449572345133,0.0,0.0,0.0,0.0084665714285714,0.7135056531940354,1,0.7135056531940354,8.599781773341545e-08,0.3934285714285714,-0.0388429263563437,0.0016390838054395,0.0005719826778082,1.000969686164396,0.6857142857142857,0.3921741145446478,0.3324877714285715,0.019139302517699,3.75417210366491e-05,0.7095773537492385,0.0,0.0,0.0,0.0,0.4542857142857143,0.2202857142857142,0.0,0.9143314285714288,-0.0579822288740428,0.0801556571428571,4.0,3.0,1.0,0.6746987951807228,-0.8901457403773966,-0.4556759384562417,0.15082429716137163,0.9885605855918889,6.0,0.5517241379310345,30.0,1.0,0.0,0.0,0.0,0.0,0.0,0.0,0.0,0.0,0.0,0.0,0.0,0.0,0.0,1.0,1.0,0.0,0.0,0.0,0.0,0.0,1.0,0.0,1.0,0.0,0.0,0.0,0.0,0.19010333714285718,0.0,0.0,0.0,0.0,0.0,0.0,0,0.0,0.0,0.0,False,0.0,False,0.0,False,0.0,False,0.0,False,0.0,0.0,0.1738062020571428,0.0
h109_strict_coeff_null_c60_t8_a_0b68b47b,1199,171,id07,2024-08-20,2024-08-19,Q3,2,0.3784121529456276,0.3418481097294042,0.002881241055227,0.5200857142857144,0.3664571428571429,0.294330342857143,0.4134714285714286,0.1785714285714285,0.3520808571428571,1.0,1.0,1,2.0,3.6,1.0,1.0,-0.0254041490698209,-1.0069721700134994e-07,-0.0008484216054982,0.0,0.0,0.0,1.0,0.0,0.5887286564134788,0.1785714285714285,0.9491428571428572,0.9491428571428572,1.0,1.0,episode_neighbor_q061,0.5107314285714287,0.3416590566611447,-0.1596163241673376,0.0026521755434663,0.1596163241673376,0.0,0.0,1.0,0.1850962857142857,0.3296708156448698,0,0.6703291843551302,3.041513534179243e-06,0.7483085714285714,-0.2133809889452266,0.0005995067205482,0.0004034579399398,0.7060513948947409,0.0091428571428571,0.7938109337043127,0.1709874285714286,-0.2133809889452269,0.0051461791997575,0.3784121529456276,0.0,0.0,0.0,0.0,0.4542857142857143,0.2202857142857142,0.0,0.6829085714285714,0.0811304878837815,0.4628749714285715,1.0,0.0,1.0,0.6867469879518072,-0.9220586030376134,-0.38705029720221723,0.36953183094075576,0.9292180723175657,6.0,0.6551724137931034,30.0,0.0,0.0,1.0,0.0,0.0,0.0,0.0,0.0,1.0,1.0,0.0,0.0,0.0,0.0,0.0,0.0,0.0,0.0,0.0,0.0,0.0,1.0,0.0,1.0,0.0,0.0,0.0,0.0,0.36215624000000013,0.0,0.0,0.0,0.0,0.0,0.0,0,0.0,0.0,0.0,False,0.0,False,0.0,False,0.0,False,0.0,False,0.0,0.0,0.21225285531428573,0.0
h109_strict_coeff_null_c60_t8_a_0b68b47b,1198,171,id07,2024-08-20,2024-08-19,Q2,1,0.3148151714415448,0.3059566993335749,0.00018283699556,0.35848,0.3664571428571429,-0.0123721142857142,0.7678285714285714,0.424,0.0806673142857142,1.0,1.0,1,1.0,1.8,1.0,1.0,-0.0049665419599086,-3.1758494573968415e-08,-4.133723886123875e-05,0.0,0.0,0.0,1.0,0.003393019811309,0.115763383074495,0.4131428571428571,0.6074285714285714,0.6148571428571429,1.0,1.0,episode_neighbor_q061,0.2380371428571429,0.3059434878531817,-0.0414500668274905,0.0001669406509452,0.0414500668274905,0.0,0.0,1.0,-0.0946238857142857,0.3156782524897545,0,0.6843217475102454,9.731409779742178e-10,0.2492114285714285,0.0039982237292468,0.0021629436439478,0.0005696985916753,0.9969725354318544,0.616,0.3645950330632614,0.3285890285714286,0.0039982237292467,1.7258204050296657e-06,0.3148151714415448,0.0,0.0,0.0,0.0,0.4542857142857143,0.2202857142857142,0.0,0.0,0.0,0.1455353142857143,1.0,0.0,1.0,0.6867469879518072,-0.9220586030376134,-0.38705029720221723,0.36953183094075576,0.9292180723175657,6.0,0.6551724137931034,30.0,0.0,1.0,0.0,0.0,0.0,0.0,0.0,0.0,1.0,1.0,0.0,0.0,0.0,0.0,0.0,0.0,0.0,0.0,0.0,0.0,0.0,1.0,0.0,0.0,0.0,0.0,0.0,0.0,0.16250210285714287,0.0,0.0,0.0,0.0,0.0,0.0,0,0.0,0.0,0.0,False,0.0,False,0.0,False,0.0,False,0.0,False,0.0,0.0,0.10494256411428568,0.0
h109_strict_coeff_null_c60_t8_a_0b68b47b,1197,171,id07,2024-08-20,2024-08-19,Q1,0,0.2391801122305973,0.2278273726133861,0.0003580802201473,0.4024685714285714,0.3664571428571429,0.0131001714285713,0.8145714285714286,0.7137142857142857,0.2382274285714286,1.0,1.0,1,2.0,3.6,1.0,1.0,-0.010150424862754,-5.269928667211088e-08,-0.000105294444963,0.0,0.0,0.0,1.0,0.0456010510387457,0.0658887592454424,0.7074285714285714,0.488,0.4114285714285714,1.0,1.0,episode_neighbor_q061,0.2646942857142857,0.2278293412784211,-0.0634289648739265,0.0003259953320206,0.0634289648739265,0.0,0.0,1.0,-0.0891682285714285,0.2301493424201021,0,0.7698506575798979,1.2708965071431917e-07,0.5154514285714286,-0.0502883560428251,0.0025132467960961,0.0005687287091934,0.9952752410885172,0.5788571428571428,0.1949230676593773,0.2794962285714287,-0.0502883560428251,0.0002260612764484,0.2391801122305973,0.0,0.0,0.0,0.0,0.4542857142857143,0.2202857142857142,0.0,0.0,0.0,0.1518482285714285,1.0,0.0,1.0,0.6867469879518072,-0.9220586030376134,-0.38705029720221723,0.36953183094075576,0.9292180723175657,6.0,0.6551724137931034,30.0,1.0,0.0,0.0,0.0,0.0,0.0,0.0,0.0,1.0,1.0,0.0,0.0,0.0,0.0,0.0,0.0,0.0,0.0,0.0,0.0,0.0,1.0,0.0,1.0,0.0,0.0,0.0,0.0,-0.011569462857142845,0.0,0.0,0.0,0.0,0.0,0.0,0,0.0,0.0,0.0,False,0.0,False,0.0,False,0.0,False,0.0,False,0.0,0.0,0.12886677577142852,0.0
h109_strict_coeff_null_c60_t8_a_0b68b47b,1196,170,id07,2024-08-18,2024-08-17,S4,6,0.5636181146079399,0.5830059696401174,0.000766913444385,0.64944,0.5759571428571428,0.3518137142857142,0.6135142857142858,0.4405714285714285,0.3994028571428571,1.0,1.0,1,0.0,0.0,0.0,0.0,0.0,0.0,0.0,0.0,0.0,0.0,0.0,0.0061147813062941,0.0797305673386158,0.4497142857142857,0.5217142857142857,0.5325714285714286,0.0,0.0,,-0.6098800000000001,0.5830286572382981,0.0793596663929256,0.0006997253017292,0.0793596663929256,0.0,0.0,0.0,-0.0389212285714285,0.5716627481108069,1,0.5716627481108069,7.469264633779841e-08,0.3626514285714286,0.0327791828040964,0.001666004030307,0.0005584407259491,0.9772712704109352,0.1851428571428571,0.3238575655439936,0.1178370857142856,0.0327791828040964,0.0001317508081308,0.5636181146079399,0.0,0.0,0.0,0.0,0.4542857142857143,0.2202857142857142,0.0,0.0,0.0,0.1982419428571429,6.0,5.0,1.0,0.6827309236947792,-0.9119993982236606,-0.41019153774752704,0.2981979110466651,0.9545040627715553,6.0,0.6206896551724138,30.0,0.0,0.0,0.0,0.0,0.0,0.0,1.0,0.0,0.0,0.0,0.0,0.0,0.0,0.0,0.0,0.0,0.0,0.0,1.0,1.0,0.0,0.0,1.0,0.0,1.0,0.0,0.0,0.0,-0.014832948571428528,0.0,0.0,0.0,0.0,0.0,0.0,0,0.0,0.0,0.0,False,0.0,False,0.0,False,0.0,False,0.0,False,0.0,0.0,0.15682735062857137,0.0
h109_strict_coeff_null_c60_t8_a_0b68b47b,1195,170,id07,2024-08-18,2024-08-17,S3,5,0.7855412665097083,0.7791418349272402,0.0001206811264744,0.4029314285714286,0.5759571428571428,0.2129979428571428,0.7118857142857143,0.4977142857142857,0.247480457142857,0.0,1.0,1,0.0,0.0,0.0,0.0,0.0,0.0,0.0,0.0,0.0,0.0,0.0,0.007646834753274,0.0329802892824369,0.4697142857142857,0.3805714285714285,0.4262857142857142,0.0,0.0,,-0.7455771428571429,0.7791386151247062,-0.037601973564691,0.0001098763099247,0.037601973564691,0.0,0.0,0.0,-0.2291273428571428,0.7742671709864297,1,0.7742671709864297,2.0963758686754e-07,0.5352800000000001,-0.0656907877245571,0.0008146162273997,0.0005656500903422,0.9898876580988724,0.3948571428571428,0.3401293821911747,0.1292903428571429,-0.0656907877245571,0.0003725718783585,0.7855412665097083,0.0,0.0,0.0,0.0,0.4542857142857143,0.2202857142857142,0.0,0.0,0.0,0.0067066285714285,6.0,5.0,1.0,0.6827309236947792,-0.9119993982236606,-0.41019153774752704,0.2981979110466651,0.9545040627715553,6.0,0.6206896551724138,30.0,0.0,0.0,0.0,0.0,0.0,1.0,0.0,0.0,0.0,0.0,0.0,0.0,0.0,0.0,0.0,0.0,0.0,0.0,1.0,1.0,0.0,0.0,1.0,0.0,1.0,0.0,0.0,0.0,-0.11010648,0.0,0.0,0.0,0.0,0.0,0.0,0,0.0,0.0,0.0,False,0.0,False,0.0,False,0.0,False,0.0,False,0.0,0.0,0.14143964365714284,0.0
h109_strict_coeff_null_c60_t8_a_0b68b47b,1194,170,id07,2024-08-18,2024-08-17,S2,4,0.5535009853463879,0.5305720405334972,0.0010605217884496,0.6000342857142857,0.5759571428571428,0.4305255428571428,0.4468142857142857,0.1785714285714285,0.3920339999999999,1.0,1.0,1,0.0,0.0,0.0,0.0,0.0,0.0,0.0,0.0,0.0,0.0,0.0,0.0,0.1857396060694532,0.1785714285714285,0.7354285714285714,0.7377142857142858,0.0,0.0,,-0.53634,0.5305107123130185,-0.0926316701142953,0.0009700799930205,0.0926316701142953,0.0,0.0,0.0,0.0321674571428571,0.531446272655501,1,0.531446272655501,5.675979213520467e-07,0.6423085714285715,-0.0888750070491916,0.001356610021119,0.0005400113635995,0.9450198862991672,0.0685714285714285,0.4329374809530754,0.1162284,-0.0888750070491916,0.00098128988079,0.5535009853463879,0.0,0.0,0.0,0.0,0.4542857142857143,0.2202857142857142,0.0,0.0,0.0,0.2640161142857143,6.0,5.0,1.0,0.6827309236947792,-0.9119993982236606,-0.41019153774752704,0.2981979110466651,0.9545040627715553,6.0,0.6206896551724138,30.0,0.0,0.0,0.0,0.0,1.0,0.0,0.0,0.0,0.0,0.0,0.0,0.0,0.0,0.0,0.0,0.0,0.0,0.0,1.0,1.0,0.0,0.0,1.0,0.0,1.0,0.0,0.0,0.0,-0.08470410285714285,0.0,0.0,0.0,0.0,0.0,0.0,0,0.0,0.0,0.0,False,0.0,False,0.0,False,0.0,False,0.0,False,0.0,0.0,0.18443549874285714,0.0
h109_strict_coeff_null_c60_t8_a_0b68b47b,1193,170,id07,2024-08-18,2024-08-17,S1,3,0.6940083360321347,0.7075295471558947,0.000434107118477,0.6470000000000001,0.5759571428571428,0.3749250857142857,0.6112285714285715,0.396,0.3853559999999999,1.0,1.0,1,0.0,0.0,0.0,0.0,0.0,0.0,0.0,0.0,0.0,0.0,0.0,0.0017025757853978,0.0744358181778094,0.3937142857142857,0.5114285714285715,0.5314285714285715,0.0,0.0,,-0.6035657142857145,0.7075533173636496,0.064604506075667,0.0003966738012397,0.064604506075667,0.0,0.0,0.0,-0.0697069999999999,0.7045264875659707,0,0.7045264875659707,1.4817704618461432e-07,0.4933485714285714,0.0500206195549243,0.0015232129398213,0.0005660115169039,0.9905201545819766,0.4114285714285714,0.2367729198191563,0.2102014285714286,0.0500206195549243,0.0002621881501757,0.6940083360321347,0.0,0.0,0.0,0.0,0.4542857142857143,0.2202857142857142,0.0,0.0,0.0,0.1686062857142857,6.0,5.0,1.0,0.6827309236947792,-0.9119993982236606,-0.41019153774752704,0.2981979110466651,0.9545040627715553,6.0,0.6206896551724138,30.0,0.0,0.0,0.0,1.0,0.0,0.0,0.0,0.0,0.0,0.0,0.0,0.0,0.0,0.0,0.0,0.0,0.0,0.0,1.0,1.0,0.0,0.0,1.0,0.0,1.0,0.0,0.0,0.0,-0.08523651428571428,0.0,0.0,0.0,0.0,0.0,0.0,0,0.0,0.0,0.0,False,0.0,False,0.0,False,0.0,False,0.0,False,0.0,0.0,0.15812942514285716,0.0
h109_strict_coeff_null_c60_t8_a_0b68b47b,1192,170,id07,2024-08-18,2024-08-17,Q3,2,0.6396250376949962,0.6475097471021488,0.0001352907929288,0.3386628571428572,0.5759571428571428,0.1516969714285714,0.7596857142857142,0.4691428571428571,0.187692857142857,1.0,1.0,1,0.0,0.0,0.0,0.0,0.0,0.0,0.0,0.0,0.0,0.0,0.0,0.0074088767360692,0.0409714684305328,0.4662857142857143,0.4188571428571429,0.4497142857142857,0.0,0.0,,-0.7307657142857144,0.6475138939905016,0.0343919706452248,0.0001232727262182,0.0343919706452248,0.0,0.0,0.0,-0.2018993999999999,0.6376261890924968,0,0.6376261890924968,4.82192399130599e-09,0.1167657142857142,-0.008661179429959,0.0001088707105971,0.0005702095527333,0.9978667172833144,0.636,0.3370590583098,0.2494066857142857,-0.008661179429959,8.659657592779979e-06,0.6396250376949962,0.0,0.0,0.0,0.0,0.4542857142857143,0.2202857142857142,0.0,0.0,0.0,0.0451429714285713,6.0,5.0,1.0,0.6827309236947792,-0.9119993982236606,-0.41019153774752704,0.2981979110466651,0.9545040627715553,6.0,0.6206896551724138,30.0,0.0,0.0,1.0,0.0,0.0,0.0,0.0,0.0,0.0,0.0,0.0,0.0,0.0,0.0,0.0,0.0,0.0,0.0,1.0,1.0,0.0,1.0,0.0,1.0,0.0,0.0,0.0,0.0,0.046411440000000026,0.0,0.0,0.0,0.0,0.0,0.0,0,0.0,0.0,0.0,False,0.0,False,0.0,False,0.0,False,0.0,False,0.0,0.0,0.14996503474285713,0.0
h109_strict_coeff_null_c60_t8_a_0b68b47b,1191,170,id07,2024-08-18,2024-08-17,Q2,1,0.3653782265559202,0.3470172120060635,0.0007323547992014,0.4767657142857143,0.5759571428571428,0.2706994857142857,0.5880714285714286,0.1785714285714285,0.1446513142857142,1.0,1.0,1,0.0,0.0,0.0,0.0,0.0,0.0,0.0,0.0,0.0,0.0,0.0,0.0,0.2129547510269516,0.1785714285714285,0.776,0.7777142857142857,0.0,0.0,,-0.6635457142857143,0.3469650059340713,-0.0803106552560463,0.0006706180868848,0.0803106552560463,0.0,0.0,0.0,-0.0247374571428571,0.3493998237301206,1,0.6506001762698794,3.20052526648555e-07,0.6823657142857142,-0.0695822569039678,0.0036789339728707,0.000549306486399,0.9612863511983104,0.0965714285714285,0.610845179280648,0.1099047428571428,-0.0695822569039678,0.0005540676148284,0.3653782265559202,0.0,0.0,0.0,0.0,0.4542857142857143,0.2202857142857142,0.0,0.0,0.0,0.2111438857142856,6.0,5.0,1.0,0.6827309236947792,-0.9119993982236606,-0.41019153774752704,0.2981979110466651,0.9545040627715553,6.0,0.6206896551724138,30.0,0.0,1.0,0.0,0.0,0.0,0.0,0.0,0.0,0.0,0.0,0.0,0.0,0.0,0.0,0.0,0.0,0.0,0.0,1.0,1.0,0.0,1.0,0.0,0.0,0.0,0.0,0.0,0.0,0.15128867428571433,0.0,0.0,0.0,0.0,0.0,0.0,0,0.0,0.0,0.0,False,0.0,False,0.0,False,0.0,False,0.0,False,0.0,0.0,0.13123159839999998,0.0
h109_strict_coeff_null_c60_t8_a_0b68b47b,1190,170,id07,2024-08-18,2024-08-17,Q1,0,0.6074184689486233,0.5934468905576782,0.0004076496751119,0.4200057142857143,0.5759571428571428,0.3415577714285714,0.5742142857142857,0.1785714285714285,0.2454507428571428,1.0,1.0,1,0.0,0.0,0.0,0.0,0.0,0.0,0.0,0.0,0.0,0.0,0.0,0.0,0.2463543496954725,0.1785714285714285,0.8177142857142857,0.8177142857142857,0.0,0.0,,-0.6012371428571429,0.5933874137848659,-0.0584870788472872,0.0003740211416424,0.0584870788472872,0.0,0.0,0.0,-0.0718933999999999,0.5904508031407348,0,0.5904508031407348,3.273573721901605e-07,0.5014171428571429,-0.0706444373041575,0.0015040558555204,0.0005333459012878,0.9333553272536504,0.0542857142857142,0.5826628237427306,0.0680249714285713,-0.0706444373041575,0.0006007321087921,0.6074184689486233,0.0,0.0,0.0,0.0,0.4542857142857143,0.2202857142857142,0.0,0.6599028571428572,0.0403838934264991,0.2191077714285714,6.0,5.0,1.0,0.6827309236947792,-0.9119993982236606,-0.41019153774752704,0.2981979110466651,0.9545040627715553,6.0,0.6206896551724138,30.0,1.0,0.0,0.0,0.0,0.0,0.0,0.0,0.0,0.0,0.0,0.0,0.0,0.0,0.0,0.0,0.0,0.0,0.0,1.0,1.0,0.0,1.0,0.0,1.0,0.0,0.0,0.0,0.0,0.016885062857142863,0.0,0.0,0.0,0.0,0.0,0.0,0,0.0,0.0,0.0,False,0.0,False,0.0,False,0.0,False,0.0,False,0.0,0.0,0.18625364822857143,0.0
h109_strict_coeff_null_c60_t8_a_0b68b47b,1189,169,id07,2024-08-17,2024-08-16,S4,6,0.4629773685611164,0.4823778552251216,0.000755643891166,0.69656,0.5428571428571428,0.6080142285714285,0.1277857142857142,0.1785714285714285,0.6244498285714286,1.0,0.0,0,21.0,18.02115831398056,3.0,1.0,0.0793888261796314,-1.1392206111733183e-06,-0.0007510622245772,1.0,1.0,1.0,0.0,0.0,0.1417789009378461,0.1785714285714285,0.66,0.6708571428571428,0.0,0.0,,0.7974485714285715,0.4823955904660225,0.0779153071367481,0.0006888335863648,0.0779153071367481,1.0,0.0,1.0,0.6403156571428572,0.4760130825344299,0,0.52398691746557,1.9307284898278885e-07,0.4702971428571428,0.0523406857624825,0.0017072740352812,0.0005650533652277,0.9888433891485876,0.3611428571428571,0.6489047331156543,0.4681929142857142,0.0523406857624825,0.0003413306850658,0.4823636244775861,0.0777872841896048,1.0,-0.0007570230618575,0.0,0.4542857142857143,0.7777142857142857,0.6036,0.0,0.0,0.4362626285714284,5.0,4.0,1.0,0.678714859437751,-0.9013595191835571,-0.4330716074475291,0.22515594052269275,0.9743227403932136,6.0,0.5862068965517241,30.0,0.0,0.0,0.0,0.0,0.0,0.0,1.0,0.0,0.0,0.0,0.0,0.0,0.0,0.0,0.0,0.0,1.0,1.0,0.0,0.0,0.0,0.0,1.0,0.0,1.0,0.0,0.0,0.0,0.2604485485714285,0.0,0.0,0.0,0.0,0.0,0.0,0,0.0,0.0,0.0,False,0.0,False,0.0,False,0.0,False,0.0,False,0.0,0.0,0.26685393051428574,0.0
h109_strict_coeff_null_c60_t8_a_0b68b47b,1188,169,id07,2024-08-17,2024-08-16,S3,5,0.7994116795180602,0.8238132653272896,0.0019170543777541,0.8152457142857142,0.5428571428571428,0.6676812000000001,0.0725,0.1785714285714285,0.7702930285714286,1.0,0.0,0,21.0,18.02115831398056,3.0,1.0,0.162948291934045,-2.4326182585986864e-06,-0.0019058886730727,1.0,1.0,1.0,0.0,0.0,0.2133841699540335,0.1785714285714285,0.7771428571428571,0.7788571428571428,0.0,0.0,,0.8719342857142857,0.8238294579576622,0.159889619627594,0.0017509452253977,0.159889619627594,1.0,0.0,1.0,0.7496676571428571,0.8146091782151268,1,0.8146091782151268,4.15165470350828e-07,0.7297257142857143,0.0976209097094349,0.0024551195319789,0.0005723513799467,1.0016149149068765,0.6925714285714286,0.7367575644464935,0.7318352000000001,0.0976209097094349,0.0007343850941234,0.8233309878794017,0.1564588926615673,1.0,-0.0019187877670169,0.0,0.4542857142857143,0.9222857142857144,0.6622285714285715,0.0,0.0,0.5241757714285713,5.0,4.0,1.0,0.678714859437751,-0.9013595191835571,-0.4330716074475291,0.22515594052269275,0.9743227403932136,6.0,0.5862068965517241,30.0,0.0,0.0,0.0,0.0,0.0,1.0,0.0,0.0,0.0,0.0,0.0,0.0,0.0,0.0,0.0,0.0,1.0,1.0,0.0,0.0,0.0,0.0,1.0,0.0,1.0,0.0,0.0,0.0,0.3012318628571429,0.0,0.0,0.0,0.0,0.0,0.0,0,0.0,0.0,0.0,False,0.0,False,0.0,False,0.0,False,0.0,False,0.0,0.0,0.2728809202285714,0.0
h109_strict_coeff_null_c60_t8_a_0b68b47b,1187,169,id07,2024-08-17,2024-08-16,S2,4,0.4008156217552586,0.3865669726163243,0.0004244089897591,0.4949142857142857,0.5428571428571428,0.5097104571428572,0.1531571428571428,0.1785714285714285,0.506436,1.0,0.0,0,21.0,18.02115831398056,3.0,1.0,-0.0608826262740634,-1.1177078623793413e-07,-0.0004218518212367,1.0,1.0,1.0,0.0,0.0,0.22734470989448,0.1785714285714285,0.7914285714285715,0.7931428571428571,0.0,0.0,,0.7160771428571427,0.3865114094961545,-0.0599324435620611,0.0003893537730124,0.0599324435620611,1.0,0.0,1.0,0.5717074285714286,0.3817161972798287,0,0.6182838027201714,4.729865189256099e-07,0.7061028571428573,-0.0802023509182556,0.0025374240883664,0.0005124604653811,0.8968058144170515,0.0342857142857142,0.3148753033722998,0.290304,-0.0802023509182556,0.0007636824990138,0.3834258980465542,-0.0729643010962097,1.0,-0.0004076174944005,0.0,0.4542857142857143,0.7651428571428571,0.5901428571428572,0.0,0.0,0.3752668571428571,5.0,4.0,1.0,0.678714859437751,-0.9013595191835571,-0.4330716074475291,0.22515594052269275,0.9743227403932136,6.0,0.5862068965517241,30.0,0.0,0.0,0.0,0.0,1.0,0.0,0.0,0.0,0.0,0.0,0.0,0.0,0.0,0.0,0.0,0.0,1.0,1.0,0.0,0.0,0.0,0.0,1.0,0.0,1.0,0.0,0.0,0.0,0.31208668571428577,0.0,0.0,0.0,0.0,0.0,0.0,0,0.0,0.0,0.0,False,0.0,False,0.0,False,0.0,False,0.0,False,0.0,0.0,0.26586966742857143,0.0
h109_strict_coeff_null_c60_t8_a_0b68b47b,1186,169,id07,2024-08-17,2024-08-16,S1,3,0.4401726677284749,0.4456627951858518,6.110559031413665e-05,0.4788342857142856,0.5428571428571428,0.4984400571428571,0.2217285714285714,0.1785714285714285,0.4481122285714286,1.0,1.0,0,21.0,18.02115831398056,3.0,1.0,0.0226922398288366,-1.4084522928999332e-07,-6.073522004502898e-05,1.0,1.0,1.0,0.0,0.0,0.2218994519577111,0.1785714285714285,0.7874285714285715,0.788,0.0,0.0,,0.6823571428571429,0.4457140663446027,0.0224582846065134,5.664578297559508e-05,0.0224582846065134,1.0,0.0,1.0,0.4629941714285714,0.4598228005832986,1,0.5401771994167014,4.53523153712318e-07,0.5950971428571429,0.0794052907132392,0.0007973981832331,0.0005914826098097,1.0350945671671092,0.8885714285714286,0.9016272176905844,0.6991744,0.0794052907132392,0.0007811950000096,0.4509411653977672,0.0435925990748798,1.0,-7.0362619563058e-06,0.0,0.4542857142857143,0.648,0.5169428571428571,0.0,0.0,0.2912778285714285,5.0,4.0,1.0,0.678714859437751,-0.9013595191835571,-0.4330716074475291,0.22515594052269275,0.9743227403932136,6.0,0.5862068965517241,30.0,0.0,0.0,0.0,1.0,0.0,0.0,0.0,0.0,0.0,0.0,0.0,0.0,0.0,0.0,0.0,0.0,1.0,1.0,0.0,0.0,0.0,0.0,1.0,0.0,1.0,0.0,0.0,0.0,0.20114206857142855,0.0,0.0,0.0,0.0,0.0,0.0,0,0.0,0.0,0.0,False,0.0,False,0.0,False,0.0,False,0.0,False,0.0,0.0,0.25723243131428575,0.0
h109_strict_coeff_null_c60_t8_a_0b68b47b,1185,169,id07,2024-08-17,2024-08-16,Q3,2,0.5647956175468157,0.5297963890696967,0.0024785803144239,0.7756228571428572,0.5428571428571428,0.4956619428571429,0.4061142857142857,0.6211428571428571,0.6628285714285714,1.0,1.0,0,21.0,18.02115831398056,3.0,1.0,-0.1441252424007455,-1.7953286139373937e-06,-0.0024635112729012,1.0,1.0,1.0,0.0,0.0168395284671378,0.1041983057920189,0.5622857142857143,0.5782857142857143,0.5651428571428572,0.0,0.0,,0.7411314285714286,0.5298004342907153,-0.1413049772941566,0.0022543818337454,0.1413049772941566,1.0,0.0,1.0,0.6665224,0.5507211907397133,0,0.5507211907397133,2.252029869090531e-07,0.4231885714285714,-0.0570631372752062,0.0006635074186984,0.0005520971642727,0.966170037477252,0.1108571428571428,0.3885651153665713,0.3428518857142857,-0.0570631372752062,0.0004020066913776,0.5329581122551421,-0.1286242779753405,1.0,-0.0024579852337978,0.0,0.4542857142857143,0.8897142857142857,0.6564000000000001,0.0,0.0,0.4503250285714285,5.0,4.0,1.0,0.678714859437751,-0.9013595191835571,-0.4330716074475291,0.22515594052269275,0.9743227403932136,6.0,0.5862068965517241,30.0,0.0,0.0,1.0,0.0,0.0,0.0,0.0,0.0,0.0,0.0,0.0,0.0,0.0,0.0,0.0,0.0,1.0,1.0,0.0,0.0,0.0,1.0,0.0,1.0,0.0,0.0,0.0,0.0,0.4344416457142857,0.0,0.0,0.0,0.0,0.0,0.0,0,0.0,0.0,0.0,False,0.0,False,0.0,False,0.0,False,0.0,False,0.0,0.0,0.2361453458285714,0.0
h109_strict_coeff_null_c60_t8_a_0b68b47b,1184,169,id07,2024-08-17,2024-08-16,Q2,1,0.279365532705393,0.2697227602101059,0.000232595632452,0.4492514285714286,0.5428571428571428,0.2964830285714286,0.3917142857142857,0.3577142857142857,0.2488077714285714,1.0,1.0,0,6.0,5.71228967627096,1.0,1.0,-0.0484186739836393,-2.6770223851371676e-07,-0.000232595632452,1.0,0.0,0.0,0.0,1.0045630993715804e-11,0.1015616947347083,0.3582857142857142,0.572,0.596,0.0,0.0,,0.4981571428571428,0.2697205087980046,-0.0484301041033371,0.0002118687393581,0.0484301041033371,1.0,0.0,1.0,0.4616226857142856,0.2741724013100657,0,0.7258275986899343,3.7887697732179615e-08,0.4092,-0.0259444577031136,0.0038687875711955,0.0005661171901252,0.9907050827191902,0.4194285714285714,0.4087488973516628,0.4177616,-0.0259444577031136,6.723643343664598e-05,0.2702244208715773,-0.0458733076926358,1.0,-0.0002320605817088,0.0,0.4542857142857143,0.6571428571428571,0.5503714285714286,0.0,0.0,0.3104193142857142,5.0,4.0,1.0,0.678714859437751,-0.9013595191835571,-0.4330716074475291,0.22515594052269275,0.9743227403932136,6.0,0.5862068965517241,30.0,0.0,1.0,0.0,0.0,0.0,0.0,0.0,0.0,0.0,0.0,0.0,0.0,0.0,0.0,0.0,0.0,1.0,1.0,0.0,0.0,0.0,1.0,0.0,0.0,0.0,0.0,0.0,0.0,0.3343390742857143,0.0,0.0,0.0,0.0,0.0,0.0,0,0.0,0.0,0.0,False,0.0,False,0.0,False,0.0,False,0.0,False,0.0,0.0,0.1855459572571428,0.0
h109_strict_coeff_null_c60_t8_a_0b68b47b,1183,169,id07,2024-08-17,2024-08-16,Q1,0,0.1274544003561906,0.1168156129966419,0.0005215103908087,0.5925714285714286,0.5428571428571428,0.5570341142857143,0.1725,0.1785714285714285,0.5119090285714286,1.0,0.0,0,20.0,17.09019982354792,3.0,1.0,-0.1020071737969828,-4.482423496364393e-07,-0.0005186751080142,1.0,1.0,1.0,0.0,0.0,0.3233160308777463,0.1785714285714285,0.8714285714285714,0.8731428571428571,0.0,0.0,,0.7593628571428573,0.1167553763098277,-0.0998649944566389,0.0004808723802615,0.0998649944566389,1.0,0.0,1.0,0.6179971428571429,0.1164254915770122,0,0.8835745084229877,3.159108494636005e-07,0.62232,-0.1030678507775402,0.0002153999101432,0.0005615668317439,0.982741955551965,0.2502857142857143,0.6893570565334828,0.40296,-0.1030678507775411,0.0005609803445251,0.1155371874785612,-0.1117317620110323,1.0,-0.0005202693804681,0.0,0.4542857142857143,0.8594285714285714,0.6223714285714286,0.0,0.0,0.4103948571428572,5.0,4.0,1.0,0.678714859437751,-0.9013595191835571,-0.4330716074475291,0.22515594052269275,0.9743227403932136,6.0,0.5862068965517241,30.0,1.0,0.0,0.0,0.0,0.0,0.0,0.0,0.0,0.0,0.0,0.0,0.0,0.0,0.0,0.0,0.0,1.0,1.0,0.0,0.0,0.0,1.0,0.0,1.0,0.0,0.0,0.0,0.0,0.26028062857142864,0.0,0.0,0.0,0.0,0.0,0.0,0,0.0,0.0,0.0,False,0.0,False,0.0,False,0.0,False,0.0,False,0.0,0.0,0.26555382514285714,0.0
h109_strict_coeff_null_c60_t8_a_0b68b47b,1182,168,id07,2024-08-16,2024-08-15,S4,6,0.6608021779332724,0.657041181037364,3.149750687769792e-05,0.36816,0.5314971428571429,-0.0323346285714285,0.9573428571428572,0.9142857142857144,0.3996826285714285,1.0,1.0,0,0.0,0.0,0.0,0.0,0.0,0.0,0.0,0.0,0.0,0.0,0.0,0.3795718325931641,0.0,0.9622857142857144,0.0777142857142857,0.1788571428571428,0.0,0.0,,-0.7514542857142857,0.657149126134697,-0.0162556444093758,2.7039195820144357e-05,0.0162556444093758,0.0,0.0,0.0,0.0568754285714285,0.6456750084797447,1,0.6456750084797447,3.113029189577304e-07,0.6694628571428572,0.0679564316609948,0.0032737919816324,0.0005259045472873,0.920332957752807,0.0474285714285714,0.8055239724666647,-0.0022253714285714,-0.0667892877774949,0.0005068900654802,0.6608021779332724,0.0,0.0,0.0,0.0,0.4542857142857143,0.2202857142857142,0.0,0.9624228571428572,0.1347457194384897,0.1305526857142857,4.0,3.0,1.0,0.6746987951807228,-0.8901457403773966,-0.4556759384562417,0.15082429716137163,0.9885605855918889,6.0,0.5517241379310345,30.0,0.0,0.0,0.0,0.0,0.0,0.0,1.0,0.0,0.0,0.0,0.0,0.0,0.0,0.0,1.0,1.0,0.0,0.0,0.0,0.0,0.0,0.0,1.0,0.0,1.0,0.0,0.0,0.0,0.04615241142857143,0.0,0.0,0.0,0.0,0.0,0.0,0,0.0,0.0,0.0,False,0.0,False,0.0,False,0.0,False,0.0,False,0.0,0.0,0.16462515931428567,0.0
h109_strict_coeff_null_c60_t8_a_0b68b47b,1163,166,id07,2024-07-28,2024-07-27,Q2,1,0.2878381236546914,0.2762224889315308,0.0003318077692083,0.3016057142857142,0.616657142857143,0.2042304571428571,0.6355000000000001,0.1785714285714285,0.0629813714285714,0.0,1.0,1,0.0,0.0,0.0,0.0,0.0,0.0,0.0,0.0,0.0,0.0,0.0,0.0,0.2446929419914872,0.1785714285714285,0.816,0.816,0.0,0.0,,-0.7395114285714286,0.2761892167019579,-0.05753682209176,0.0003038620513836,0.05753682209176,0.0,0.0,0.0,-0.1386115428571428,0.2895931819414545,0,0.7104068180585454,4.335761234363461e-09,0.3344685714285714,0.0085463166072055,0.0031092194349588,0.0005729188457616,1.0026079800829582,0.7057142857142857,0.3521427102951141,0.4352298285714285,0.0085463166072052,7.504155941195911e-06,0.2878381236546914,0.0,0.0,0.0,0.0,0.4542857142857143,0.2202857142857142,0.0,0.0,0.0,0.0915801142857142,6.0,5.0,1.0,0.6666666666666666,-0.8660254037844384,-0.5000000000000004,-4.898587196589413e-16,1.0,6.0,0.4827586206896552,30.0,0.0,1.0,0.0,0.0,0.0,0.0,0.0,0.0,0.0,0.0,0.0,0.0,0.0,0.0,0.0,0.0,0.0,0.0,1.0,1.0,0.0,1.0,0.0,0.0,0.0,0.0,0.0,0.0,0.1426922971428572,0.0,0.0,0.0,0.0,0.0,0.0,0,0.0,0.0,0.0,False,0.0,False,0.0,False,0.0,False,0.0,False,0.0,0.0,0.12490955474285714,0.0
