kbsooo/etri/hitl/h099_route_constrained_signed_assignment_hsjepa/h099_selected_cells.csv
candidate_id,flat_index,row,subject_id,sleep_date,lifelog_date,target,target_index,h057_prob,q061,cell_q061_gain,public_score,invariant_score,private_safe_score,latent_shortcut_energy,bad_pressure_rank,h068_cell_health,outside_h069_cell,outside_h070_cell,is_h050_null,source_count,source_weight,source_family_count,source_consensus,source_mean_move,source_action_delta,source_posterior_delta,hit_h071,hit_h074,hit_h076,hit_h079,h080_bad_same_raw,h080_bad_opp_raw,h080_bad_same_rank,h080_bad_opp_rank,h080_bad_margin_rank,h079_cell,h079_row,h079_role,h080_cell_score,h085_q,h085_q_move,h085_q_gain,h085_abs_q_move,h082_cell,h084_dark_cell,source_agrees_h085,h085_cell_score,q_hard,best_world_y,confidence,hard_gain,combined_score,hard_logit_delta,binary_shock,h086_resp_weight,h086_resp_lift,h086_resp_rank,h086_equation_alignment,h086_resp_action_score,hard_logit_move,hard_diag_gain,h088_prob,h088_logit_move,h088_active,h088_q_delta,h088_q_bad,h088_bad_rank,h088_move_abs_rank,h088_toxicity,h057_positive_weight,h057_positive_logit_move,h095_safe_cell_score,sleep_dow,lifelog_dow,date_gap_days,row_norm,row_sin1,row_cos1,row_sin3,row_cos3,subject_idx,within_subject_norm,subject_block_size,target_Q1,target_Q2,target_Q3,target_S1,target_S2,target_S3,target_S4,sleep_dow_0,lifelog_dow_0,sleep_dow_1,lifelog_dow_1,sleep_dow_2,lifelog_dow_2,sleep_dow_3,lifelog_dow_3,sleep_dow_4,lifelog_dow_4,sleep_dow_5,lifelog_dow_5,sleep_dow_6,lifelog_dow_6,is_q,is_s,is_subjective_quality,is_objective_stage,h057_h088_anti_conflict,h057_h088_same_conflict,conflict_strength,h097_gradient,h097_descent_logit_move,h097_counter_h088_move,h097_conflict_move,h097_positive_move,h097_cell_score,h098_frontier_cell_score,h099_route_move,h097_move_col,h099_action_id,h099_route_id,h099_route_name,h099_route_targets
h099_route_conflict_c72_r28_a052_1cbff4af,6,0,id01,2024-07-31,2024-07-30,S4,6,0.5084298008946088,0.5091151839410136,9.39781743536372e-07,0.1482914285714285,0.5036571428571429,0.3172508,0.4932142857142857,0.1785714285714285,0.2109301714285714,1.0,1.0,0,0.0,0.0,0.0,0.0,0.0,0.0,0.0,0.0,0.0,0.0,0.0,0.0,0.1856015952715258,0.1785714285714285,0.7337142857142858,0.736,0.0,0.0,,-0.5764400000000001,0.5091590368126224,0.0029178468760701,9.681413111195525e-07,0.0029178468760701,0.0,0.0,0.0,0.0957847428571428,0.5223625210687107,1,0.5223625210687107,1.4679869777242745e-07,0.45888,0.045010420029887,0.0019122187266242,0.000551777393772,0.9656104391011492,0.108,0.502682123038882,0.0688006857142857,0.0557874001969457,0.000388523838803,0.5114968799282992,0.0122732280433281,1.0,9.8721686667691e-06,9.8721686667691e-06,0.9217142857142856,0.5114285714285715,0.7346857142857143,0.8756571428571429,-0.0107769801670586,-0.0351718857142857,2.0,1.0,1.0,0.0,0.0,1.0,0.0,1.0,0.0,0.0,27.0,0.0,0.0,0.0,0.0,0.0,0.0,1.0,0.0,0.0,0.0,1.0,1.0,0.0,0.0,0.0,0.0,0.0,0.0,0.0,0.0,0.0,0.0,1.0,0.0,1.0,1.0,0.0,0.6433327934693878,2.0447627369697292e-05,-0.27350164828270496,-0.05982015307442786,-0.07201824949096935,-0.07201824949096935,0.45683021257142853,0.57472224,-0.07201824949096935,h099_route_move,r000_recovery_route_conflict_invert,r000_recovery_route,recovery_route,"Q1,S2,S3,S4"
h099_route_conflict_c72_r28_a052_1cbff4af,23,3,id01,2024-08-03,2024-08-02,Q3,2,0.5825405612758282,0.5795370659761659,1.8534940263270627e-05,0.2811657142857143,0.6352171428571428,0.1250753999999999,0.8544285714285714,0.9097142857142856,0.3286348571428571,0.0,1.0,0,3.0,5.4,1.0,1.0,-0.0020563557839757,-1.3985871682512395e-09,-5.640630085346209e-06,0.0,0.0,0.0,1.0,0.127484423230084,0.0059622151491581,0.8485714285714285,0.2148571428571428,0.1788571428571428,1.0,1.0,episode_neighbor_q061,0.28076,0.5795635192393868,-0.0122295736452776,1.6570339673616097e-05,0.0122295736452776,1.0,0.0,1.0,0.1879783428571428,0.5577169744059128,0,0.5577169744059128,8.511330267661373e-11,0.1802285714285714,0.0011137372782469,0.0033986064699007,0.0005605465865673,0.9809565264928056,0.22,0.1387492598971923,0.2050615999999999,-0.1013098164667343,0.0012604154204444,0.5729004845201093,-0.0395164455506682,1.0,7.263366103893443e-05,7.263366103893443e-05,0.9571428571428572,0.6308571428571429,0.8040571428571429,0.9461771428571428,0.1024235537449813,0.0526738285714285,5.0,4.0,1.0,0.012048192771084338,0.0756287458844567,0.997136045279652,0.225155940522694,0.9743227403932134,0.0,0.11538461538461539,27.0,0.0,0.0,1.0,0.0,0.0,0.0,0.0,0.0,0.0,0.0,0.0,0.0,0.0,0.0,0.0,0.0,1.0,1.0,0.0,0.0,0.0,1.0,0.0,1.0,0.0,1.0,0.0,0.760780490122449,-1.461782808600078e-05,0.19798109253029106,0.1904796281519601,0.5951754951749221,0.5951754951749221,0.5332048411428572,0.5840420685714287,0.5951754951749221,h099_route_move,r003_q_subjective_conflict_invert,r003_q_subjective,q_subjective,"Q1,Q2,Q3"
h099_route_conflict_c72_r28_a052_1cbff4af,429,61,id03,2024-08-19,2024-08-18,Q3,2,0.769391940972039,0.7691873343964346,1.1794978560519809e-07,0.1801828571428571,0.3370171428571429,0.0740792571428571,0.6702571428571429,0.7508571428571429,0.2411588571428571,1.0,1.0,0,2.0,3.6,1.0,1.0,-0.000184451677063,-5.6483338269916636e-11,-3.4533000903280715e-08,0.0,0.0,0.0,1.0,0.0259545843659137,0.1152267987939449,0.6217142857142857,0.6057142857142858,0.572,1.0,1.0,episode_neighbor_q061,0.3079257142857142,0.769159963715853,-0.0013069844411823,1.3796569509061385e-07,0.0013069844411823,0.0,0.0,1.0,0.0993245714285714,0.7570030321951982,0,0.7570030321951982,9.349604647858497e-08,0.3282628571428571,-0.0431694753420197,0.0002337820502099,0.000570936680997,0.9991391917449192,0.6605714285714286,0.4307766506520007,0.3147865142857143,-0.0685626666458385,0.0004272632394869,0.7692349173091595,-0.0008847885427687,1.0,-1.357899670484386e-07,0.0,0.4542857142857143,0.4502857142857143,0.4517142857142857,0.8968457142857144,0.0253931913038187,0.0444745142857143,0.0,6.0,1.0,0.24497991967871485,0.9995025893658627,0.03153686495097154,-0.995526272808559,-0.09448513188803126,2.0,0.1,21.0,0.0,0.0,1.0,0.0,0.0,0.0,0.0,1.0,0.0,0.0,0.0,0.0,0.0,0.0,0.0,0.0,0.0,0.0,0.0,0.0,1.0,1.0,0.0,1.0,0.0,1.0,0.0,0.4051180212244898,-3.75723322305093e-05,0.4743605781628997,0.004317619303338317,0.16836825727885685,0.16836825727885685,0.498675808,0.5751226514285716,0.16836825727885685,h099_route_move,r061_q_subjective_conflict_invert,r061_q_subjective,q_subjective,"Q1,Q2,Q3"
h099_route_conflict_c72_r28_a052_1cbff4af,492,70,id03,2024-09-16,2024-09-15,Q3,2,0.7379400612256236,0.7355869958106938,1.4288337799372997e-05,0.3116914285714286,0.6828971428571429,0.2207168285714285,0.8332285714285714,0.8417142857142857,0.3441497142857141,0.0,1.0,0,3.0,5.4,1.0,1.0,-0.0020221380359516,-3.134488404904697e-09,-4.346254514286939e-06,0.0,0.0,0.0,1.0,0.0731579621258778,0.0472847466857211,0.7742857142857142,0.44,0.1788571428571428,1.0,1.0,episode_neighbor_q061,0.3316057142857143,0.7355915224463873,-0.012109554749387,1.2950746220652398e-05,0.012109554749387,0.0,0.0,1.0,0.1411393714285714,0.7328617364915871,1,0.7328617364915871,2.4116037798910797e-07,0.5565599999999999,0.065736169256795,0.0009675930385018,0.0005668389182423,0.9919681069240556,0.4594285714285714,0.2781616572872293,0.2739041142857143,-0.0260986599217263,6.640444775363186e-05,0.7351021332494506,-0.0146242487539178,1.0,-1.3618258931202831e-05,0.0,0.4542857142857143,0.5257142857142857,0.4838571428571429,0.9333028571428572,0.0918348291785213,0.0667148571428571,0.0,6.0,1.0,0.28112449799196787,0.9809388143902331,-0.19431686088109762,-0.8327815731637613,0.553601708269484,2.0,0.55,21.0,0.0,0.0,1.0,0.0,0.0,0.0,0.0,1.0,0.0,0.0,0.0,0.0,0.0,0.0,0.0,0.0,0.0,0.0,0.0,0.0,1.0,1.0,0.0,1.0,0.0,1.0,0.0,0.45158525387755105,-3.475552489496882e-05,0.44385488597587336,0.07124341483015365,0.547468937695688,0.547468937695688,0.50485992,0.5586044000000001,0.547468937695688,h099_route_move,r070_q1q3_subjective_conflict_invert,r070_q1q3_subjective,q1q3_subjective,"Q1,Q3"
h099_route_conflict_c72_r28_a052_1cbff4af,689,98,id04,2024-10-19,2024-10-18,S1,3,0.6371260254955748,0.6405330343175071,2.51376604938347e-05,0.2224685714285713,0.4586171428571429,0.0413004,0.7652857142857143,0.6982857142857143,0.3247446857142857,1.0,1.0,0,0.0,0.0,0.0,0.0,0.0,0.0,0.0,0.0,0.0,0.0,0.0,0.0999969057319737,0.0,0.8154285714285714,0.0777142857142857,0.1788571428571428,0.0,0.0,,-0.7547914285714286,0.6405000114407822,0.0146231119468513,2.2435790286601257e-05,0.0146231119468513,0.0,0.0,0.0,0.0546097142857142,0.6458406625928385,0,0.6458406625928385,2.652752376425061e-07,0.6229485714285715,-0.0646258238737329,0.0076759256074498,0.0005509684978578,0.9641948712512676,0.1045714285714285,-0.0194807088009702,-0.0150077714285714,0.037894021574039,0.0001648212272662,0.6414968295448158,0.0189548562062582,1.0,-2.2492975142118787e-05,0.0,0.4542857142857143,0.5468571428571428,0.4944,0.9422057142857144,-0.102519845447772,-0.0024486857142857,5.0,4.0,1.0,0.39357429718875503,0.6199605408122387,-0.7846329892604544,0.9067516281939827,0.4216651334501838,3.0,0.6923076923076923,27.0,0.0,0.0,0.0,1.0,0.0,0.0,0.0,0.0,0.0,0.0,0.0,0.0,0.0,0.0,0.0,0.0,1.0,1.0,0.0,0.0,0.0,0.0,1.0,0.0,1.0,1.0,0.0,0.46582650514285723,2.194044366159535e-05,-0.2923497273116655,-0.09223419251227838,-0.5955915930492218,-0.5955915930492218,0.368164096,0.4561278171428572,-0.5955915930492218,h099_route_move,r098_full_state_conflict_invert,r098_full_state,full_state,"Q1,Q2,Q3,S1,S2,S3,S4"
h099_route_conflict_c72_r28_a052_1cbff4af,692,98,id04,2024-10-19,2024-10-18,S4,6,0.5214942199375637,0.5220806282002836,6.890459806063731e-07,0.1991714285714285,0.4586171428571429,0.1756905714285715,0.6144571428571429,0.6337142857142857,0.2882345142857143,1.0,1.0,0,0.0,0.0,0.0,0.0,0.0,0.0,0.0,0.0,0.0,0.0,0.0,0.0166549901710211,0.0640435912665656,0.56,0.4845714285714286,0.4805714285714286,0.0,0.0,,-0.6675114285714286,0.5220939306128404,0.0024034092933237,6.55804488269851e-07,0.0024034092933237,0.0,0.0,0.0,0.0311753714285714,0.5317358803323887,0,0.5317358803323887,1.616032067237963e-08,0.2549485714285714,0.0153557474784382,0.005842441771129,0.0005639505118782,0.9869133957869688,0.3177142857142857,0.3199408510132027,0.0963508571428571,0.041084505048586,0.0002103100861962,0.525141978301795,0.0146229027435558,1.0,1.7903928382079215e-05,1.7903928382079215e-05,0.932,0.5251428571428571,0.7487428571428572,0.8981142857142858,-0.0257287575701478,-0.0963236571428572,5.0,4.0,1.0,0.39357429718875503,0.6199605408122387,-0.7846329892604544,0.9067516281939827,0.4216651334501838,3.0,0.6923076923076923,27.0,0.0,0.0,0.0,0.0,0.0,0.0,1.0,0.0,0.0,0.0,0.0,0.0,0.0,0.0,0.0,0.0,1.0,1.0,0.0,0.0,0.0,0.0,1.0,0.0,1.0,1.0,0.0,0.6724566563265306,3.12372375914435e-05,-0.40426159357591074,-0.0712368798205084,-0.17055009356096082,-0.17055009356096082,0.42993552914285715,0.5486207771428572,-0.17055009356096082,h099_route_move,r098_full_state_conflict_invert,r098_full_state,full_state,"Q1,Q2,Q3,S1,S2,S3,S4"
h099_route_conflict_c72_r28_a052_1cbff4af,709,101,id04,2024-10-24,2024-10-23,Q3,2,0.7836327157945403,0.7816403087409958,1.168048358135554e-05,0.2945942857142857,0.2851371428571428,-0.0389592857142857,0.8681142857142857,0.8714285714285714,0.3298454285714285,1.0,1.0,0,2.0,3.6,1.0,1.0,-0.0018739318165117,-2.0788438578953267e-09,-3.417201348221433e-06,0.0,0.0,0.0,1.0,0.112718299813475,0.0,0.832,0.0777142857142857,0.1788571428571428,1.0,1.0,episode_neighbor_q061,0.2406514285714286,0.7816747794316019,-0.0115100999444255,1.0263480041294848e-05,0.0115100999444255,0.0,0.0,1.0,0.1124250857142857,0.7718980136932254,1,0.7718980136932254,1.1513008166658741e-08,0.2556914285714285,0.0152658122683577,0.0015390106257885,0.0005705088303653,0.9983904531393746,0.6508571428571429,0.2558821948728312,0.3108536,-0.0679034849537958,0.0004009186480832,0.7766653504406011,-0.0406248364023611,1.0,6.144628333681901e-05,6.144628333681901e-05,0.9554285714285714,0.6377142857142857,0.8043142857142858,0.9279028571428573,0.0831692972221536,-0.0305217142857143,3.0,2.0,1.0,0.40562248995983935,0.5588441929376095,-0.8292726741066004,0.9784091409455726,0.2066774126849536,3.0,0.8076923076923077,27.0,0.0,0.0,1.0,0.0,0.0,0.0,0.0,0.0,0.0,0.0,0.0,0.0,1.0,1.0,0.0,0.0,0.0,0.0,0.0,0.0,0.0,1.0,0.0,1.0,0.0,1.0,0.0,0.7463255237551022,-1.7175824227346826e-05,0.23146706622775595,0.19568676269606256,0.5055628676337081,0.5055628676337081,0.4439353257142857,0.5417878857142857,0.5055628676337081,h099_route_move,r101_q_subjective_conflict_invert,r101_q_subjective,q_subjective,"Q1,Q2,Q3"
h099_route_conflict_c72_r28_a052_1cbff4af,773,110,id05,2024-10-02,2024-10-01,S1,3,0.3056001244245433,0.3110822546809208,7.057753952244283e-05,0.3760514285714286,0.2893571428571428,-0.1615444571428571,0.9791428571428572,0.976,0.4021014857142857,0.0,1.0,0,0.0,0.0,0.0,0.0,0.0,0.0,0.0,0.0,0.0,0.0,0.0,0.5338642750937583,0.0,0.9782857142857144,0.0777142857142857,0.1788571428571428,0.0,0.0,,-0.8408714285714286,0.3109228312939359,0.0249620044578845,6.0536909005648454e-05,0.0249620044578845,0.0,0.0,0.0,0.0106631142857142,0.3280865985574698,0,0.6719134014425301,7.07270156879589e-07,0.8127885714285715,-0.103914952574892,0.0046335205166585,0.0004988658735812,0.8730152787671973,0.0251428571428571,0.617569535666361,-0.0207438285714286,0.1039186479338416,0.0011757968820913,0.3104731064038094,0.0228621025454448,1.0,-6.606645263562694e-05,0.0,0.4542857142857143,0.5617142857142857,0.5061428571428572,0.9841714285714288,-0.207833600508734,-0.0541572571428571,2.0,1.0,1.0,0.44176706827309237,0.3577789366275641,-0.9338063142352645,0.8901457403773968,-0.45567593845624127,4.0,0.15,21.0,0.0,0.0,0.0,1.0,0.0,0.0,0.0,0.0,0.0,0.0,1.0,1.0,0.0,0.0,0.0,0.0,0.0,0.0,0.0,0.0,0.0,0.0,1.0,0.0,1.0,1.0,0.0,0.4981313387755104,1.6060172410964027e-05,-0.21692467541082458,-0.111103341767302,-0.8834516417206303,-0.8834516417206303,0.30853769600000003,0.4053762742857143,-0.8834516417206303,h099_route_move,r110_full_state_conflict_invert,r110_full_state,full_state,"Q1,Q2,Q3,S1,S2,S3,S4"
h099_route_conflict_c72_r28_a052_1cbff4af,776,110,id05,2024-10-02,2024-10-01,S4,6,0.4438495786612846,0.4451675276483861,3.517651817719347e-06,0.2391714285714286,0.2893571428571428,-0.0912718571428571,0.8011428571428572,0.8748571428571429,0.3034004571428571,0.0,1.0,0,0.0,0.0,0.0,0.0,0.0,0.0,0.0,0.0,0.0,0.0,0.0,0.1517560969078651,0.0055488407941821,0.8748571428571429,0.2114285714285714,0.1788571428571428,0.0,0.0,,-0.8335457142857143,0.4451219697262338,0.0051530909657626,2.983565084324624e-06,0.0051530909657626,0.0,0.0,0.0,-0.068577,0.4632074008694939,0,0.536792599130506,7.647812904665928e-08,0.2794971428571428,0.0331756448528687,0.0011639351142216,0.0005573933773258,0.975438410320314,0.168,0.5618931275998716,-0.0022037142857142,0.0781161866856486,0.0007569947114121,0.4480957780680643,0.0171855610708425,1.0,1.46086126527889e-05,1.46086126527889e-05,0.9274285714285714,0.5394285714285715,0.7487999999999999,0.9094228571428572,-0.04494054183278,-0.1995107428571428,2.0,1.0,1.0,0.44176706827309237,0.3577789366275641,-0.9338063142352645,0.8901457403773968,-0.45567593845624127,4.0,0.15,21.0,0.0,0.0,0.0,0.0,0.0,0.0,1.0,0.0,0.0,0.0,1.0,1.0,0.0,0.0,0.0,0.0,0.0,0.0,0.0,0.0,0.0,0.0,1.0,0.0,1.0,1.0,0.0,0.6809758354285714,2.3908606913751862e-05,-0.3168546135305518,-0.08366711666358208,-0.2920816055350949,-0.2920816055350949,0.34890999542857143,0.47316624,-0.2920816055350949,h099_route_move,r110_full_state_conflict_invert,r110_full_state,full_state,"Q1,Q2,Q3,S1,S2,S3,S4"
h099_route_conflict_c72_r28_a052_1cbff4af,945,135,id06,2024-07-14,2024-07-13,Q1,0,0.3265168623517541,0.332467224835243,8.025667657762803e-05,0.3744571428571428,0.4153771428571429,-0.0994901714285714,0.9742571428571428,0.9685714285714284,0.3800493714285714,0.0,1.0,0,0.0,0.0,0.0,0.0,0.0,0.0,0.0,0.0,0.0,0.0,0.0,0.5725434492673942,0.0,0.9817142857142858,0.0777142857142857,0.1788571428571428,0.0,0.0,,-0.8262657142857144,0.3323169909206154,0.0262571471809444,6.938334396489054e-05,0.0262571471809444,0.0,0.0,0.0,0.0315527428571428,0.344659554634995,1,0.655340445365005,9.866239582278026e-07,0.6901028571428571,-0.123946419174583,0.0014640261314393,0.0003771091657354,0.6599410400369783,0.0062857142857142,0.7984103847618609,-0.0157502857142857,0.081383632605916,0.0007415524517681,0.335027405247487,0.0384478717404617,1.0,-5.975131469893036e-05,0.0,0.4542857142857143,0.6268571428571429,0.5252571428571429,0.9829828571428572,-0.1743681471515381,-0.0398052571428571,6.0,5.0,1.0,0.5421686746987951,-0.2618644849608063,-0.9651046531419334,-0.7137661126871386,-0.7003841348713511,5.0,0.30434782608695654,24.0,1.0,0.0,0.0,0.0,0.0,0.0,0.0,0.0,0.0,0.0,0.0,0.0,0.0,0.0,0.0,0.0,0.0,0.0,1.0,1.0,0.0,1.0,0.0,1.0,0.0,1.0,0.0,0.5163187670204081,1.9433887252826953e-05,-0.2605804625931922,-0.18544937930027952,-0.8233896967933166,-0.8233896967933166,0.33796750171428575,0.42969570285714287,-0.8233896967933166,h099_route_move,r135_full_state_conflict_invert,r135_full_state,full_state,"Q1,Q2,Q3,S1,S2,S3,S4"
h099_route_conflict_c72_r28_a052_1cbff4af,947,135,id06,2024-07-14,2024-07-13,Q3,2,0.8233562803446187,0.8211995281478749,1.5940535035174896e-05,0.2876571428571428,0.4153771428571429,-0.0838771142857143,0.9258,0.964,0.3306977142857142,1.0,1.0,0,0.0,0.0,0.0,0.0,0.0,0.0,0.0,0.0,0.0,0.0,0.0,0.2445756176535394,0.0,0.9285714285714286,0.0777142857142857,0.1788571428571428,0.0,0.0,,-0.7948314285714286,0.8212701536208874,-0.0142775087436182,1.3569943485169931e-05,0.0142775087436182,0.0,0.0,0.0,0.0141144571428571,0.8135768926925118,0,0.8135768926925118,6.984182582356931e-08,0.3558057142857143,0.0404020375392994,0.0006730519548812,0.0005742784329964,1.0049872577438463,0.7342857142857143,0.3838669842879127,0.360628,-0.0658326085220084,0.0003241510323629,0.8192405880794565,-0.0280433228436189,1.0,-9.664076740523164e-07,0.0,0.4542857142857143,0.5822857142857143,0.4927714285714286,0.93888,0.1062346460613079,-0.0398117714285714,6.0,5.0,1.0,0.5421686746987951,-0.2618644849608063,-0.9651046531419334,-0.7137661126871386,-0.7003841348713511,5.0,0.30434782608695654,24.0,0.0,0.0,1.0,0.0,0.0,0.0,0.0,0.0,0.0,0.0,0.0,0.0,0.0,0.0,0.0,0.0,0.0,0.0,1.0,1.0,0.0,1.0,0.0,1.0,0.0,1.0,0.0,0.4626532388571429,-2.8782376936957118e-05,0.3756966149518632,0.13599964161537711,0.6114005093275046,0.6114005093275046,0.36150274514285724,0.4524815657142857,0.6114005093275046,h099_route_move,r135_full_state_conflict_invert,r135_full_state,full_state,"Q1,Q2,Q3,S1,S2,S3,S4"
h099_route_conflict_c72_r28_a052_1cbff4af,949,135,id06,2024-07-14,2024-07-13,S2,4,0.9120002370412033,0.9128559625035724,4.575502052239777e-06,0.3906628571428571,0.4153771428571429,0.2220676,0.6870285714285714,0.6325714285714286,0.400656,0.0,1.0,0,0.0,0.0,0.0,0.0,0.0,0.0,0.0,0.0,0.0,0.0,0.0,0.0306072182800029,0.0387905347810696,0.6485714285714286,0.4114285714285714,0.3845714285714285,0.0,0.0,,-0.6916942857142857,0.9128484616979826,0.0106153362211465,4.091754492618893e-06,0.0106153362211465,0.0,0.0,0.0,0.0204137714285714,0.9250982584531292,1,0.9250982584531292,2.2462660630838865e-07,0.7114057142857144,0.1055641087159346,0.0028894661390598,0.0005657735831001,0.9901037704252228,0.4017142857142857,0.1604154161182626,0.1480686857142857,0.1754166861823174,0.0011206919463118,0.916900949362351,0.062660043836634,1.0,0.0001017187385513,0.0001017187385513,0.9645714285714284,0.7251428571428571,0.8401142857142857,0.9117314285714286,-0.0698525774663827,-0.1410235428571428,6.0,5.0,1.0,0.5421686746987951,-0.2618644849608063,-0.9651046531419334,-0.7137661126871386,-0.7003841348713511,5.0,0.30434782608695654,24.0,0.0,0.0,0.0,0.0,1.0,0.0,0.0,0.0,0.0,0.0,0.0,0.0,0.0,0.0,0.0,0.0,0.0,0.0,1.0,1.0,0.0,0.0,1.0,0.0,1.0,1.0,0.0,0.765958597877551,3.481571450463641e-05,-0.4445179993547255,-0.2965862016490989,-0.43626330430800747,-0.43626330430800747,0.42783029028571434,0.5573068457142858,-0.43626330430800747,h099_route_move,r135_full_state_conflict_invert,r135_full_state,full_state,"Q1,Q2,Q3,S1,S2,S3,S4"
h099_route_conflict_c72_r28_a052_1cbff4af,950,135,id06,2024-07-14,2024-07-13,S3,5,0.9998174319302912,0.9999690243965154,9.66556169085143e-05,0.41248,0.4153771428571429,0.4060846285714286,0.1434428571428571,0.1785714285714285,0.4921344,1.0,1.0,0,10.0,8.8123413858064,2.0,1.0,1.7740747865535766,-2.262030586979623e-08,-9.66556169085143e-05,1.0,1.0,0.0,0.0,0.0,5.8767346452884475,0.1785714285714285,0.9777142857142858,0.9777142857142858,0.0,0.0,,0.6325457142857144,0.999999,5.2073046728950665,0.0001106688193046,5.2073046728950665,1.0,0.0,1.0,0.5681642857142857,0.999999,1,0.999999,1.5611654156441006e-08,0.5173485714285715,3.3098046728945274,8.273637275291179e-08,0.0006977555522572,1.221072216450262,0.9817142857142858,0.9460383938620918,0.760486742857143,2.5,0.0001650960133852,0.9999740212292776,1.9499999999975175,1.0,-0.0001546556291109,0.0,0.4542857142857143,0.9914285714285714,0.6443142857142858,0.7002114285714286,-1.897500000000539,0.4285694857142857,6.0,5.0,1.0,0.5421686746987951,-0.2618644849608063,-0.9651046531419334,-0.7137661126871386,-0.7003841348713511,5.0,0.30434782608695654,24.0,0.0,0.0,0.0,0.0,0.0,1.0,0.0,0.0,0.0,0.0,0.0,0.0,0.0,0.0,0.0,0.0,0.0,0.0,1.0,1.0,0.0,0.0,1.0,0.0,1.0,1.0,0.0,0.4511562264489797,-2.2705333750741938e-05,0.3019208944263395,-0.999999989141474,-0.9999999999814639,-0.9999999999814639,0.514208032,0.4576712342857143,-0.9999999999814639,h099_route_move,r135_full_state_conflict_invert,r135_full_state,full_state,"Q1,Q2,Q3,S1,S2,S3,S4"
h099_route_conflict_c72_r28_a052_1cbff4af,951,135,id06,2024-07-14,2024-07-13,S4,6,0.8326790220313127,0.833879711711521,5.183653563278767e-06,0.2921257142857143,0.4153771428571429,-0.1112793428571428,0.8874,0.9285714285714286,0.3429414857142857,1.0,1.0,0,0.0,0.0,0.0,0.0,0.0,0.0,0.0,0.0,0.0,0.0,0.0,0.3617674279706701,0.0,0.9582857142857144,0.0777142857142857,0.1788571428571428,0.0,0.0,,-0.7936942857142857,0.8337650677901544,0.0078153785157646,3.859087214619361e-06,0.0078153785157646,0.0,0.0,0.0,-0.0153674857142856,0.8312358502886998,1,0.8312358502886998,3.840924880026521e-07,0.6961371428571429,-0.0989839981964375,0.0011361898931917,0.0005810148178281,1.016775931199321,0.8325714285714285,0.5783184363674189,0.3844385142857142,-0.010322855520866,7.457335124527731e-06,0.8329793279449548,0.0021569871909787,1.0,-2.0186312811865115e-06,0.0,0.4542857142857143,0.4594285714285714,0.4581428571428572,0.9290628571428572,-0.0886611426755714,-0.0597717714285714,6.0,5.0,1.0,0.5421686746987951,-0.2618644849608063,-0.9651046531419334,-0.7137661126871386,-0.7003841348713511,5.0,0.30434782608695654,24.0,0.0,0.0,0.0,0.0,0.0,0.0,1.0,0.0,0.0,0.0,0.0,0.0,0.0,0.0,0.0,0.0,0.0,0.0,1.0,1.0,0.0,0.0,1.0,0.0,1.0,1.0,0.0,0.42564351183673477,2.0450299232601817e-05,-0.2735355762516674,-0.010525411472474492,-0.5324185666889959,-0.5324185666889959,0.3290954308571429,0.4147663657142857,-0.5324185666889959,h099_route_move,r135_full_state_conflict_invert,r135_full_state,full_state,"Q1,Q2,Q3,S1,S2,S3,S4"
h099_route_conflict_c72_r28_a052_1cbff4af,975,139,id06,2024-07-19,2024-07-18,Q3,2,0.7439595438752091,0.7399677023608381,4.16859280448767e-05,0.3280228571428571,0.5280971428571429,-0.0332376571428571,0.9586285714285714,0.9811428571428572,0.3647565714285714,0.0,1.0,0,0.0,0.0,0.0,0.0,0.0,0.0,0.0,0.0,0.0,0.0,0.0,0.3736466735880533,0.0,0.9617142857142856,0.0777142857142857,0.1788571428571428,0.0,0.0,,-0.8055971428571429,0.7400840689307989,-0.020245643390468,3.5750219449570686e-05,0.020245643390468,0.0,0.0,0.0,0.0240670285714286,0.7314817680775492,1,0.7314817680775492,5.469611738723606e-07,0.7339085714285715,0.0994963433248757,0.0056064356772304,0.0005687243082713,0.9952675394748086,0.5782857142857143,0.415144879432044,0.2598524571428571,-0.0644977115049467,0.0004044507406137,0.7354432689956294,-0.0442335008621266,1.0,1.6260783992305683e-05,1.6260783992305683e-05,0.9297142857142856,0.6497142857142857,0.784,0.973,0.1639940548298225,-0.1154598857142857,4.0,3.0,1.0,0.5582329317269076,-0.3577789366275639,-0.9338063142352645,-0.8901457403773956,-0.4556759384562435,5.0,0.4782608695652174,24.0,0.0,0.0,1.0,0.0,0.0,0.0,0.0,0.0,0.0,0.0,0.0,0.0,0.0,0.0,1.0,1.0,0.0,0.0,0.0,0.0,0.0,1.0,0.0,1.0,0.0,1.0,0.0,0.7628320000000001,-1.4849126100732473e-05,0.20102931071632024,0.21256231337228595,0.7997100187079332,0.7997100187079332,0.3383465325714286,0.44296686857142864,0.7997100187079332,h099_route_move,r139_full_state_conflict_invert,r139_full_state,full_state,"Q1,Q2,Q3,S1,S2,S3,S4"
h099_route_conflict_c72_r28_a052_1cbff4af,978,139,id06,2024-07-19,2024-07-18,S3,5,0.9998322183658211,0.999999,0.0001616728804585,0.4656228571428571,0.5280971428571429,0.4865783428571429,0.1508142857142857,0.1785714285714285,0.5339149714285715,1.0,0.0,0,20.0,17.52959496159584,3.0,1.0,4.949453310907217,-4.8125692751349655e-08,-0.0001614180034248,1.0,1.0,1.0,0.0,0.0,5.6968126966891885,0.1785714285714285,0.9765714285714284,0.9765714285714284,0.0,0.0,,0.707,0.999999,5.1228301330624095,0.0001016286010929,5.1228301330624095,0.0,0.0,1.0,0.5420378857142857,0.999999,1,0.999999,1.39734928052286e-08,0.5102685714285714,3.225330133061135,0.0,0.0006646334757489,1.1631085825605856,0.9657142857142856,0.9670264094251232,0.7171987428571429,2.5,0.0001515211396148,0.9999761255879857,1.9500000000024809,1.0,-0.0001419710140791,0.0,0.4542857142857143,0.9948571428571428,0.6441428571428571,0.7005885714285714,-1.8975000000012745,0.3646849142857143,4.0,3.0,1.0,0.5582329317269076,-0.3577789366275639,-0.9338063142352645,-0.8901457403773956,-0.4556759384562435,5.0,0.4782608695652174,24.0,0.0,0.0,0.0,0.0,0.0,1.0,0.0,0.0,0.0,0.0,0.0,0.0,0.0,0.0,1.0,1.0,0.0,0.0,0.0,0.0,0.0,0.0,1.0,0.0,1.0,1.0,0.0,0.4512791240816327,-2.437004156996489e-05,0.322540506208071,-0.999999989141474,-0.9999999999814639,-0.9999999999814639,0.44503541485714293,0.40608277714285723,-0.9999999999814639,h099_route_move,r139_full_state_conflict_invert,r139_full_state,full_state,"Q1,Q2,Q3,S1,S2,S3,S4"
h099_route_conflict_c72_r28_a052_1cbff4af,979,139,id06,2024-07-19,2024-07-18,S4,6,0.8268174475003207,0.8280647752584297,5.443071396993293e-06,0.2987828571428571,0.5280971428571429,-0.0621637714285713,0.8908857142857144,0.8897142857142857,0.3496909714285714,1.0,1.0,0,0.0,0.0,0.0,0.0,0.0,0.0,0.0,0.0,0.0,0.0,0.0,0.3410531498239687,0.0,0.9548571428571428,0.0777142857142857,0.1788571428571428,0.0,0.0,,-0.7669400000000001,0.8279578930664663,0.0079853695822413,4.14051900110568e-06,0.0079853695822413,0.0,0.0,0.0,0.0013515428571428,0.8320067417020486,0,0.8320067417020486,8.242813150596908e-08,0.4974857142857143,-0.0463207552654163,0.0051338467753729,0.0005824135970977,1.0192237949209952,0.8422857142857143,0.7491083425639209,0.3983379428571428,0.0366790192570158,9.478581098798512e-05,0.8300902641257938,0.0230294411245872,1.0,1.1516764712005134e-05,1.1516764712005134e-05,0.9228571428571428,0.5622857142857143,0.7513428571428572,0.9256342857142856,-0.0829997745224322,-0.1207928,4.0,3.0,1.0,0.5582329317269076,-0.3577789366275639,-0.9338063142352645,-0.8901457403773956,-0.4556759384562435,5.0,0.4782608695652174,24.0,0.0,0.0,0.0,0.0,0.0,0.0,1.0,0.0,0.0,0.0,0.0,0.0,0.0,0.0,1.0,1.0,0.0,0.0,0.0,0.0,0.0,0.0,1.0,0.0,1.0,1.0,0.0,0.6954687088979592,3.104464685390306e-05,-0.40204790646756566,-0.11190977768611925,-0.5047176181878962,-0.5047176181878962,0.3851301234285714,0.4912916914285715,-0.5047176181878962,h099_route_move,r139_full_state_conflict_invert,r139_full_state,full_state,"Q1,Q2,Q3,S1,S2,S3,S4"
h099_route_conflict_c72_r28_a052_1cbff4af,1010,144,id06,2024-08-14,2024-08-13,Q3,2,0.7530964107373385,0.7533060688078742,1.1822187706567187e-07,0.1906514285714285,0.670817142857143,0.3328430285714286,0.4842571428571429,0.4268571428571429,0.2659077142857142,1.0,1.0,0,3.0,1.4815760139224,1.0,1.0,0.0011278662604456,-5.3211147464858437e-11,-1.1822187706567182e-07,0.0,1.0,0.0,0.0,0.00365308581125,0.156435418150198,0.4182857142857142,0.6862857142857143,0.688,0.0,0.0,,0.4532971428571428,0.7533312901862517,0.0012635893748875,1.350275770084508e-07,0.0012635893748875,1.0,0.0,1.0,0.2487823428571428,0.7611739450510254,1,0.7611739450510254,4.467222197900529e-08,0.3201142857142857,0.029716187931472,0.0017199612737889,0.000627826127369,1.0986957228958183,0.9451428571428572,0.3740817901993886,0.643182742857143,0.0439311011078744,0.0001767593750644,0.7637201240802629,0.0579890534623943,1.0,0.0002959477991754,0.0002959477991754,0.992,0.7085714285714285,0.8645428571428572,0.919554285714286,-0.0458518275004828,0.1008794285714285,2.0,1.0,1.0,0.5783132530120482,-0.47243956847967067,-0.881363066014649,-0.9955262728085589,-0.09448513188803238,5.0,0.6956521739130435,24.0,0.0,0.0,1.0,0.0,0.0,0.0,0.0,0.0,0.0,0.0,1.0,1.0,0.0,0.0,0.0,0.0,0.0,0.0,0.0,0.0,0.0,1.0,0.0,1.0,0.0,1.0,0.0,0.794994089469388,3.431319528069757e-05,-0.43896680839638214,-0.27565958444418215,-0.2976515027567479,-0.2976515027567479,0.6618220228571429,0.7304870285714288,-0.2976515027567479,h099_route_move,r144_full_state_conflict_invert,r144_full_state,full_state,"Q1,Q2,Q3,S1,S2,S3,S4"
h099_route_conflict_c72_r28_a052_1cbff4af,1011,144,id06,2024-08-14,2024-08-13,S1,3,0.9371612173475234,0.938050068105242,6.737603625239785e-06,0.4181828571428572,0.670817142857143,0.3955945714285715,0.6061428571428571,0.5925714285714285,0.4131582857142857,1.0,1.0,0,6.0,4.40455491164904,2.0,1.0,0.0151939330276178,-6.324202084681502e-08,-6.737603625239785e-06,1.0,1.0,0.0,0.0,0.0138457385950436,0.1370545027048125,0.5348571428571428,0.6497142857142857,0.6337142857142857,0.0,0.0,,0.5285085714285714,0.9380567154476852,0.0153083269528511,6.2253993175220845e-06,0.0153083269528511,1.0,0.0,1.0,0.3138071428571428,0.9435072112803232,1,0.9435072112803232,4.9518479574132515e-08,0.518,0.0565603896332951,0.0020106260677631,0.0005674055906361,0.992959783613246,0.4982857142857143,0.487265744782802,0.3616179428571429,0.1132081278206009,0.0003532406767614,0.9454074004541292,0.1494347287231923,1.0,0.0004958561125027,0.0004958561125027,0.9994285714285714,0.9171428571428571,0.9388285714285716,0.9012857142857144,-0.0566477381873058,0.1303845714285714,2.0,1.0,1.0,0.5783132530120482,-0.47243956847967067,-0.881363066014649,-0.9955262728085589,-0.09448513188803238,5.0,0.6956521739130435,24.0,0.0,0.0,0.0,1.0,0.0,0.0,0.0,0.0,0.0,0.0,1.0,1.0,0.0,0.0,0.0,0.0,0.0,0.0,0.0,0.0,0.0,0.0,1.0,0.0,1.0,1.0,0.0,0.8461527795918369,0.00012130926929175625,-0.9308842916497657,-0.6225884598802627,-0.36202181119587806,-0.36202181119587806,0.7174702742857142,0.7918176,-0.36202181119587806,h099_route_move,r144_full_state_conflict_invert,r144_full_state,full_state,"Q1,Q2,Q3,S1,S2,S3,S4"
h099_route_conflict_c72_r28_a052_1cbff4af,1014,144,id06,2024-08-14,2024-08-13,S4,6,0.9998058840987556,0.999999,0.0001878660951298,0.4405142857142857,0.670817142857143,0.5434293142857143,0.1422142857142857,0.1785714285714285,0.4980106285714286,1.0,0.0,0,6.0,4.40455491164904,2.0,1.0,5.268648544483414,-3.5150398796986695e-08,-0.0001878660951298,1.0,1.0,0.0,0.0,0.0,6.034330388536917,0.1785714285714285,0.9782857142857144,0.9782857142857144,0.0,0.0,,0.7044885714285714,0.999999,5.268648544483414,0.000117729057531,5.268648544483414,1.0,0.0,1.0,0.6072445142857142,0.999999,1,0.999999,1.7467234430170068e-08,0.5226628571428571,3.3711485444838587,2.7591020357320417e-08,0.0006997032448845,1.2244806785479692,0.9822857142857144,0.9594344415016696,0.7915548571428572,2.5,0.0001756977740381,0.9999723777413126,1.9499999999954376,1.0,-0.0001645621039854,0.0,0.4542857142857143,0.9897142857142858,0.645257142857143,0.69908,-1.897499999999555,0.4643764571428572,2.0,1.0,1.0,0.5783132530120482,-0.47243956847967067,-0.881363066014649,-0.9955262728085589,-0.09448513188803238,5.0,0.6956521739130435,24.0,0.0,0.0,0.0,0.0,0.0,0.0,1.0,0.0,0.0,0.0,1.0,1.0,0.0,0.0,0.0,0.0,0.0,0.0,0.0,0.0,0.0,0.0,1.0,0.0,1.0,1.0,0.0,0.45108636342857156,-4.37949073286001e-06,0.06003643718357821,-0.999999989141474,-0.9999999999814639,-0.9999999999814639,0.41826354742857147,0.3302119314285714,-0.9999999999814639,h099_route_move,r144_full_state_conflict_invert,r144_full_state,full_state,"Q1,Q2,Q3,S1,S2,S3,S4"
h099_route_conflict_c72_r28_a052_1cbff4af,1045,149,id06,2024-08-23,2024-08-22,Q3,2,0.777022604386795,0.7775838198432127,9.094835523582034e-07,0.2452285714285714,0.7814571428571429,0.4971077142857142,0.4000428571428572,0.1785714285714285,0.3107259999999999,1.0,1.0,0,3.0,2.92297889772664,1.0,1.0,0.0032420924210658,-3.0912470261600027e-10,-9.094835523582034e-07,1.0,0.0,0.0,0.0,0.0,0.1858537712571854,0.1785714285714285,0.7365714285714285,0.7382857142857143,0.0,0.0,,0.5425857142857142,0.777621434684161,0.0034595987301866,9.42369486445216e-07,0.0034595987301866,1.0,0.0,1.0,0.3223777142857142,0.7843226988551862,1,0.7843226988551862,2.080929065056975e-08,0.3280685714285714,0.0209077107112019,0.0025222814853955,0.0005842227835737,1.0223898712541133,0.8554285714285714,0.4169258789693721,0.6592931428571428,0.0426381864788305,0.0001550105418142,0.7798976448569017,0.0166709572629812,1.0,1.4018847457442083e-05,1.4018847457442083e-05,0.9257142857142856,0.5342857142857143,0.7458,0.8927142857142858,-0.0217304757676286,0.1976028571428571,4.0,3.0,1.0,0.5983935742971888,-0.5795896608992377,-0.8149084764430339,-0.9599762679439228,0.2800813542249068,5.0,0.9130434782608695,24.0,0.0,0.0,1.0,0.0,0.0,0.0,0.0,0.0,0.0,0.0,0.0,0.0,0.0,0.0,1.0,1.0,0.0,0.0,0.0,0.0,0.0,1.0,0.0,1.0,0.0,1.0,0.0,0.6657863142857143,-3.285225473161321e-05,0.42263754415366706,-0.08117298106341536,-0.14445045894803332,-0.14445045894803332,0.5229324571428571,0.4611345714285715,-0.14445045894803332,h099_route_move,r149_full_state_conflict_invert,r149_full_state,full_state,"Q1,Q2,Q3,S1,S2,S3,S4"
h099_route_conflict_c72_r28_a052_1cbff4af,1057,151,id06,2024-08-25,2024-08-24,Q1,0,0.2931200235617892,0.2940047415236316,1.8877009515527732e-06,0.3332628571428572,0.7080171428571429,0.4039888571428572,0.5654857142857144,0.4817142857142857,0.3501362285714285,1.0,1.0,0,1.0,0.98640079466928,1.0,1.0,0.0042660984396376,-1.0020730809332893e-08,-1.8877009515527732e-06,1.0,0.0,0.0,0.0,0.0069087191295727,0.1085813693048932,0.46,0.5908571428571429,0.5965714285714285,0.0,0.0,,0.4900228571428571,0.2940407945891951,0.0044397867305515,1.860541860465581e-06,0.0044397867305515,1.0,0.0,1.0,0.2779978285714286,0.3160480568474452,1,0.6839519431525547,3.543989487264716e-07,0.5622057142857144,0.0767078893727275,0.0004647756016188,0.000563572964942,0.9862526886486588,0.3011428571428571,0.2390823668590611,0.2716846857142857,0.1082853490810346,0.001250143867855,0.2941165191992924,0.0048045551477717,1.0,-2.0308272858926557e-06,0.0,0.4542857142857143,0.4708571428571428,0.4616571428571429,0.8998400000000001,-0.0315774597083073,0.2318356571428572,6.0,5.0,1.0,0.606425702811245,-0.6199605408122385,-0.7846329892604547,-0.9067516281939827,0.42166513345018397,5.0,1.0,24.0,1.0,0.0,0.0,0.0,0.0,0.0,0.0,0.0,0.0,0.0,0.0,0.0,0.0,0.0,0.0,0.0,0.0,0.0,1.0,1.0,0.0,1.0,0.0,1.0,0.0,1.0,0.0,0.4154175634285715,5.866731312910623e-06,-0.08034760082666736,-0.023441271858119145,-0.20829227426023572,-0.20829227426023572,0.5045695908571429,0.5168146514285716,-0.20829227426023572,h099_route_move,r151_full_state_conflict_invert,r151_full_state,full_state,"Q1,Q2,Q3,S1,S2,S3,S4"
h099_route_conflict_c72_r28_a052_1cbff4af,1059,151,id06,2024-08-25,2024-08-24,Q3,2,0.8051517532471274,0.8030150111803502,1.4511156814778214e-05,0.3337085714285714,0.7080171428571429,0.1520932571428572,0.9230857142857144,0.956,0.3712925714285713,1.0,1.0,0,0.0,0.0,0.0,0.0,0.0,0.0,0.0,0.0,0.0,0.0,0.0,0.2271737521378298,0.006086278522037,0.9222857142857144,0.2165714285714285,0.1788571428571428,0.0,0.0,,-0.7007057142857144,0.8030744767017115,-0.0131878844070159,1.2479027673317766e-05,0.0131878844070159,0.0,0.0,0.0,0.0559329142857143,0.7951378735404838,1,0.7951378735404838,5.971452035624195e-08,0.3412114285714285,0.0361493346156307,0.0011125015620337,0.0005754150819827,1.0069763934697766,0.7565714285714286,0.4100387233611863,0.4062238857142857,-0.0626314127524751,0.0003155568519088,0.8043516859284782,-0.0050918768989105,1.0,-8.541367909509212e-06,0.0,0.4542857142857143,0.4731428571428571,0.4653428571428571,0.9348628571428572,0.0987807473681059,0.0054983999999999,6.0,5.0,1.0,0.606425702811245,-0.6199605408122385,-0.7846329892604547,-0.9067516281939827,0.42166513345018397,5.0,1.0,24.0,0.0,0.0,1.0,0.0,0.0,0.0,0.0,0.0,0.0,0.0,0.0,0.0,0.0,0.0,0.0,0.0,0.0,0.0,1.0,1.0,0.0,1.0,0.0,1.0,0.0,1.0,0.0,0.43503175297959185,-2.8971749483260638e-05,0.3779267154027928,0.02484254498759172,0.5791993703618314,0.5791993703618314,0.38407477257142864,0.4528153828571429,0.5791993703618314,h099_route_move,r151_full_state_conflict_invert,r151_full_state,full_state,"Q1,Q2,Q3,S1,S2,S3,S4"
h099_route_conflict_c72_r28_a052_1cbff4af,1153,164,id07,2024-07-26,2024-07-25,S3,5,0.8114316233549538,0.8129887509730154,7.939960443903438e-06,0.1875085714285714,0.5277371428571428,0.2590490857142856,0.5700857142857143,0.4445714285714285,0.306936,1.0,1.0,0,4.0,7.150759261260218,1.0,1.0,0.3695999999999992,-0.000418391461814,0.0090873447459736,0.0,0.0,0.0,1.0,0.004617974513143,0.0414269474669469,0.4314285714285714,0.4211428571428571,0.4571428571428571,1.0,1.0,seed_hardtail,0.4368742857142856,0.8129847541752478,0.0101827729204322,7.1893361767716435e-06,0.0101827729204322,1.0,0.0,1.0,0.2626705142857142,0.8276021121509791,1,0.8276021121509791,5.32025972518485e-08,0.4338171428571428,0.0361397720596656,0.001909698614804,0.0005618909675197,0.9833091931595876,0.2554285714285714,-0.1388834772158921,0.2157661714285714,0.109387949415636,0.0008741227429472,0.8204968531199776,0.060377894169503,1.0,0.0001816353473442,0.0001816353473442,0.98,0.7182857142857143,0.8542571428571428,0.9192914285714286,-0.0732481773559703,0.1178602285714285,4.0,3.0,1.0,0.6586345381526104,-0.839699808785118,-0.5430508550092121,-0.15082429716137438,0.9885605855918884,6.0,0.41379310344827586,30.0,0.0,0.0,0.0,0.0,0.0,1.0,0.0,0.0,0.0,0.0,0.0,0.0,0.0,0.0,1.0,1.0,0.0,0.0,0.0,0.0,0.0,0.0,1.0,0.0,1.0,1.0,0.0,0.7853112692244898,0.0006919673823867869,-0.9999999887334228,-0.2863960001267486,-0.4544840154344797,-0.4544840154344797,0.7143621508571429,0.7967975657142858,-0.4544840154344797,h099_route_move,r164_q2_s3_tail_conflict_invert,r164_q2_s3_tail,q2_s3_tail,"Q2,S3"
h099_route_conflict_c72_r28_a052_1cbff4af,1372,196,id08,2024-09-11,2024-09-10,Q1,0,0.4882210432658963,0.4914552980203778,2.0930443240918528e-05,0.3540228571428571,0.4665371428571429,0.0489138,0.8997142857142858,0.8354285714285714,0.3498260571428572,1.0,1.0,0,0.0,0.0,0.0,0.0,0.0,0.0,0.0,0.0,0.0,0.0,0.0,0.1782692747856165,0.0,0.8971428571428571,0.0777142857142857,0.1788571428571428,0.0,0.0,,-0.75626,0.4913993877565197,0.0127187032801039,1.8393801898830553e-05,0.0127187032801039,0.0,0.0,0.0,0.0430785142857143,0.5111605648331664,0,0.5111605648331664,3.610571893522563e-09,0.2521142857142857,-0.0071745605544646,0.0059461204084951,0.0005573665920388,0.9753915360679752,0.1674285714285714,0.4731065567580037,0.0345021714285714,0.0917742215092823,0.0010526383261484,0.4932668527561128,0.020190328732042,1.0,-1.323671713049368e-05,0.0,0.4542857142857143,0.5531428571428572,0.4917428571428572,0.94248,-0.0989487820637469,-0.0122389714285714,2.0,1.0,1.0,0.7871485943775101,-0.9728829847220697,0.23129785567159294,0.7646910926171744,-0.6443970304648774,7.0,0.7777777777777778,19.0,1.0,0.0,0.0,0.0,0.0,0.0,0.0,0.0,0.0,0.0,1.0,1.0,0.0,0.0,0.0,0.0,0.0,0.0,0.0,0.0,0.0,1.0,0.0,1.0,0.0,1.0,0.0,0.463457808,2.5154273804977494e-05,-0.33215063180423376,-0.09820844459805932,-0.5799463818447869,-0.5799463818447869,0.3645737074285714,0.4509399885714287,-0.5799463818447869,h099_route_move,r196_q_subjective_conflict_invert,r196_q_subjective,q_subjective,"Q1,Q2,Q3"
h099_route_conflict_c72_r28_a052_1cbff4af,1588,226,id09,2024-09-21,2024-09-20,S4,6,0.7104535414465696,0.7110198835302667,7.799049277501524e-07,0.2826114285714286,0.5007771428571429,0.3803166285714286,0.4467285714285715,0.1785714285714285,0.3474061714285714,1.0,1.0,0,2.0,1.93657810305736,1.0,1.0,0.0027547162616905,-1.664293927511782e-09,-7.799049277501525e-07,1.0,0.0,0.0,0.0,0.0,0.2177525377063177,0.1785714285714285,0.7822857142857143,0.7834285714285715,0.0,0.0,,0.50158,0.7110755884780996,0.0030258408548433,8.562511311094312e-07,0.0030258408548433,1.0,0.0,1.0,0.2848805142857142,0.7253842671965738,1,0.7253842671965738,2.206396430290567e-07,0.6813028571428571,0.0614132157370143,0.0049648432062501,0.0005549856304347,0.971224853260826,0.1394285714285714,0.8634167914483498,0.2099168,0.0737409588063007,0.0005475538557093,0.7158923589273024,0.0265888406197017,1.0,5.590302905544853e-05,5.590302905544853e-05,0.9537142857142856,0.5765714285714286,0.7840857142857143,0.8783542857142858,-0.0123277430692864,0.1520126857142857,5.0,4.0,1.0,0.9076305220883534,-0.5483371924577639,0.8362573308303713,-0.9855293386108988,-0.16950493425609892,8.0,0.9615384615384616,27.0,0.0,0.0,0.0,0.0,0.0,0.0,1.0,0.0,0.0,0.0,0.0,0.0,0.0,0.0,0.0,0.0,1.0,1.0,0.0,0.0,0.0,0.0,1.0,0.0,1.0,1.0,0.0,0.6887050475102041,2.9395634569415002e-05,-0.3829026077818813,-0.12902663288632812,-0.08233742194422898,-0.08233742194422898,0.6653106582857142,0.7385512114285714,-0.08233742194422898,h099_route_move,r226_full_state_conflict_invert,r226_full_state,full_state,"Q1,Q2,Q3,S1,S2,S3,S4"
h099_route_tail_hybrid_c120_r42_a044_2a5c61e3,3,0,id01,2024-07-31,2024-07-30,S1,3,0.5202725253271271,0.5236101888857627,2.2320883022897146e-05,0.3296457142857143,0.5036571428571429,0.0592980571428572,0.8507142857142858,0.7537142857142857,0.3292734857142856,1.0,1.0,0,0.0,0.0,0.0,0.0,0.0,0.0,0.0,0.0,0.0,0.0,0.0,0.166282513857259,0.0,0.8897142857142857,0.0777142857142857,0.1788571428571428,0.0,0.0,,-0.7491228571428571,0.5235543310942848,0.013152533950614,1.963802934246139e-05,0.013152533950614,0.0,0.0,0.0,0.0526722285714286,0.5367598867796822,0,0.5367598867796822,8.669450489455988e-08,0.2992457142857143,-0.0351603363907305,0.0004641149697683,0.0005472298175587,0.95765218072781,0.0885714285714285,0.4134929081993978,-0.0102653714285714,0.0661707536831843,0.0005451474145004,0.523904797882171,0.0145575658103003,1.0,-2.1333746199614367e-05,0.0,0.4542857142857143,0.5245714285714286,0.4871142857142858,0.9440457142857144,-0.1013310900739148,-0.0021125714285714,2.0,1.0,1.0,0.0,0.0,1.0,0.0,1.0,0.0,0.0,27.0,0.0,0.0,0.0,1.0,0.0,0.0,0.0,0.0,0.0,0.0,1.0,1.0,0.0,0.0,0.0,0.0,0.0,0.0,0.0,0.0,0.0,0.0,1.0,0.0,1.0,1.0,0.0,0.4598581537959185,9.46869333733673e-06,-0.12923156045433398,-0.0709196553885991,-0.5904323442510443,-0.5904323442510443,0.29310284571428574,0.36753994285714287,-0.5904323442510443,h099_route_move,r000_full_state_hybrid_route,r000_full_state,full_state,"Q1,Q2,Q3,S1,S2,S3,S4"
h099_route_tail_hybrid_c120_r42_a044_2a5c61e3,6,0,id01,2024-07-31,2024-07-30,S4,6,0.5084298008946088,0.5091151839410136,9.39781743536372e-07,0.1482914285714285,0.5036571428571429,0.3172508,0.4932142857142857,0.1785714285714285,0.2109301714285714,1.0,1.0,0,0.0,0.0,0.0,0.0,0.0,0.0,0.0,0.0,0.0,0.0,0.0,0.0,0.1856015952715258,0.1785714285714285,0.7337142857142858,0.736,0.0,0.0,,-0.5764400000000001,0.5091590368126224,0.0029178468760701,9.681413111195525e-07,0.0029178468760701,0.0,0.0,0.0,0.0957847428571428,0.5223625210687107,1,0.5223625210687107,1.4679869777242745e-07,0.45888,0.045010420029887,0.0019122187266242,0.000551777393772,0.9656104391011492,0.108,0.502682123038882,0.0688006857142857,0.0557874001969457,0.000388523838803,0.5114968799282992,0.0122732280433281,1.0,9.8721686667691e-06,9.8721686667691e-06,0.9217142857142856,0.5114285714285715,0.7346857142857143,0.8756571428571429,-0.0107769801670586,-0.0351718857142857,2.0,1.0,1.0,0.0,0.0,1.0,0.0,1.0,0.0,0.0,27.0,0.0,0.0,0.0,0.0,0.0,0.0,1.0,0.0,0.0,0.0,1.0,1.0,0.0,0.0,0.0,0.0,0.0,0.0,0.0,0.0,0.0,0.0,1.0,0.0,1.0,1.0,0.0,0.6433327934693878,2.0447627369697292e-05,-0.27350164828270496,-0.05982015307442786,-0.07201824949096935,-0.07201824949096935,0.45683021257142853,0.57472224,-0.07201824949096935,h099_route_move,r000_full_state_hybrid_route,r000_full_state,full_state,"Q1,Q2,Q3,S1,S2,S3,S4"
h099_route_tail_hybrid_c120_r42_a044_2a5c61e3,23,3,id01,2024-08-03,2024-08-02,Q3,2,0.5825405612758282,0.5795370659761659,1.8534940263270627e-05,0.2811657142857143,0.6352171428571428,0.1250753999999999,0.8544285714285714,0.9097142857142856,0.3286348571428571,0.0,1.0,0,3.0,5.4,1.0,1.0,-0.0020563557839757,-1.3985871682512395e-09,-5.640630085346209e-06,0.0,0.0,0.0,1.0,0.127484423230084,0.0059622151491581,0.8485714285714285,0.2148571428571428,0.1788571428571428,1.0,1.0,episode_neighbor_q061,0.28076,0.5795635192393868,-0.0122295736452776,1.6570339673616097e-05,0.0122295736452776,1.0,0.0,1.0,0.1879783428571428,0.5577169744059128,0,0.5577169744059128,8.511330267661373e-11,0.1802285714285714,0.0011137372782469,0.0033986064699007,0.0005605465865673,0.9809565264928056,0.22,0.1387492598971923,0.2050615999999999,-0.1013098164667343,0.0012604154204444,0.5729004845201093,-0.0395164455506682,1.0,7.263366103893443e-05,7.263366103893443e-05,0.9571428571428572,0.6308571428571429,0.8040571428571429,0.9461771428571428,0.1024235537449813,0.0526738285714285,5.0,4.0,1.0,0.012048192771084338,0.0756287458844567,0.997136045279652,0.225155940522694,0.9743227403932134,0.0,0.11538461538461539,27.0,0.0,0.0,1.0,0.0,0.0,0.0,0.0,0.0,0.0,0.0,0.0,0.0,0.0,0.0,0.0,0.0,1.0,1.0,0.0,0.0,0.0,1.0,0.0,1.0,0.0,1.0,0.0,0.760780490122449,-1.461782808600078e-05,0.19798109253029106,0.1904796281519601,0.5951754951749221,0.5951754951749221,0.5332048411428572,0.5840420685714287,0.5951754951749221,h099_route_move,r003_q1q3_subjective_hybrid_route,r003_q1q3_subjective,q1q3_subjective,"Q1,Q3"
h099_route_tail_hybrid_c120_r42_a044_2a5c61e3,429,61,id03,2024-08-19,2024-08-18,Q3,2,0.769391940972039,0.7691873343964346,1.1794978560519809e-07,0.1801828571428571,0.3370171428571429,0.0740792571428571,0.6702571428571429,0.7508571428571429,0.2411588571428571,1.0,1.0,0,2.0,3.6,1.0,1.0,-0.000184451677063,-5.6483338269916636e-11,-3.4533000903280715e-08,0.0,0.0,0.0,1.0,0.0259545843659137,0.1152267987939449,0.6217142857142857,0.6057142857142858,0.572,1.0,1.0,episode_neighbor_q061,0.3079257142857142,0.769159963715853,-0.0013069844411823,1.3796569509061385e-07,0.0013069844411823,0.0,0.0,1.0,0.0993245714285714,0.7570030321951982,0,0.7570030321951982,9.349604647858497e-08,0.3282628571428571,-0.0431694753420197,0.0002337820502099,0.000570936680997,0.9991391917449192,0.6605714285714286,0.4307766506520007,0.3147865142857143,-0.0685626666458385,0.0004272632394869,0.7692349173091595,-0.0008847885427687,1.0,-1.357899670484386e-07,0.0,0.4542857142857143,0.4502857142857143,0.4517142857142857,0.8968457142857144,0.0253931913038187,0.0444745142857143,0.0,6.0,1.0,0.24497991967871485,0.9995025893658627,0.03153686495097154,-0.995526272808559,-0.09448513188803126,2.0,0.1,21.0,0.0,0.0,1.0,0.0,0.0,0.0,0.0,1.0,0.0,0.0,0.0,0.0,0.0,0.0,0.0,0.0,0.0,0.0,0.0,0.0,1.0,1.0,0.0,1.0,0.0,1.0,0.0,0.4051180212244898,-3.75723322305093e-05,0.4743605781628997,0.004317619303338317,0.16836825727885685,0.16836825727885685,0.498675808,0.5751226514285716,0.16836825727885685,h099_route_move,r061_full_state_hybrid_route,r061_full_state,full_state,"Q1,Q2,Q3,S1,S2,S3,S4"
h099_route_tail_hybrid_c120_r42_a044_2a5c61e3,430,61,id03,2024-08-19,2024-08-18,S1,3,0.604026200472991,0.6063203145082555,1.1009521791116583e-05,0.3882685714285714,0.3370171428571429,0.0654890857142856,0.7873714285714286,0.684,0.3785540571428571,1.0,1.0,0,2.0,3.6,1.0,1.0,0.0015362066480787,-1.5536985231547174e-08,-3.224407648327876e-06,0.0,0.0,0.0,1.0,0.1413535464138461,0.0,0.8622857142857143,0.0777142857142857,0.1788571428571428,1.0,1.0,episode_neighbor_q061,0.2920571428571428,0.6062772068060069,0.0094206983426381,9.646010099229052e-06,0.0094206983426381,0.0,0.0,1.0,0.1293242857142857,0.6074964413452014,0,0.6074964413452014,1.993561071952924e-07,0.5617257142857143,-0.0547320393639781,0.0057171149923169,0.0005577874228806,0.9761279900412012,0.1754285714285714,0.6818286787726655,0.0789510857142856,0.0145311845062691,2.520043883824652e-05,0.6055727655873674,0.0064705280329236,1.0,-9.560522133300609e-06,0.0,0.4542857142857143,0.4817142857142857,0.4683428571428571,0.9234285714285716,-0.0692632238702473,0.071728,0.0,6.0,1.0,0.24497991967871485,0.9995025893658627,0.03153686495097154,-0.995526272808559,-0.09448513188803126,2.0,0.1,21.0,0.0,0.0,0.0,1.0,0.0,0.0,0.0,1.0,0.0,0.0,0.0,0.0,0.0,0.0,0.0,0.0,0.0,0.0,0.0,0.0,1.0,0.0,1.0,0.0,1.0,1.0,0.0,0.43248117551020415,1.3481973213888438e-05,-0.18295733612000878,-0.03156479560760181,-0.43306345004195235,-0.43306345004195235,0.4015123657142857,0.4628745142857143,-0.43306345004195235,h099_route_move,r061_full_state_hybrid_route,r061_full_state,full_state,"Q1,Q2,Q3,S1,S2,S3,S4"
h099_route_tail_hybrid_c120_r42_a044_2a5c61e3,432,61,id03,2024-08-19,2024-08-18,S3,5,0.4835789213561608,0.4814017987874172,9.490897164288192e-06,0.2929085714285714,0.3370171428571429,-0.0619744285714286,0.8623428571428573,0.8994285714285715,0.3448964571428571,1.0,1.0,0,2.0,3.6,1.0,1.0,-0.00139507150486,-2.709755271231037e-09,-2.7790419522277787e-06,0.0,0.0,0.0,1.0,0.209522601133933,0.0,0.9114285714285716,0.0777142857142857,0.1788571428571428,1.0,1.0,episode_neighbor_q061,0.2362457142857142,0.4814571944855456,-0.0084973080270469,8.20283112001885e-06,0.0084973080270469,0.0,0.0,1.0,0.1009617714285714,0.4819900669049786,0,0.5180099330950214,2.0193839847131825e-07,0.3697028571428571,0.0543884327223334,0.0008893541727483,0.0005638505649118,0.9867384885957086,0.312,0.5381676052087209,0.1506107428571428,-0.0063629664466685,5.05472920575567e-06,0.4821199420381252,-0.0058427958838835,1.0,-8.134415479310597e-06,0.0,0.4542857142857143,0.4788571428571428,0.4667142857142857,0.9184628571428572,0.0607513991690019,0.0456938285714285,0.0,6.0,1.0,0.24497991967871485,0.9995025893658627,0.03153686495097154,-0.995526272808559,-0.09448513188803126,2.0,0.1,21.0,0.0,0.0,0.0,0.0,0.0,1.0,0.0,1.0,0.0,0.0,0.0,0.0,0.0,0.0,0.0,0.0,0.0,0.0,0.0,0.0,1.0,0.0,1.0,0.0,1.0,1.0,0.0,0.42865973632653065,-4.790356955487045e-06,0.0656533094187109,0.02850431492041035,0.385651255690938,0.385651255690938,0.320631184,0.3732023542857143,0.385651255690938,h099_route_move,r061_full_state_hybrid_route,r061_full_state,full_state,"Q1,Q2,Q3,S1,S2,S3,S4"
h099_route_tail_hybrid_c120_r42_a044_2a5c61e3,492,70,id03,2024-09-16,2024-09-15,Q3,2,0.7379400612256236,0.7355869958106938,1.4288337799372997e-05,0.3116914285714286,0.6828971428571429,0.2207168285714285,0.8332285714285714,0.8417142857142857,0.3441497142857141,0.0,1.0,0,3.0,5.4,1.0,1.0,-0.0020221380359516,-3.134488404904697e-09,-4.346254514286939e-06,0.0,0.0,0.0,1.0,0.0731579621258778,0.0472847466857211,0.7742857142857142,0.44,0.1788571428571428,1.0,1.0,episode_neighbor_q061,0.3316057142857143,0.7355915224463873,-0.012109554749387,1.2950746220652398e-05,0.012109554749387,0.0,0.0,1.0,0.1411393714285714,0.7328617364915871,1,0.7328617364915871,2.4116037798910797e-07,0.5565599999999999,0.065736169256795,0.0009675930385018,0.0005668389182423,0.9919681069240556,0.4594285714285714,0.2781616572872293,0.2739041142857143,-0.0260986599217263,6.640444775363186e-05,0.7351021332494506,-0.0146242487539178,1.0,-1.3618258931202831e-05,0.0,0.4542857142857143,0.5257142857142857,0.4838571428571429,0.9333028571428572,0.0918348291785213,0.0667148571428571,0.0,6.0,1.0,0.28112449799196787,0.9809388143902331,-0.19431686088109762,-0.8327815731637613,0.553601708269484,2.0,0.55,21.0,0.0,0.0,1.0,0.0,0.0,0.0,0.0,1.0,0.0,0.0,0.0,0.0,0.0,0.0,0.0,0.0,0.0,0.0,0.0,0.0,1.0,1.0,0.0,1.0,0.0,1.0,0.0,0.45158525387755105,-3.475552489496882e-05,0.44385488597587336,0.07124341483015365,0.547468937695688,0.547468937695688,0.50485992,0.5586044000000001,0.547468937695688,h099_route_move,r070_q1q3_subjective_hybrid_route,r070_q1q3_subjective,q1q3_subjective,"Q1,Q3"
h099_route_tail_hybrid_c120_r42_a044_2a5c61e3,689,98,id04,2024-10-19,2024-10-18,S1,3,0.6371260254955748,0.6405330343175071,2.51376604938347e-05,0.2224685714285713,0.4586171428571429,0.0413004,0.7652857142857143,0.6982857142857143,0.3247446857142857,1.0,1.0,0,0.0,0.0,0.0,0.0,0.0,0.0,0.0,0.0,0.0,0.0,0.0,0.0999969057319737,0.0,0.8154285714285714,0.0777142857142857,0.1788571428571428,0.0,0.0,,-0.7547914285714286,0.6405000114407822,0.0146231119468513,2.2435790286601257e-05,0.0146231119468513,0.0,0.0,0.0,0.0546097142857142,0.6458406625928385,0,0.6458406625928385,2.652752376425061e-07,0.6229485714285715,-0.0646258238737329,0.0076759256074498,0.0005509684978578,0.9641948712512676,0.1045714285714285,-0.0194807088009702,-0.0150077714285714,0.037894021574039,0.0001648212272662,0.6414968295448158,0.0189548562062582,1.0,-2.2492975142118787e-05,0.0,0.4542857142857143,0.5468571428571428,0.4944,0.9422057142857144,-0.102519845447772,-0.0024486857142857,5.0,4.0,1.0,0.39357429718875503,0.6199605408122387,-0.7846329892604544,0.9067516281939827,0.4216651334501838,3.0,0.6923076923076923,27.0,0.0,0.0,0.0,1.0,0.0,0.0,0.0,0.0,0.0,0.0,0.0,0.0,0.0,0.0,0.0,0.0,1.0,1.0,0.0,0.0,0.0,0.0,1.0,0.0,1.0,1.0,0.0,0.46582650514285723,2.194044366159535e-05,-0.2923497273116655,-0.09223419251227838,-0.5955915930492218,-0.5955915930492218,0.368164096,0.4561278171428572,-0.5955915930492218,h099_route_move,r098_full_state_hybrid_route,r098_full_state,full_state,"Q1,Q2,Q3,S1,S2,S3,S4"
h099_route_tail_hybrid_c120_r42_a044_2a5c61e3,692,98,id04,2024-10-19,2024-10-18,S4,6,0.5214942199375637,0.5220806282002836,6.890459806063731e-07,0.1991714285714285,0.4586171428571429,0.1756905714285715,0.6144571428571429,0.6337142857142857,0.2882345142857143,1.0,1.0,0,0.0,0.0,0.0,0.0,0.0,0.0,0.0,0.0,0.0,0.0,0.0,0.0166549901710211,0.0640435912665656,0.56,0.4845714285714286,0.4805714285714286,0.0,0.0,,-0.6675114285714286,0.5220939306128404,0.0024034092933237,6.55804488269851e-07,0.0024034092933237,0.0,0.0,0.0,0.0311753714285714,0.5317358803323887,0,0.5317358803323887,1.616032067237963e-08,0.2549485714285714,0.0153557474784382,0.005842441771129,0.0005639505118782,0.9869133957869688,0.3177142857142857,0.3199408510132027,0.0963508571428571,0.041084505048586,0.0002103100861962,0.525141978301795,0.0146229027435558,1.0,1.7903928382079215e-05,1.7903928382079215e-05,0.932,0.5251428571428571,0.7487428571428572,0.8981142857142858,-0.0257287575701478,-0.0963236571428572,5.0,4.0,1.0,0.39357429718875503,0.6199605408122387,-0.7846329892604544,0.9067516281939827,0.4216651334501838,3.0,0.6923076923076923,27.0,0.0,0.0,0.0,0.0,0.0,0.0,1.0,0.0,0.0,0.0,0.0,0.0,0.0,0.0,0.0,0.0,1.0,1.0,0.0,0.0,0.0,0.0,1.0,0.0,1.0,1.0,0.0,0.6724566563265306,3.12372375914435e-05,-0.40426159357591074,-0.0712368798205084,-0.17055009356096082,-0.17055009356096082,0.42993552914285715,0.5486207771428572,-0.17055009356096082,h099_route_move,r098_full_state_hybrid_route,r098_full_state,full_state,"Q1,Q2,Q3,S1,S2,S3,S4"
h099_route_tail_hybrid_c120_r42_a044_2a5c61e3,709,101,id04,2024-10-24,2024-10-23,Q3,2,0.7836327157945403,0.7816403087409958,1.168048358135554e-05,0.2945942857142857,0.2851371428571428,-0.0389592857142857,0.8681142857142857,0.8714285714285714,0.3298454285714285,1.0,1.0,0,2.0,3.6,1.0,1.0,-0.0018739318165117,-2.0788438578953267e-09,-3.417201348221433e-06,0.0,0.0,0.0,1.0,0.112718299813475,0.0,0.832,0.0777142857142857,0.1788571428571428,1.0,1.0,episode_neighbor_q061,0.2406514285714286,0.7816747794316019,-0.0115100999444255,1.0263480041294848e-05,0.0115100999444255,0.0,0.0,1.0,0.1124250857142857,0.7718980136932254,1,0.7718980136932254,1.1513008166658741e-08,0.2556914285714285,0.0152658122683577,0.0015390106257885,0.0005705088303653,0.9983904531393746,0.6508571428571429,0.2558821948728312,0.3108536,-0.0679034849537958,0.0004009186480832,0.7766653504406011,-0.0406248364023611,1.0,6.144628333681901e-05,6.144628333681901e-05,0.9554285714285714,0.6377142857142857,0.8043142857142858,0.9279028571428573,0.0831692972221536,-0.0305217142857143,3.0,2.0,1.0,0.40562248995983935,0.5588441929376095,-0.8292726741066004,0.9784091409455726,0.2066774126849536,3.0,0.8076923076923077,27.0,0.0,0.0,1.0,0.0,0.0,0.0,0.0,0.0,0.0,0.0,0.0,0.0,1.0,1.0,0.0,0.0,0.0,0.0,0.0,0.0,0.0,1.0,0.0,1.0,0.0,1.0,0.0,0.7463255237551022,-1.7175824227346826e-05,0.23146706622775595,0.19568676269606256,0.5055628676337081,0.5055628676337081,0.4439353257142857,0.5417878857142857,0.5055628676337081,h099_route_move,r101_q_subjective_hybrid_route,r101_q_subjective,q_subjective,"Q1,Q2,Q3"
h099_route_tail_hybrid_c120_r42_a044_2a5c61e3,773,110,id05,2024-10-02,2024-10-01,S1,3,0.3056001244245433,0.3110822546809208,7.057753952244283e-05,0.3760514285714286,0.2893571428571428,-0.1615444571428571,0.9791428571428572,0.976,0.4021014857142857,0.0,1.0,0,0.0,0.0,0.0,0.0,0.0,0.0,0.0,0.0,0.0,0.0,0.0,0.5338642750937583,0.0,0.9782857142857144,0.0777142857142857,0.1788571428571428,0.0,0.0,,-0.8408714285714286,0.3109228312939359,0.0249620044578845,6.0536909005648454e-05,0.0249620044578845,0.0,0.0,0.0,0.0106631142857142,0.3280865985574698,0,0.6719134014425301,7.07270156879589e-07,0.8127885714285715,-0.103914952574892,0.0046335205166585,0.0004988658735812,0.8730152787671973,0.0251428571428571,0.617569535666361,-0.0207438285714286,0.1039186479338416,0.0011757968820913,0.3104731064038094,0.0228621025454448,1.0,-6.606645263562694e-05,0.0,0.4542857142857143,0.5617142857142857,0.5061428571428572,0.9841714285714288,-0.207833600508734,-0.0541572571428571,2.0,1.0,1.0,0.44176706827309237,0.3577789366275641,-0.9338063142352645,0.8901457403773968,-0.45567593845624127,4.0,0.15,21.0,0.0,0.0,0.0,1.0,0.0,0.0,0.0,0.0,0.0,0.0,1.0,1.0,0.0,0.0,0.0,0.0,0.0,0.0,0.0,0.0,0.0,0.0,1.0,0.0,1.0,1.0,0.0,0.4981313387755104,1.6060172410964027e-05,-0.21692467541082458,-0.111103341767302,-0.8834516417206303,-0.8834516417206303,0.30853769600000003,0.4053762742857143,-0.8834516417206303,h099_route_move,r110_nonq2_full_hybrid_route,r110_nonq2_full,nonq2_full,"Q1,Q3,S1,S2,S3,S4"
h099_route_tail_hybrid_c120_r42_a044_2a5c61e3,776,110,id05,2024-10-02,2024-10-01,S4,6,0.4438495786612846,0.4451675276483861,3.517651817719347e-06,0.2391714285714286,0.2893571428571428,-0.0912718571428571,0.8011428571428572,0.8748571428571429,0.3034004571428571,0.0,1.0,0,0.0,0.0,0.0,0.0,0.0,0.0,0.0,0.0,0.0,0.0,0.0,0.1517560969078651,0.0055488407941821,0.8748571428571429,0.2114285714285714,0.1788571428571428,0.0,0.0,,-0.8335457142857143,0.4451219697262338,0.0051530909657626,2.983565084324624e-06,0.0051530909657626,0.0,0.0,0.0,-0.068577,0.4632074008694939,0,0.536792599130506,7.647812904665928e-08,0.2794971428571428,0.0331756448528687,0.0011639351142216,0.0005573933773258,0.975438410320314,0.168,0.5618931275998716,-0.0022037142857142,0.0781161866856486,0.0007569947114121,0.4480957780680643,0.0171855610708425,1.0,1.46086126527889e-05,1.46086126527889e-05,0.9274285714285714,0.5394285714285715,0.7487999999999999,0.9094228571428572,-0.04494054183278,-0.1995107428571428,2.0,1.0,1.0,0.44176706827309237,0.3577789366275641,-0.9338063142352645,0.8901457403773968,-0.45567593845624127,4.0,0.15,21.0,0.0,0.0,0.0,0.0,0.0,0.0,1.0,0.0,0.0,0.0,1.0,1.0,0.0,0.0,0.0,0.0,0.0,0.0,0.0,0.0,0.0,0.0,1.0,0.0,1.0,1.0,0.0,0.6809758354285714,2.3908606913751862e-05,-0.3168546135305518,-0.08366711666358208,-0.2920816055350949,-0.2920816055350949,0.34890999542857143,0.47316624,-0.2920816055350949,h099_route_move,r110_nonq2_full_hybrid_route,r110_nonq2_full,nonq2_full,"Q1,Q3,S1,S2,S3,S4"
h099_route_tail_hybrid_c120_r42_a044_2a5c61e3,932,133,id06,2024-07-12,2024-07-11,Q2,1,0.7174950458348419,0.7212586787670654,3.5036204069083254e-05,0.4341314285714286,0.6680171428571429,0.4367490857142856,0.3315285714285714,0.1785714285714285,0.2423455999999999,1.0,1.0,0,11.0,9.30390473819112,2.0,1.0,0.0186437074536562,-1.2305453397356957e-07,-3.5036204069083254e-05,1.0,1.0,0.0,0.0,0.0,0.195763104146189,0.1785714285714285,0.7548571428571429,0.7577142857142857,0.0,0.0,,0.5661999999999999,0.7213078929965867,0.0188885133136187,3.272966253486942e-05,0.0188885133136187,1.0,0.0,1.0,0.4339421714285714,0.7317804515186781,0,0.7317804515186781,3.037478332075526e-07,0.72296,0.0716047279124652,0.0040285260282487,0.0005906978394814,1.0337212190925942,0.884,0.5666902733474252,0.6979317714285715,0.0716047279124652,0.00050870871419,0.7283697724947044,0.0542972092517418,1.0,8.939800565377354e-05,8.939800565377354e-05,0.9622857142857144,0.6914285714285714,0.8272857142857143,0.0,0.0,0.1986378285714286,4.0,3.0,1.0,0.5341365461847389,-0.21284547407560092,-0.9770858734858122,-0.5999661014486952,-0.8000254227913348,5.0,0.21739130434782608,24.0,0.0,1.0,0.0,0.0,0.0,0.0,0.0,0.0,0.0,0.0,0.0,0.0,0.0,0.0,1.0,1.0,0.0,0.0,0.0,0.0,0.0,1.0,0.0,0.0,0.0,0.0,0.0,0.0,6.782705411547833e-05,-0.7310270303029552,-0.25893160890048406,0.0,0.0,0.5355787954285715,0.5254294971428571,-0.7310270303029552,h099_route_move,r133_q2_s3_tail_hybrid_route,r133_q2_s3_tail,q2_s3_tail,"Q2,S3"
h099_route_tail_hybrid_c120_r42_a044_2a5c61e3,949,135,id06,2024-07-14,2024-07-13,S2,4,0.9120002370412033,0.9128559625035724,4.575502052239777e-06,0.3906628571428571,0.4153771428571429,0.2220676,0.6870285714285714,0.6325714285714286,0.400656,0.0,1.0,0,0.0,0.0,0.0,0.0,0.0,0.0,0.0,0.0,0.0,0.0,0.0,0.0306072182800029,0.0387905347810696,0.6485714285714286,0.4114285714285714,0.3845714285714285,0.0,0.0,,-0.6916942857142857,0.9128484616979826,0.0106153362211465,4.091754492618893e-06,0.0106153362211465,0.0,0.0,0.0,0.0204137714285714,0.9250982584531292,1,0.9250982584531292,2.2462660630838865e-07,0.7114057142857144,0.1055641087159346,0.0028894661390598,0.0005657735831001,0.9901037704252228,0.4017142857142857,0.1604154161182626,0.1480686857142857,0.1754166861823174,0.0011206919463118,0.916900949362351,0.062660043836634,1.0,0.0001017187385513,0.0001017187385513,0.9645714285714284,0.7251428571428571,0.8401142857142857,0.9117314285714286,-0.0698525774663827,-0.1410235428571428,6.0,5.0,1.0,0.5421686746987951,-0.2618644849608063,-0.9651046531419334,-0.7137661126871386,-0.7003841348713511,5.0,0.30434782608695654,24.0,0.0,0.0,0.0,0.0,1.0,0.0,0.0,0.0,0.0,0.0,0.0,0.0,0.0,0.0,0.0,0.0,0.0,0.0,1.0,1.0,0.0,0.0,1.0,0.0,1.0,1.0,0.0,0.765958597877551,3.481571450463641e-05,-0.4445179993547255,-0.2965862016490989,-0.43626330430800747,-0.43626330430800747,0.42783029028571434,0.5573068457142858,-0.43626330430800747,h099_route_move,r135_s23_core_hybrid_route,r135_s23_core,s23_core,"S2,S3"
h099_route_tail_hybrid_c120_r42_a044_2a5c61e3,950,135,id06,2024-07-14,2024-07-13,S3,5,0.9998174319302912,0.9999690243965154,9.66556169085143e-05,0.41248,0.4153771428571429,0.4060846285714286,0.1434428571428571,0.1785714285714285,0.4921344,1.0,1.0,0,10.0,8.8123413858064,2.0,1.0,1.7740747865535766,-2.262030586979623e-08,-9.66556169085143e-05,1.0,1.0,0.0,0.0,0.0,5.8767346452884475,0.1785714285714285,0.9777142857142858,0.9777142857142858,0.0,0.0,,0.6325457142857144,0.999999,5.2073046728950665,0.0001106688193046,5.2073046728950665,1.0,0.0,1.0,0.5681642857142857,0.999999,1,0.999999,1.5611654156441006e-08,0.5173485714285715,3.3098046728945274,8.273637275291179e-08,0.0006977555522572,1.221072216450262,0.9817142857142858,0.9460383938620918,0.760486742857143,2.5,0.0001650960133852,0.9999740212292776,1.9499999999975175,1.0,-0.0001546556291109,0.0,0.4542857142857143,0.9914285714285714,0.6443142857142858,0.7002114285714286,-1.897500000000539,0.4285694857142857,6.0,5.0,1.0,0.5421686746987951,-0.2618644849608063,-0.9651046531419334,-0.7137661126871386,-0.7003841348713511,5.0,0.30434782608695654,24.0,0.0,0.0,0.0,0.0,0.0,1.0,0.0,0.0,0.0,0.0,0.0,0.0,0.0,0.0,0.0,0.0,0.0,0.0,1.0,1.0,0.0,0.0,1.0,0.0,1.0,1.0,0.0,0.4511562264489797,-2.2705333750741938e-05,0.3019208944263395,-0.999999989141474,-0.9999999999814639,-0.9999999999814639,0.514208032,0.4576712342857143,-0.9999999999814639,h099_route_move,r135_s23_core_hybrid_route,r135_s23_core,s23_core,"S2,S3"
h099_route_tail_hybrid_c120_r42_a044_2a5c61e3,958,136,id06,2024-07-16,2024-07-15,S4,6,0.8793211893789878,0.8800493904202091,2.5029338155957426e-06,0.3645828571428571,0.5588971428571429,0.1084819428571429,0.7967428571428572,0.7268571428571429,0.3787347428571428,1.0,1.0,0,0.0,0.0,0.0,0.0,0.0,0.0,0.0,0.0,0.0,0.0,0.0,0.1594115670323823,0.0,0.8822857142857143,0.0777142857142857,0.1788571428571428,0.0,0.0,,-0.7095342857142858,0.8799999511198453,0.0064120263061722,1.9788838113155016e-06,0.0064120263061722,0.0,0.0,0.0,0.0212581142857142,0.8834973597348148,1,0.8834973597348148,8.471331549768475e-09,0.3511542857142857,-0.0171551486596812,0.0031343608795367,0.0005683629451615,0.9946351540327674,0.5531428571428572,0.5888697722476787,0.1944567999999999,0.039956691866398,8.300913775149965e-05,0.8807134130136618,0.0131857083159114,1.0,2.441039736456041e-07,2.441039736456041e-07,0.9085714285714286,0.5165714285714286,0.7216285714285715,0.9087942857142858,-0.0571118405260793,-0.0966108571428571,1.0,0.0,1.0,0.5461847389558233,-0.2861316735085688,-0.9581903075147368,-0.7646910926171749,-0.6443970304648767,5.0,0.34782608695652173,24.0,0.0,0.0,0.0,0.0,0.0,0.0,1.0,0.0,1.0,1.0,0.0,0.0,0.0,0.0,0.0,0.0,0.0,0.0,0.0,0.0,0.0,0.0,1.0,0.0,1.0,1.0,0.0,0.6558119221224491,2.419542879919579e-05,-0.3203916011619167,-0.06425578616901453,-0.3647183835581913,-0.3647183835581913,0.37831752,0.47814422857142863,-0.3647183835581913,h099_route_move,r136_s14_edge_hybrid_route,r136_s14_edge,s14_edge,"S1,S4"
h099_route_tail_hybrid_c120_r42_a044_2a5c61e3,975,139,id06,2024-07-19,2024-07-18,Q3,2,0.7439595438752091,0.7399677023608381,4.16859280448767e-05,0.3280228571428571,0.5280971428571429,-0.0332376571428571,0.9586285714285714,0.9811428571428572,0.3647565714285714,0.0,1.0,0,0.0,0.0,0.0,0.0,0.0,0.0,0.0,0.0,0.0,0.0,0.0,0.3736466735880533,0.0,0.9617142857142856,0.0777142857142857,0.1788571428571428,0.0,0.0,,-0.8055971428571429,0.7400840689307989,-0.020245643390468,3.5750219449570686e-05,0.020245643390468,0.0,0.0,0.0,0.0240670285714286,0.7314817680775492,1,0.7314817680775492,5.469611738723606e-07,0.7339085714285715,0.0994963433248757,0.0056064356772304,0.0005687243082713,0.9952675394748086,0.5782857142857143,0.415144879432044,0.2598524571428571,-0.0644977115049467,0.0004044507406137,0.7354432689956294,-0.0442335008621266,1.0,1.6260783992305683e-05,1.6260783992305683e-05,0.9297142857142856,0.6497142857142857,0.784,0.973,0.1639940548298225,-0.1154598857142857,4.0,3.0,1.0,0.5582329317269076,-0.3577789366275639,-0.9338063142352645,-0.8901457403773956,-0.4556759384562435,5.0,0.4782608695652174,24.0,0.0,0.0,1.0,0.0,0.0,0.0,0.0,0.0,0.0,0.0,0.0,0.0,0.0,0.0,1.0,1.0,0.0,0.0,0.0,0.0,0.0,1.0,0.0,1.0,0.0,1.0,0.0,0.7628320000000001,-1.4849126100732473e-05,0.20102931071632024,0.21256231337228595,0.7997100187079332,0.7997100187079332,0.3383465325714286,0.44296686857142864,0.7997100187079332,h099_route_move,r139_full_state_hybrid_route,r139_full_state,full_state,"Q1,Q2,Q3,S1,S2,S3,S4"
h099_route_tail_hybrid_c120_r42_a044_2a5c61e3,978,139,id06,2024-07-19,2024-07-18,S3,5,0.9998322183658211,0.999999,0.0001616728804585,0.4656228571428571,0.5280971428571429,0.4865783428571429,0.1508142857142857,0.1785714285714285,0.5339149714285715,1.0,0.0,0,20.0,17.52959496159584,3.0,1.0,4.949453310907217,-4.8125692751349655e-08,-0.0001614180034248,1.0,1.0,1.0,0.0,0.0,5.6968126966891885,0.1785714285714285,0.9765714285714284,0.9765714285714284,0.0,0.0,,0.707,0.999999,5.1228301330624095,0.0001016286010929,5.1228301330624095,0.0,0.0,1.0,0.5420378857142857,0.999999,1,0.999999,1.39734928052286e-08,0.5102685714285714,3.225330133061135,0.0,0.0006646334757489,1.1631085825605856,0.9657142857142856,0.9670264094251232,0.7171987428571429,2.5,0.0001515211396148,0.9999761255879857,1.9500000000024809,1.0,-0.0001419710140791,0.0,0.4542857142857143,0.9948571428571428,0.6441428571428571,0.7005885714285714,-1.8975000000012745,0.3646849142857143,4.0,3.0,1.0,0.5582329317269076,-0.3577789366275639,-0.9338063142352645,-0.8901457403773956,-0.4556759384562435,5.0,0.4782608695652174,24.0,0.0,0.0,0.0,0.0,0.0,1.0,0.0,0.0,0.0,0.0,0.0,0.0,0.0,0.0,1.0,1.0,0.0,0.0,0.0,0.0,0.0,0.0,1.0,0.0,1.0,1.0,0.0,0.4512791240816327,-2.437004156996489e-05,0.322540506208071,-0.999999989141474,-0.9999999999814639,-0.9999999999814639,0.44503541485714293,0.40608277714285723,-0.9999999999814639,h099_route_move,r139_full_state_hybrid_route,r139_full_state,full_state,"Q1,Q2,Q3,S1,S2,S3,S4"
h099_route_tail_hybrid_c120_r42_a044_2a5c61e3,979,139,id06,2024-07-19,2024-07-18,S4,6,0.8268174475003207,0.8280647752584297,5.443071396993293e-06,0.2987828571428571,0.5280971428571429,-0.0621637714285713,0.8908857142857144,0.8897142857142857,0.3496909714285714,1.0,1.0,0,0.0,0.0,0.0,0.0,0.0,0.0,0.0,0.0,0.0,0.0,0.0,0.3410531498239687,0.0,0.9548571428571428,0.0777142857142857,0.1788571428571428,0.0,0.0,,-0.7669400000000001,0.8279578930664663,0.0079853695822413,4.14051900110568e-06,0.0079853695822413,0.0,0.0,0.0,0.0013515428571428,0.8320067417020486,0,0.8320067417020486,8.242813150596908e-08,0.4974857142857143,-0.0463207552654163,0.0051338467753729,0.0005824135970977,1.0192237949209952,0.8422857142857143,0.7491083425639209,0.3983379428571428,0.0366790192570158,9.478581098798512e-05,0.8300902641257938,0.0230294411245872,1.0,1.1516764712005134e-05,1.1516764712005134e-05,0.9228571428571428,0.5622857142857143,0.7513428571428572,0.9256342857142856,-0.0829997745224322,-0.1207928,4.0,3.0,1.0,0.5582329317269076,-0.3577789366275639,-0.9338063142352645,-0.8901457403773956,-0.4556759384562435,5.0,0.4782608695652174,24.0,0.0,0.0,0.0,0.0,0.0,0.0,1.0,0.0,0.0,0.0,0.0,0.0,0.0,0.0,1.0,1.0,0.0,0.0,0.0,0.0,0.0,0.0,1.0,0.0,1.0,1.0,0.0,0.6954687088979592,3.104464685390306e-05,-0.40204790646756566,-0.11190977768611925,-0.5047176181878962,-0.5047176181878962,0.3851301234285714,0.4912916914285715,-0.5047176181878962,h099_route_move,r139_full_state_hybrid_route,r139_full_state,full_state,"Q1,Q2,Q3,S1,S2,S3,S4"
h099_route_tail_hybrid_c120_r42_a044_2a5c61e3,1001,143,id06,2024-08-13,2024-08-12,Q1,0,0.2092269005697418,0.2089219578518885,2.8112041883243677e-07,0.2036971428571428,0.7239771428571429,0.4493369714285714,0.4697285714285715,0.1785714285714285,0.2708112,1.0,1.0,0,11.0,8.46508252903368,2.0,1.0,-0.001844088639247,-2.5733492812731393e-10,-2.811204188324367e-07,1.0,1.0,0.0,0.0,0.0,0.2475444819520837,0.1785714285714285,0.8182857142857143,0.8182857142857143,0.0,0.0,,0.5362942857142857,0.2088731251040907,-0.0021395802130861,3.443420287796428e-07,0.0021395802130861,0.0,0.0,1.0,0.2474148,0.1954998359663392,0,0.8045001640336608,2.029760534566282e-07,0.5569485714285715,-0.0679898442374993,0.0026140759999864,0.0005749680522457,1.006194091430059,0.748,0.6201089184571771,0.5372242285714286,-0.0850698678716392,0.0005789513017284,0.2002522879358252,-0.0551265446534379,1.0,0.0002292094574748,0.0002292094574748,0.9862857142857144,0.6948571428571428,0.8541142857142858,0.8878,0.0170800236341399,0.0637723428571428,1.0,0.0,1.0,0.5742971887550201,-0.4500514963711879,-0.8930026039234458,-0.9855293386108991,-0.16950493425609692,5.0,0.6521739130434783,24.0,1.0,0.0,0.0,0.0,0.0,0.0,0.0,0.0,1.0,1.0,0.0,0.0,0.0,0.0,0.0,0.0,0.0,0.0,0.0,0.0,0.0,1.0,0.0,1.0,0.0,1.0,0.0,0.758282662857143,6.542138367364244e-05,-0.7152795166654436,0.2627033420299245,0.11384126947922175,0.11384126947922175,0.4854993462857143,0.46207152000000007,0.11384126947922175,h099_route_move,r143_nonq2_full_hybrid_route,r143_nonq2_full,nonq2_full,"Q1,Q3,S1,S2,S3,S4"
h099_route_tail_hybrid_c120_r42_a044_2a5c61e3,1010,144,id06,2024-08-14,2024-08-13,Q3,2,0.7530964107373385,0.7533060688078742,1.1822187706567187e-07,0.1906514285714285,0.670817142857143,0.3328430285714286,0.4842571428571429,0.4268571428571429,0.2659077142857142,1.0,1.0,0,3.0,1.4815760139224,1.0,1.0,0.0011278662604456,-5.3211147464858437e-11,-1.1822187706567182e-07,0.0,1.0,0.0,0.0,0.00365308581125,0.156435418150198,0.4182857142857142,0.6862857142857143,0.688,0.0,0.0,,0.4532971428571428,0.7533312901862517,0.0012635893748875,1.350275770084508e-07,0.0012635893748875,1.0,0.0,1.0,0.2487823428571428,0.7611739450510254,1,0.7611739450510254,4.467222197900529e-08,0.3201142857142857,0.029716187931472,0.0017199612737889,0.000627826127369,1.0986957228958183,0.9451428571428572,0.3740817901993886,0.643182742857143,0.0439311011078744,0.0001767593750644,0.7637201240802629,0.0579890534623943,1.0,0.0002959477991754,0.0002959477991754,0.992,0.7085714285714285,0.8645428571428572,0.919554285714286,-0.0458518275004828,0.1008794285714285,2.0,1.0,1.0,0.5783132530120482,-0.47243956847967067,-0.881363066014649,-0.9955262728085589,-0.09448513188803238,5.0,0.6956521739130435,24.0,0.0,0.0,1.0,0.0,0.0,0.0,0.0,0.0,0.0,0.0,1.0,1.0,0.0,0.0,0.0,0.0,0.0,0.0,0.0,0.0,0.0,1.0,0.0,1.0,0.0,1.0,0.0,0.794994089469388,3.431319528069757e-05,-0.43896680839638214,-0.27565958444418215,-0.2976515027567479,-0.2976515027567479,0.6618220228571429,0.7304870285714288,-0.2976515027567479,h099_route_move,r144_q3_s_stage_hybrid_route,r144_q3_s_stage,q3_s_stage,"Q3,S1,S2,S3,S4"
h099_route_tail_hybrid_c120_r42_a044_2a5c61e3,1011,144,id06,2024-08-14,2024-08-13,S1,3,0.9371612173475234,0.938050068105242,6.737603625239785e-06,0.4181828571428572,0.670817142857143,0.3955945714285715,0.6061428571428571,0.5925714285714285,0.4131582857142857,1.0,1.0,0,6.0,4.40455491164904,2.0,1.0,0.0151939330276178,-6.324202084681502e-08,-6.737603625239785e-06,1.0,1.0,0.0,0.0,0.0138457385950436,0.1370545027048125,0.5348571428571428,0.6497142857142857,0.6337142857142857,0.0,0.0,,0.5285085714285714,0.9380567154476852,0.0153083269528511,6.2253993175220845e-06,0.0153083269528511,1.0,0.0,1.0,0.3138071428571428,0.9435072112803232,1,0.9435072112803232,4.9518479574132515e-08,0.518,0.0565603896332951,0.0020106260677631,0.0005674055906361,0.992959783613246,0.4982857142857143,0.487265744782802,0.3616179428571429,0.1132081278206009,0.0003532406767614,0.9454074004541292,0.1494347287231923,1.0,0.0004958561125027,0.0004958561125027,0.9994285714285714,0.9171428571428571,0.9388285714285716,0.9012857142857144,-0.0566477381873058,0.1303845714285714,2.0,1.0,1.0,0.5783132530120482,-0.47243956847967067,-0.881363066014649,-0.9955262728085589,-0.09448513188803238,5.0,0.6956521739130435,24.0,0.0,0.0,0.0,1.0,0.0,0.0,0.0,0.0,0.0,0.0,1.0,1.0,0.0,0.0,0.0,0.0,0.0,0.0,0.0,0.0,0.0,0.0,1.0,0.0,1.0,1.0,0.0,0.8461527795918369,0.00012130926929175625,-0.9308842916497657,-0.6225884598802627,-0.36202181119587806,-0.36202181119587806,0.7174702742857142,0.7918176,-0.36202181119587806,h099_route_move,r144_q3_s_stage_hybrid_route,r144_q3_s_stage,q3_s_stage,"Q3,S1,S2,S3,S4"
h099_route_tail_hybrid_c120_r42_a044_2a5c61e3,1025,146,id06,2024-08-20,2024-08-19,S1,3,0.8954549884000682,0.8959698352864354,1.417783483670387e-06,0.3377485714285714,0.7720971428571428,0.5372021142857144,0.4566714285714286,0.1785714285714285,0.3825,1.0,1.0,0,2.0,1.93657810305736,1.0,1.0,0.0055115996762786,-7.210063458333783e-09,-1.417783483614876e-06,1.0,0.0,0.0,0.0,0.0,0.1814867640869667,0.1785714285714285,0.7262857142857143,0.7297142857142858,0.0,0.0,,0.5688714285714286,0.8960266401379597,0.0061211893265373,1.5910230796167824e-06,0.0061211893265373,0.0,0.0,1.0,0.2748399428571428,0.9013371564884484,1,0.9013371564884484,9.526538141963833e-08,0.5840571428571429,0.0605883148573789,0.0025008685591644,0.0005691878083733,0.996078664653354,0.5982857142857143,0.5025209256459693,0.4072595428571429,0.0644567290925564,0.0001879499485854,0.8960564726868825,0.006441449137962,1.0,-1.7434042313135834e-06,0.0,0.4542857142857143,0.4811428571428571,0.4641428571428571,0.6506171428571429,-0.0038684142351774,0.1833594285714285,1.0,0.0,1.0,0.5863453815261044,-0.51629923627004,-0.8564082546466804,-0.9983886888289513,0.05674527309307293,5.0,0.782608695652174,24.0,0.0,0.0,0.0,1.0,0.0,0.0,0.0,0.0,1.0,1.0,0.0,0.0,0.0,0.0,0.0,0.0,0.0,0.0,0.0,0.0,0.0,0.0,1.0,0.0,1.0,1.0,0.0,0.3019792995918367,2.311259854675144e-06,-0.03171151838474567,-0.031423035355420986,-0.025890111491514354,-0.025890111491514354,0.4066379085714286,0.4251408571428571,-0.025890111491514354,h099_route_move,r146_full_state_hybrid_route,r146_full_state,full_state,"Q1,Q2,Q3,S1,S2,S3,S4"
h099_route_tail_hybrid_c120_r42_a044_2a5c61e3,1045,149,id06,2024-08-23,2024-08-22,Q3,2,0.777022604386795,0.7775838198432127,9.094835523582034e-07,0.2452285714285714,0.7814571428571429,0.4971077142857142,0.4000428571428572,0.1785714285714285,0.3107259999999999,1.0,1.0,0,3.0,2.92297889772664,1.0,1.0,0.0032420924210658,-3.0912470261600027e-10,-9.094835523582034e-07,1.0,0.0,0.0,0.0,0.0,0.1858537712571854,0.1785714285714285,0.7365714285714285,0.7382857142857143,0.0,0.0,,0.5425857142857142,0.777621434684161,0.0034595987301866,9.42369486445216e-07,0.0034595987301866,1.0,0.0,1.0,0.3223777142857142,0.7843226988551862,1,0.7843226988551862,2.080929065056975e-08,0.3280685714285714,0.0209077107112019,0.0025222814853955,0.0005842227835737,1.0223898712541133,0.8554285714285714,0.4169258789693721,0.6592931428571428,0.0426381864788305,0.0001550105418142,0.7798976448569017,0.0166709572629812,1.0,1.4018847457442083e-05,1.4018847457442083e-05,0.9257142857142856,0.5342857142857143,0.7458,0.8927142857142858,-0.0217304757676286,0.1976028571428571,4.0,3.0,1.0,0.5983935742971888,-0.5795896608992377,-0.8149084764430339,-0.9599762679439228,0.2800813542249068,5.0,0.9130434782608695,24.0,0.0,0.0,1.0,0.0,0.0,0.0,0.0,0.0,0.0,0.0,0.0,0.0,0.0,0.0,1.0,1.0,0.0,0.0,0.0,0.0,0.0,1.0,0.0,1.0,0.0,1.0,0.0,0.6657863142857143,-3.285225473161321e-05,0.42263754415366706,-0.08117298106341536,-0.14445045894803332,-0.14445045894803332,0.5229324571428571,0.4611345714285715,-0.14445045894803332,h099_route_move,r149_nonq2_full_hybrid_route,r149_nonq2_full,nonq2_full,"Q1,Q3,S1,S2,S3,S4"
h099_route_tail_hybrid_c120_r42_a044_2a5c61e3,1057,151,id06,2024-08-25,2024-08-24,Q1,0,0.2931200235617892,0.2940047415236316,1.8877009515527732e-06,0.3332628571428572,0.7080171428571429,0.4039888571428572,0.5654857142857144,0.4817142857142857,0.3501362285714285,1.0,1.0,0,1.0,0.98640079466928,1.0,1.0,0.0042660984396376,-1.0020730809332893e-08,-1.8877009515527732e-06,1.0,0.0,0.0,0.0,0.0069087191295727,0.1085813693048932,0.46,0.5908571428571429,0.5965714285714285,0.0,0.0,,0.4900228571428571,0.2940407945891951,0.0044397867305515,1.860541860465581e-06,0.0044397867305515,1.0,0.0,1.0,0.2779978285714286,0.3160480568474452,1,0.6839519431525547,3.543989487264716e-07,0.5622057142857144,0.0767078893727275,0.0004647756016188,0.000563572964942,0.9862526886486588,0.3011428571428571,0.2390823668590611,0.2716846857142857,0.1082853490810346,0.001250143867855,0.2941165191992924,0.0048045551477717,1.0,-2.0308272858926557e-06,0.0,0.4542857142857143,0.4708571428571428,0.4616571428571429,0.8998400000000001,-0.0315774597083073,0.2318356571428572,6.0,5.0,1.0,0.606425702811245,-0.6199605408122385,-0.7846329892604547,-0.9067516281939827,0.42166513345018397,5.0,1.0,24.0,1.0,0.0,0.0,0.0,0.0,0.0,0.0,0.0,0.0,0.0,0.0,0.0,0.0,0.0,0.0,0.0,0.0,0.0,1.0,1.0,0.0,1.0,0.0,1.0,0.0,1.0,0.0,0.4154175634285715,5.866731312910623e-06,-0.08034760082666736,-0.023441271858119145,-0.20829227426023572,-0.20829227426023572,0.5045695908571429,0.5168146514285716,-0.20829227426023572,h099_route_move,r151_q_subjective_hybrid_route,r151_q_subjective,q_subjective,"Q1,Q2,Q3"
h099_route_tail_hybrid_c120_r42_a044_2a5c61e3,1059,151,id06,2024-08-25,2024-08-24,Q3,2,0.8051517532471274,0.8030150111803502,1.4511156814778214e-05,0.3337085714285714,0.7080171428571429,0.1520932571428572,0.9230857142857144,0.956,0.3712925714285713,1.0,1.0,0,0.0,0.0,0.0,0.0,0.0,0.0,0.0,0.0,0.0,0.0,0.0,0.2271737521378298,0.006086278522037,0.9222857142857144,0.2165714285714285,0.1788571428571428,0.0,0.0,,-0.7007057142857144,0.8030744767017115,-0.0131878844070159,1.2479027673317766e-05,0.0131878844070159,0.0,0.0,0.0,0.0559329142857143,0.7951378735404838,1,0.7951378735404838,5.971452035624195e-08,0.3412114285714285,0.0361493346156307,0.0011125015620337,0.0005754150819827,1.0069763934697766,0.7565714285714286,0.4100387233611863,0.4062238857142857,-0.0626314127524751,0.0003155568519088,0.8043516859284782,-0.0050918768989105,1.0,-8.541367909509212e-06,0.0,0.4542857142857143,0.4731428571428571,0.4653428571428571,0.9348628571428572,0.0987807473681059,0.0054983999999999,6.0,5.0,1.0,0.606425702811245,-0.6199605408122385,-0.7846329892604547,-0.9067516281939827,0.42166513345018397,5.0,1.0,24.0,0.0,0.0,1.0,0.0,0.0,0.0,0.0,0.0,0.0,0.0,0.0,0.0,0.0,0.0,0.0,0.0,0.0,0.0,1.0,1.0,0.0,1.0,0.0,1.0,0.0,1.0,0.0,0.43503175297959185,-2.8971749483260638e-05,0.3779267154027928,0.02484254498759172,0.5791993703618314,0.5791993703618314,0.38407477257142864,0.4528153828571429,0.5791993703618314,h099_route_move,r151_q_subjective_hybrid_route,r151_q_subjective,q_subjective,"Q1,Q2,Q3"
h099_route_tail_hybrid_c120_r42_a044_2a5c61e3,1152,164,id07,2024-07-26,2024-07-25,S2,4,0.7538345402841149,0.7500709494352068,3.8035724328921994e-05,0.2278685714285714,0.5277371428571428,0.1399890285714284,0.7647714285714287,0.7068571428571429,0.339762,1.0,1.0,0,4.0,7.150759261260218,1.0,1.0,-0.0090085858636104,1.1216877966442056e-08,-2.598463029362642e-05,0.0,0.0,0.0,1.0,0.0840149022542807,0.0082219878324713,0.7925714285714286,0.24,0.1788571428571428,1.0,1.0,seed_q061_companion,0.2385142857142857,0.7501270305095151,-0.0198790915093278,3.358262319086425e-05,0.0198790915093278,0.0,1.0,1.0,0.2436715999999999,0.7215187706973304,1,0.7215187706973304,5.40396334747948e-09,0.3106057142857142,-0.0097533200951613,0.0028053014211901,0.0005328107600353,0.9324188300618762,0.0531428571428571,0.0354539206980433,0.0710665142857142,-0.1671612547593745,0.0027367644722983,0.7358102184035964,-0.0948644755418399,1.0,0.0004966030815453,0.0004966030815453,1.0,0.8205714285714286,0.9102571428571428,0.9704057142857144,0.1574079346642131,0.0213868571428571,4.0,3.0,1.0,0.6586345381526104,-0.839699808785118,-0.5430508550092121,-0.15082429716137438,0.9885605855918884,6.0,0.41379310344827586,30.0,0.0,0.0,0.0,0.0,1.0,0.0,0.0,0.0,0.0,0.0,0.0,0.0,0.0,0.0,1.0,1.0,0.0,0.0,0.0,0.0,0.0,0.0,1.0,0.0,1.0,1.0,0.0,0.8833187328979593,0.00010580011947174158,-0.8961096644873631,0.43246562428672797,0.7832478600178792,0.7832478600178792,0.3965489828571429,0.36941297142857143,0.7832478600178792,h099_route_move,r164_s23_core_hybrid_route,r164_s23_core,s23_core,"S2,S3"
h099_route_tail_hybrid_c120_r42_a044_2a5c61e3,1153,164,id07,2024-07-26,2024-07-25,S3,5,0.8114316233549538,0.8129887509730154,7.939960443903438e-06,0.1875085714285714,0.5277371428571428,0.2590490857142856,0.5700857142857143,0.4445714285714285,0.306936,1.0,1.0,0,4.0,7.150759261260218,1.0,1.0,0.3695999999999992,-0.000418391461814,0.0090873447459736,0.0,0.0,0.0,1.0,0.004617974513143,0.0414269474669469,0.4314285714285714,0.4211428571428571,0.4571428571428571,1.0,1.0,seed_hardtail,0.4368742857142856,0.8129847541752478,0.0101827729204322,7.1893361767716435e-06,0.0101827729204322,1.0,0.0,1.0,0.2626705142857142,0.8276021121509791,1,0.8276021121509791,5.32025972518485e-08,0.4338171428571428,0.0361397720596656,0.001909698614804,0.0005618909675197,0.9833091931595876,0.2554285714285714,-0.1388834772158921,0.2157661714285714,0.109387949415636,0.0008741227429472,0.8204968531199776,0.060377894169503,1.0,0.0001816353473442,0.0001816353473442,0.98,0.7182857142857143,0.8542571428571428,0.9192914285714286,-0.0732481773559703,0.1178602285714285,4.0,3.0,1.0,0.6586345381526104,-0.839699808785118,-0.5430508550092121,-0.15082429716137438,0.9885605855918884,6.0,0.41379310344827586,30.0,0.0,0.0,0.0,0.0,0.0,1.0,0.0,0.0,0.0,0.0,0.0,0.0,0.0,0.0,1.0,1.0,0.0,0.0,0.0,0.0,0.0,0.0,1.0,0.0,1.0,1.0,0.0,0.7853112692244898,0.0006919673823867869,-0.9999999887334228,-0.2863960001267486,-0.4544840154344797,-0.4544840154344797,0.7143621508571429,0.7967975657142858,-0.4544840154344797,h099_route_move,r164_s23_core_hybrid_route,r164_s23_core,s23_core,"S2,S3"
h099_route_tail_hybrid_c120_r42_a044_2a5c61e3,1372,196,id08,2024-09-11,2024-09-10,Q1,0,0.4882210432658963,0.4914552980203778,2.0930443240918528e-05,0.3540228571428571,0.4665371428571429,0.0489138,0.8997142857142858,0.8354285714285714,0.3498260571428572,1.0,1.0,0,0.0,0.0,0.0,0.0,0.0,0.0,0.0,0.0,0.0,0.0,0.0,0.1782692747856165,0.0,0.8971428571428571,0.0777142857142857,0.1788571428571428,0.0,0.0,,-0.75626,0.4913993877565197,0.0127187032801039,1.8393801898830553e-05,0.0127187032801039,0.0,0.0,0.0,0.0430785142857143,0.5111605648331664,0,0.5111605648331664,3.610571893522563e-09,0.2521142857142857,-0.0071745605544646,0.0059461204084951,0.0005573665920388,0.9753915360679752,0.1674285714285714,0.4731065567580037,0.0345021714285714,0.0917742215092823,0.0010526383261484,0.4932668527561128,0.020190328732042,1.0,-1.323671713049368e-05,0.0,0.4542857142857143,0.5531428571428572,0.4917428571428572,0.94248,-0.0989487820637469,-0.0122389714285714,2.0,1.0,1.0,0.7871485943775101,-0.9728829847220697,0.23129785567159294,0.7646910926171744,-0.6443970304648774,7.0,0.7777777777777778,19.0,1.0,0.0,0.0,0.0,0.0,0.0,0.0,0.0,0.0,0.0,1.0,1.0,0.0,0.0,0.0,0.0,0.0,0.0,0.0,0.0,0.0,1.0,0.0,1.0,0.0,1.0,0.0,0.463457808,2.5154273804977494e-05,-0.33215063180423376,-0.09820844459805932,-0.5799463818447869,-0.5799463818447869,0.3645737074285714,0.4509399885714287,-0.5799463818447869,h099_route_move,r196_nonq2_full_hybrid_route,r196_nonq2_full,nonq2_full,"Q1,Q3,S1,S2,S3,S4"
h099_route_tail_hybrid_c120_r42_a044_2a5c61e3,1588,226,id09,2024-09-21,2024-09-20,S4,6,0.7104535414465696,0.7110198835302667,7.799049277501524e-07,0.2826114285714286,0.5007771428571429,0.3803166285714286,0.4467285714285715,0.1785714285714285,0.3474061714285714,1.0,1.0,0,2.0,1.93657810305736,1.0,1.0,0.0027547162616905,-1.664293927511782e-09,-7.799049277501525e-07,1.0,0.0,0.0,0.0,0.0,0.2177525377063177,0.1785714285714285,0.7822857142857143,0.7834285714285715,0.0,0.0,,0.50158,0.7110755884780996,0.0030258408548433,8.562511311094312e-07,0.0030258408548433,1.0,0.0,1.0,0.2848805142857142,0.7253842671965738,1,0.7253842671965738,2.206396430290567e-07,0.6813028571428571,0.0614132157370143,0.0049648432062501,0.0005549856304347,0.971224853260826,0.1394285714285714,0.8634167914483498,0.2099168,0.0737409588063007,0.0005475538557093,0.7158923589273024,0.0265888406197017,1.0,5.590302905544853e-05,5.590302905544853e-05,0.9537142857142856,0.5765714285714286,0.7840857142857143,0.8783542857142858,-0.0123277430692864,0.1520126857142857,5.0,4.0,1.0,0.9076305220883534,-0.5483371924577639,0.8362573308303713,-0.9855293386108988,-0.16950493425609892,8.0,0.9615384615384616,27.0,0.0,0.0,0.0,0.0,0.0,0.0,1.0,0.0,0.0,0.0,0.0,0.0,0.0,0.0,0.0,0.0,1.0,1.0,0.0,0.0,0.0,0.0,1.0,0.0,1.0,1.0,0.0,0.6887050475102041,2.9395634569415002e-05,-0.3829026077818813,-0.12902663288632812,-0.08233742194422898,-0.08233742194422898,0.6653106582857142,0.7385512114285714,-0.08233742194422898,h099_route_move,r226_nonq2_full_hybrid_route,r226_nonq2_full,nonq2_full,"Q1,Q3,S1,S2,S3,S4"
h099_route_objective_descent_c130_r55_a042_06fe996c,3,0,id01,2024-07-31,2024-07-30,S1,3,0.5202725253271271,0.5236101888857627,2.2320883022897146e-05,0.3296457142857143,0.5036571428571429,0.0592980571428572,0.8507142857142858,0.7537142857142857,0.3292734857142856,1.0,1.0,0,0.0,0.0,0.0,0.0,0.0,0.0,0.0,0.0,0.0,0.0,0.0,0.166282513857259,0.0,0.8897142857142857,0.0777142857142857,0.1788571428571428,0.0,0.0,,-0.7491228571428571,0.5235543310942848,0.013152533950614,1.963802934246139e-05,0.013152533950614,0.0,0.0,0.0,0.0526722285714286,0.5367598867796822,0,0.5367598867796822,8.669450489455988e-08,0.2992457142857143,-0.0351603363907305,0.0004641149697683,0.0005472298175587,0.95765218072781,0.0885714285714285,0.4134929081993978,-0.0102653714285714,0.0661707536831843,0.0005451474145004,0.523904797882171,0.0145575658103003,1.0,-2.1333746199614367e-05,0.0,0.4542857142857143,0.5245714285714286,0.4871142857142858,0.9440457142857144,-0.1013310900739148,-0.0021125714285714,2.0,1.0,1.0,0.0,0.0,1.0,0.0,1.0,0.0,0.0,27.0,0.0,0.0,0.0,1.0,0.0,0.0,0.0,0.0,0.0,0.0,1.0,1.0,0.0,0.0,0.0,0.0,0.0,0.0,0.0,0.0,0.0,0.0,1.0,0.0,1.0,1.0,0.0,0.4598581537959185,9.46869333733673e-06,-0.12923156045433398,-0.0709196553885991,-0.5904323442510443,-0.5904323442510443,0.29310284571428574,0.36753994285714287,-0.12923156045433398,h099_route_move,r000_s14_edge_frontier_descent,r000_s14_edge,s14_edge,"S1,S4"
h099_route_objective_descent_c130_r55_a042_06fe996c,6,0,id01,2024-07-31,2024-07-30,S4,6,0.5084298008946088,0.5091151839410136,9.39781743536372e-07,0.1482914285714285,0.5036571428571429,0.3172508,0.4932142857142857,0.1785714285714285,0.2109301714285714,1.0,1.0,0,0.0,0.0,0.0,0.0,0.0,0.0,0.0,0.0,0.0,0.0,0.0,0.0,0.1856015952715258,0.1785714285714285,0.7337142857142858,0.736,0.0,0.0,,-0.5764400000000001,0.5091590368126224,0.0029178468760701,9.681413111195525e-07,0.0029178468760701,0.0,0.0,0.0,0.0957847428571428,0.5223625210687107,1,0.5223625210687107,1.4679869777242745e-07,0.45888,0.045010420029887,0.0019122187266242,0.000551777393772,0.9656104391011492,0.108,0.502682123038882,0.0688006857142857,0.0557874001969457,0.000388523838803,0.5114968799282992,0.0122732280433281,1.0,9.8721686667691e-06,9.8721686667691e-06,0.9217142857142856,0.5114285714285715,0.7346857142857143,0.8756571428571429,-0.0107769801670586,-0.0351718857142857,2.0,1.0,1.0,0.0,0.0,1.0,0.0,1.0,0.0,0.0,27.0,0.0,0.0,0.0,0.0,0.0,0.0,1.0,0.0,0.0,0.0,1.0,1.0,0.0,0.0,0.0,0.0,0.0,0.0,0.0,0.0,0.0,0.0,1.0,0.0,1.0,1.0,0.0,0.6433327934693878,2.0447627369697292e-05,-0.27350164828270496,-0.05982015307442786,-0.07201824949096935,-0.07201824949096935,0.45683021257142853,0.57472224,-0.27350164828270496,h099_route_move,r000_s14_edge_frontier_descent,r000_s14_edge,s14_edge,"S1,S4"
h099_route_objective_descent_c130_r55_a042_06fe996c,23,3,id01,2024-08-03,2024-08-02,Q3,2,0.5825405612758282,0.5795370659761659,1.8534940263270627e-05,0.2811657142857143,0.6352171428571428,0.1250753999999999,0.8544285714285714,0.9097142857142856,0.3286348571428571,0.0,1.0,0,3.0,5.4,1.0,1.0,-0.0020563557839757,-1.3985871682512395e-09,-5.640630085346209e-06,0.0,0.0,0.0,1.0,0.127484423230084,0.0059622151491581,0.8485714285714285,0.2148571428571428,0.1788571428571428,1.0,1.0,episode_neighbor_q061,0.28076,0.5795635192393868,-0.0122295736452776,1.6570339673616097e-05,0.0122295736452776,1.0,0.0,1.0,0.1879783428571428,0.5577169744059128,0,0.5577169744059128,8.511330267661373e-11,0.1802285714285714,0.0011137372782469,0.0033986064699007,0.0005605465865673,0.9809565264928056,0.22,0.1387492598971923,0.2050615999999999,-0.1013098164667343,0.0012604154204444,0.5729004845201093,-0.0395164455506682,1.0,7.263366103893443e-05,7.263366103893443e-05,0.9571428571428572,0.6308571428571429,0.8040571428571429,0.9461771428571428,0.1024235537449813,0.0526738285714285,5.0,4.0,1.0,0.012048192771084338,0.0756287458844567,0.997136045279652,0.225155940522694,0.9743227403932134,0.0,0.11538461538461539,27.0,0.0,0.0,1.0,0.0,0.0,0.0,0.0,0.0,0.0,0.0,0.0,0.0,0.0,0.0,0.0,0.0,1.0,1.0,0.0,0.0,0.0,1.0,0.0,1.0,0.0,1.0,0.0,0.760780490122449,-1.461782808600078e-05,0.19798109253029106,0.1904796281519601,0.5951754951749221,0.5951754951749221,0.5332048411428572,0.5840420685714287,0.19798109253029106,h099_route_move,r003_q3_quality_frontier_descent,r003_q3_quality,q3_quality,Q3
h099_route_objective_descent_c130_r55_a042_06fe996c,88,12,id01,2024-08-15,2024-08-14,S2,4,0.558780265236678,0.5769233398374067,0.0006696520729353,0.2016114285714285,0.6085171428571429,0.2766081714285714,0.3706285714285714,0.4771428571428571,0.36213,1.0,1.0,0,6.0,8.273738158986857,2.0,1.0,0.2597166103397486,-0.0001091886476226,0.005727192352249,1.0,0.0,0.0,1.0,0.0138656472840437,0.0083741151898044,0.5354285714285715,0.2411428571428571,0.1788571428571428,1.0,1.0,seed_hardtail,0.4821914285714287,0.5768786560011463,0.0737596453710668,0.0006065270001188,0.0737596453710668,1.0,0.0,1.0,0.4918281428571429,0.5740043566507215,1,0.5740043566507215,2.6351875415164796e-07,0.5735314285714285,0.061994572628224,0.0047545605452327,0.00056705224294,0.9923414251451044,0.4754285714285714,-0.0990330144832213,0.3916050857142857,0.061994572628224,0.0004712579911354,0.5976673046377999,0.1595416113137707,1.0,0.0002275190625469,0.0002275190625469,0.9857142857142858,0.9274285714285714,0.9234,0.0,0.0,0.2315657142857141,3.0,2.0,1.0,0.04819277108433735,0.29819791104666543,0.9545040627715552,0.7885283215303659,0.6149984440179536,0.0,0.46153846153846156,27.0,0.0,0.0,0.0,0.0,1.0,0.0,0.0,0.0,0.0,0.0,0.0,0.0,1.0,1.0,0.0,0.0,0.0,0.0,0.0,0.0,0.0,0.0,1.0,0.0,1.0,0.0,0.0,0.0,0.00022488973344045435,-0.9958397508942437,-0.651868522092217,0.0,0.0,0.5087412571428571,0.49665428571428577,-0.9958397508942437,h099_route_move,r012_q3_s_stage_frontier_descent,r012_q3_s_stage,q3_s_stage,"Q3,S1,S2,S3,S4"
h099_route_objective_descent_c130_r55_a042_06fe996c,89,12,id01,2024-08-15,2024-08-14,S3,5,0.8372632240978997,0.8071090995988844,0.0031851797663658,0.8477257142857144,0.6085171428571429,0.7160738857142859,0.0605,0.1785714285714285,0.8065995428571431,1.0,0.0,0,21.0,21.77752501423886,4.0,1.0,-0.1821196265117553,-3.4491767104507523e-06,-0.0029069934991289,1.0,1.0,1.0,1.0,0.0,0.2310712767541967,0.1785714285714285,0.7971428571428572,0.7982857142857143,1.0,1.0,seed_q061_companion,0.92432,0.8070809680501194,-0.2068510644136234,0.0028950057488527,0.2068510644136234,1.0,0.0,1.0,0.8106429999999999,0.8238408017388559,1,0.8238408017388559,3.68846004431598e-07,0.6475885714285714,-0.0954152947991024,0.0003539543694884,0.0006180674806897,1.0816180912070308,0.9314285714285714,0.4748715374546745,0.8737216571428572,-0.0954152947991024,0.000647085071981,0.8165266696432032,-0.1450142255302575,1.0,-0.0028970730252485,0.0,0.4542857142857143,0.9148571428571428,0.6662571428571429,0.0,0.0,0.568128,3.0,2.0,1.0,0.04819277108433735,0.29819791104666543,0.9545040627715552,0.7885283215303659,0.6149984440179536,0.0,0.46153846153846156,27.0,0.0,0.0,0.0,0.0,0.0,1.0,0.0,0.0,0.0,0.0,0.0,0.0,1.0,1.0,0.0,0.0,0.0,0.0,0.0,0.0,0.0,0.0,1.0,0.0,1.0,0.0,0.0,0.0,-2.375126241175051e-05,0.31491053840237526,0.6092007373359564,0.0,0.0,0.4939855085714286,0.4444333714285714,0.31491053840237526,h099_route_move,r012_q3_s_stage_frontier_descent,r012_q3_s_stage,q3_s_stage,"Q3,S1,S2,S3,S4"
h099_route_objective_descent_c130_r55_a042_06fe996c,198,28,id02,2024-08-27,2024-08-26,Q3,2,0.6741076586824011,0.6462659287870366,0.0017398372141286,0.699457142857143,0.5051371428571428,0.5937433714285716,0.1930428571428571,0.1785714285714285,0.5995531428571429,1.0,0.0,0,13.0,11.930315893559122,3.0,1.0,-0.1261051653122945,-1.311890548668424e-06,-0.0017282327401319,1.0,1.0,1.0,0.0,0.0,0.1899070103888226,0.1785714285714285,0.7462857142857143,0.7485714285714286,0.0,0.0,,0.8024371428571428,0.6462354427606603,-0.1242904431287843,0.0015852834770324,0.1242904431287843,1.0,0.0,1.0,0.6986115428571429,0.6589956824826942,1,0.6589956824826942,2.881444219743811e-07,0.5462285714285715,-0.0680008993544727,0.0018380120328722,0.0005666846835938,0.991698196289266,0.4508571428571428,0.6213674782330295,0.5430028571428571,-0.0680008993544727,0.0005157539969335,0.6513951913238865,-0.1016451601624334,1.0,-0.0016851366923851,0.0,0.4542857142857143,0.8428571428571429,0.6362571428571429,0.0,0.0,0.4838330285714285,1.0,0.0,1.0,0.11244979919678715,0.6492081680558328,0.7606107772899287,0.8531342035272768,-0.5216915092004845,1.0,0.03225806451612903,32.0,0.0,0.0,1.0,0.0,0.0,0.0,0.0,0.0,1.0,1.0,0.0,0.0,0.0,0.0,0.0,0.0,0.0,0.0,0.0,0.0,0.0,1.0,0.0,1.0,0.0,0.0,0.0,0.0,-4.7466088616980943e-05,0.5726616800765785,0.4589769013764375,0.0,0.0,0.5232812274285714,0.4891638742857143,0.5726616800765785,h099_route_move,r028_q3_s_stage_frontier_descent,r028_q3_s_stage,q3_s_stage,"Q3,S1,S2,S3,S4"
h099_route_objective_descent_c130_r55_a042_06fe996c,226,32,id02,2024-08-31,2024-08-30,Q3,2,0.6564871216856286,0.6322200448317845,0.001291807509781,0.7414114285714286,0.3422571428571428,0.5349040571428572,0.1968714285714285,0.1785714285714285,0.6265548571428571,0.0,0.0,0,21.0,18.02115831398056,3.0,1.0,-0.1076249979111384,-1.5512569050708847e-06,-0.0012830567154889,1.0,1.0,1.0,0.0,0.0,0.1185189983380767,0.1785714285714285,0.6137142857142858,0.6262857142857143,0.0,0.0,,0.7275971428571427,0.6322055185734275,-0.1059882533906665,0.0011761383888986,0.1059882533906665,1.0,0.0,1.0,0.620714057142857,0.6449276019319015,1,0.6449276019319015,1.6423873487401394e-07,0.4064,-0.0508621159857971,0.0009001499348235,0.0005636336811571,0.9863589420249858,0.3051428571428571,0.6284962951475314,0.4431779428571429,-0.0508621159857971,0.0002947219975462,0.6338328137408957,-0.0989832777348644,1.0,-0.0012876453169813,0.0,0.4542857142857143,0.836,0.6307714285714286,0.0,0.0,0.3996339428571427,5.0,4.0,1.0,0.1285140562248996,0.7225457018570788,0.6913231579571607,0.658752745101794,-0.752359502379581,1.0,0.16129032258064516,32.0,0.0,0.0,1.0,0.0,0.0,0.0,0.0,0.0,0.0,0.0,0.0,0.0,0.0,0.0,0.0,0.0,1.0,1.0,0.0,0.0,0.0,1.0,0.0,1.0,0.0,0.0,0.0,0.0,-4.7411948025504586e-05,0.5721620727380493,0.4486627604494912,0.0,0.0,0.4991474308571428,0.47943653714285717,0.5721620727380493,h099_route_move,r032_q3_s_stage_frontier_descent,r032_q3_s_stage,q3_s_stage,"Q3,S1,S2,S3,S4"
h099_route_objective_descent_c130_r55_a042_06fe996c,429,61,id03,2024-08-19,2024-08-18,Q3,2,0.769391940972039,0.7691873343964346,1.1794978560519809e-07,0.1801828571428571,0.3370171428571429,0.0740792571428571,0.6702571428571429,0.7508571428571429,0.2411588571428571,1.0,1.0,0,2.0,3.6,1.0,1.0,-0.000184451677063,-5.6483338269916636e-11,-3.4533000903280715e-08,0.0,0.0,0.0,1.0,0.0259545843659137,0.1152267987939449,0.6217142857142857,0.6057142857142858,0.572,1.0,1.0,episode_neighbor_q061,0.3079257142857142,0.769159963715853,-0.0013069844411823,1.3796569509061385e-07,0.0013069844411823,0.0,0.0,1.0,0.0993245714285714,0.7570030321951982,0,0.7570030321951982,9.349604647858497e-08,0.3282628571428571,-0.0431694753420197,0.0002337820502099,0.000570936680997,0.9991391917449192,0.6605714285714286,0.4307766506520007,0.3147865142857143,-0.0685626666458385,0.0004272632394869,0.7692349173091595,-0.0008847885427687,1.0,-1.357899670484386e-07,0.0,0.4542857142857143,0.4502857142857143,0.4517142857142857,0.8968457142857144,0.0253931913038187,0.0444745142857143,0.0,6.0,1.0,0.24497991967871485,0.9995025893658627,0.03153686495097154,-0.995526272808559,-0.09448513188803126,2.0,0.1,21.0,0.0,0.0,1.0,0.0,0.0,0.0,0.0,1.0,0.0,0.0,0.0,0.0,0.0,0.0,0.0,0.0,0.0,0.0,0.0,0.0,1.0,1.0,0.0,1.0,0.0,1.0,0.0,0.4051180212244898,-3.75723322305093e-05,0.4743605781628997,0.004317619303338317,0.16836825727885685,0.16836825727885685,0.498675808,0.5751226514285716,0.4743605781628997,h099_route_move,r061_q3_quality_frontier_descent,r061_q3_quality,q3_quality,Q3
h099_route_objective_descent_c130_r55_a042_06fe996c,464,66,id03,2024-08-25,2024-08-24,Q3,2,0.630338645724282,0.6240944124446438,8.347441313394377e-05,0.4692685714285714,0.7341371428571428,0.5860857714285714,0.3514142857142858,0.1785714285714285,0.4499905714285714,1.0,1.0,0,14.0,13.439530590522722,2.0,1.0,-0.0277654894830612,-3.8092087166373867e-08,-8.252439832181691e-05,1.0,0.0,1.0,0.0,0.0,0.2826337922310437,0.1785714285714285,0.8445714285714285,0.8457142857142858,0.0,0.0,,0.6734114285714285,0.624035958405196,-0.0269553924450244,7.737679196984093e-05,0.0269553924450244,1.0,0.0,1.0,0.4734598857142857,0.6170849809338272,1,0.6170849809338272,2.2880365093866337e-07,0.5717714285714286,-0.0564762153797048,0.0017587835524609,0.0005263945208123,0.9211904114216808,0.048,0.5399640041158243,0.2804230857142857,-0.0564762153797048,0.000375130117575,0.6188831351068013,-0.048859481553426,1.0,-2.8658879838938667e-05,0.0,0.4542857142857143,0.668,0.5327142857142858,0.0,0.0,0.3126401142857142,6.0,5.0,1.0,0.26506024096385544,0.995526272808559,-0.09448513188803123,-0.9599762679439228,0.2800813542249071,2.0,0.35,21.0,0.0,0.0,1.0,0.0,0.0,0.0,0.0,0.0,0.0,0.0,0.0,0.0,0.0,0.0,0.0,0.0,0.0,0.0,1.0,1.0,0.0,1.0,0.0,1.0,0.0,0.0,0.0,0.0,-4.436181901940485e-05,0.5433298621847072,0.23400994207830617,0.0,0.0,0.49166921828571436,0.4460468685714286,0.5433298621847072,h099_route_move,r066_q3_s_stage_frontier_descent,r066_q3_s_stage,q3_s_stage,"Q3,S1,S2,S3,S4"
