kbsooo/etri/hitl/h028_public_private_gradient_jepa/h028_cell_state.csv
row,target,target_i,h012_prob,h015_prob,h015_minus_h012,h015_cell_score,h015_direction_consistency,h016_public_weight_mean,h016_public_weight_median,h016_weight_score,h016_h015_public_gain_score,h016_combined_score,h016_weighted_h015_gain,h020_prob,h020_minus_h012,h020_cell_gain,h020_gain_score,h020_move_score,h020_combined_score,h021_hs_prob,h021_h020_prob,h021_hs_minus_h012,h021_h020_minus_h012,h021_h020_gain,h021_hs_h020_agree,h021_hs_cell_score,h021_hs_row_conf,h023_hs_prob,h023_prob,h023_minus_h012,h023_hs_h023_agree,h023_cell_gain,h023_gain_score,h023_move_score,h023_combined_score,h014_memory_prob,h014_memory_logit_delta,h014_memory_alignment,h014_memory_agrees_h012,h014_memory_disagrees_h012,h014_row_reliability_q,h014_memory_alignment_q,h014_private_safe_score,h014_posterior_gain,h012_posterior_prob,h012_posterior_minus_base,h012_logit_delta_to_posterior,h012_direction_consistency,h012_cell_score,subject_id,sleep_dow,lifelog_dow,date_gap_days,row_norm,row_sin1,row_cos1,row_sin5,row_cos5,subject_idx,within_subject_norm,subject_block_size,target_Q1,target_Q2,target_Q3,target_S1,target_S2,target_S3,target_S4,subject_id01,subject_id02,subject_id03,subject_id04,subject_id05,subject_id06,subject_id07,subject_id08,subject_id09,subject_id10,sleep_dow_0,lifelog_dow_0,sleep_dow_1,lifelog_dow_1,sleep_dow_2,lifelog_dow_2,sleep_dow_3,lifelog_dow_3,sleep_dow_4,lifelog_dow_4,sleep_dow_5,lifelog_dow_5,sleep_dow_6,lifelog_dow_6
0,Q1,0,0.1952401438424609,0.1496034634397496,-0.0456366804027113,0.3214009596981118,1.0,0.0005659876371156,0.0005631852658867,0.5302857142857142,0.3891428571428571,0.5501371428571428,-7.445835068145917e-08,0.1820514649065051,-0.0131886789359557,0.0005633228108826,0.5342857142857143,0.5691428571428572,0.5080228571428571,0.525928037555836,0.1820514649065052,0.330687893713375,-0.0131886789359557,0.0005633228108826,0.0,0.5581947715293994,0.2469224290755688,0.5259280375558365,0.1774156151190625,-0.0178245287233984,0.0,0.0010355610587597,0.5297142857142857,0.5622857142857143,0.35144,0.4120111778183677,0.8106412874354132,-0.2026723713657799,0.0,1.0,0.0763052208835341,0.2043369474562135,0.4087559958625317,0.0092330426778737,0.178952164891399,-0.058572489976381,-0.3571640916661787,1.0,0.3571640916661787,id01,2.0,1.0,1.0,0.0,0.0,1.0,0.0,1.0,0.0,0.0,27.0,1.0,0.0,0.0,0.0,0.0,0.0,0.0,1.0,0.0,0.0,0.0,0.0,0.0,0.0,0.0,0.0,0.0,0.0,0.0,0.0,1.0,1.0,0.0,0.0,0.0,0.0,0.0,0.0,0.0,0.0,0.0
0,Q2,1,0.5282565708634688,0.538273748766344,0.0100171779028752,0.0402482318985166,1.0,0.0005674538117362,0.000568022220754,0.6971428571428572,0.76,0.6380571428571429,1.537161347864063e-07,0.5275006088585029,-0.0007559620049658,1.1465540240562788e-06,0.0245714285714285,0.0222857142857142,0.1949028571428571,0.5087244416027501,0.5275006088585029,-0.0195321292607186,-0.0007559620049658,1.1465540240562788e-06,1.0,0.1596050572436851,0.2469224290755688,0.5087244416027494,0.5338458451934806,0.0055892743300117,0.0,6.270797010055063e-05,0.1565714285714285,0.1211428571428571,0.1176457142857143,0.5998009470013197,0.4145779208756643,0.0510299698540086,1.0,0.0,0.0763052208835341,0.7631359466221852,0.9189557954859078,0.0035063482433309,0.5413799507010606,0.0438654631092377,0.1758413877427911,1.0,0.1758413877427911,id01,2.0,1.0,1.0,0.0,0.0,1.0,0.0,1.0,0.0,0.0,27.0,0.0,1.0,0.0,0.0,0.0,0.0,0.0,1.0,0.0,0.0,0.0,0.0,0.0,0.0,0.0,0.0,0.0,0.0,0.0,0.0,1.0,1.0,0.0,0.0,0.0,0.0,0.0,0.0,0.0,0.0,0.0
0,Q3,2,0.5541805485467693,0.5561130454239317,0.0019324968771623,0.0070426705360818,0.9,0.0005653826541832,0.0005651498115247,0.6142857142857143,0.498,0.45764,0.0,0.5155809249016432,-0.0385996236451261,0.0030013715418311,0.9102857142857144,0.8154285714285714,0.8156114285714285,0.5918482896537856,0.5155809249016432,0.0376677411070162,-0.0385996236451261,0.0030013715418311,0.0,0.5418096286722567,0.2469224290755688,0.5918482896537854,0.5274845939843313,-0.026695954562438,0.0,0.0014373716401377,0.6062857142857143,0.5251428571428571,0.4201371428571429,0.5576494718897963,0.0140514797418479,0.0,0.0,0.0,0.0763052208835341,0.0,0.0812629592124932,-0.0,0.5415287725018717,-0.0126517760448976,-0.0510778172029832,0.9629629629629628,0.0491860461954653,id01,2.0,1.0,1.0,0.0,0.0,1.0,0.0,1.0,0.0,0.0,27.0,0.0,0.0,1.0,0.0,0.0,0.0,0.0,1.0,0.0,0.0,0.0,0.0,0.0,0.0,0.0,0.0,0.0,0.0,0.0,0.0,1.0,1.0,0.0,0.0,0.0,0.0,0.0,0.0,0.0,0.0,0.0
0,S1,3,0.5454902757586634,0.550964186981117,0.0054739112224536,0.0206280679854716,0.9333333333333332,0.0005645802286793,0.0005644631663795,0.5868571428571429,0.3691428571428571,0.4171542857142857,-9.705461870161789e-08,0.5231979874489454,-0.0222922883097179,0.0009997979708636,0.6702857142857143,0.584,0.6192914285714285,0.6784262297102575,0.5231979874489454,0.132935953951594,-0.0222922883097179,0.0009997979708636,0.0,0.5278942001008281,0.2469224290755688,0.6784262297102577,0.5307008420854976,-0.0147894336731657,0.0,0.0004403745736305,0.3651428571428571,0.3114285714285714,0.2549257142857143,0.5556813725288936,-0.0452082632025009,0.003905800346722,1.0,0.0,0.0763052208835341,0.6088407005838199,0.7408755294361073,0.0017169665999977,0.5362957771736296,-0.0305175788056379,-0.1234224539004808,1.0,0.1234224539004808,id01,2.0,1.0,1.0,0.0,0.0,1.0,0.0,1.0,0.0,0.0,27.0,0.0,0.0,0.0,1.0,0.0,0.0,0.0,1.0,0.0,0.0,0.0,0.0,0.0,0.0,0.0,0.0,0.0,0.0,0.0,0.0,1.0,1.0,0.0,0.0,0.0,0.0,0.0,0.0,0.0,0.0,0.0
0,S2,4,0.4713998480827134,0.4553592666726196,-0.0160405814100937,0.0623635853751166,0.9666666666666668,0.000573121911253,0.0005737791858831,0.796,0.9131428571428571,0.7648571428571429,4.787117418638762e-07,0.4634102151679761,-0.0079896329147373,0.0001281714138106,0.3,0.2468571428571428,0.4213028571428572,0.5871055626711473,0.463410215167976,0.1157057145884339,-0.0079896329147374,0.0001281714138106,0.0,0.3855136286722567,0.2469224290755688,0.5871055626711472,0.5018666955485057,0.0304668474657923,1.0,0.0018593731107768,0.664,0.5817142857142857,0.6550400000000001,0.5909551897625872,0.2558047775560824,-0.057974655147505,0.0,1.0,0.0763052208835341,0.4161801501251042,0.6152246988173001,0.0118792952581279,0.4472827866261835,-0.0807155703636747,-0.3237661810551981,1.0,0.3237661810551981,id01,2.0,1.0,1.0,0.0,0.0,1.0,0.0,1.0,0.0,0.0,27.0,0.0,0.0,0.0,0.0,1.0,0.0,0.0,1.0,0.0,0.0,0.0,0.0,0.0,0.0,0.0,0.0,0.0,0.0,0.0,0.0,1.0,1.0,0.0,0.0,0.0,0.0,0.0,0.0,0.0,0.0,0.0
0,S3,5,0.8468215168945182,0.8801257039487258,0.0333041870542075,0.2837350281012847,1.0,0.0005571376104749,0.0005566020160224,0.1594285714285714,0.552,0.4516914285714286,1.1526850574119097e-08,0.8510606287168067,0.0042391118222884,6.979864751144316e-05,0.2365714285714285,0.2531428571428571,0.3486399999999999,0.718203321402376,0.8510606287168065,-0.1286181954921422,0.0042391118222883,6.979864751144316e-05,0.0,0.402158200100828,0.2469224290755688,0.7182033214023755,0.8627039471081317,0.0158824302136134,0.0,0.0010014407570311,0.5205714285714286,0.6057142857142858,0.3469142857142858,0.6710105412676551,-0.7661552107535342,-0.1769602507021651,0.0,1.0,0.0763052208835341,0.2210175145954962,0.4210912228074177,0.0065129278382434,0.8592257399630513,0.0448171966622298,0.3299597191244239,1.0,0.3299597191244239,id01,2.0,1.0,1.0,0.0,0.0,1.0,0.0,1.0,0.0,0.0,27.0,0.0,0.0,0.0,0.0,0.0,1.0,0.0,1.0,0.0,0.0,0.0,0.0,0.0,0.0,0.0,0.0,0.0,0.0,0.0,0.0,1.0,1.0,0.0,0.0,0.0,0.0,0.0,0.0,0.0,0.0,0.0
0,S4,6,0.5111230093690158,0.5415919348915317,0.0304689255225159,0.1222537002178801,1.0,0.0005804981683736,0.0005816010656694,0.8622857142857143,0.7342857142857143,0.7714742857142858,1.226880220326795e-07,0.5037080748745798,-0.0074149344944359,0.0001099967838341,0.2805714285714286,0.228,0.4236114285714285,0.5694343882978661,0.5037080748745798,0.0583113789288503,-0.0074149344944359,0.0001099967838341,0.0,0.3298096286722566,0.2469224290755688,0.5694343882978663,0.528561557284337,0.0174385479153211,1.0,0.000608945916996,0.4165714285714286,0.3622857142857142,0.4044228571428572,0.5697109881413573,0.3590816501191042,0.0441343445894375,1.0,0.0,0.0763052208835341,0.74395329441201,0.8974861221207868,0.003504367181666,0.5242745607964987,0.0438669138488427,0.1755841984080327,0.9629629629629628,0.1690810799484759,id01,2.0,1.0,1.0,0.0,0.0,1.0,0.0,1.0,0.0,0.0,27.0,0.0,0.0,0.0,0.0,0.0,0.0,1.0,1.0,0.0,0.0,0.0,0.0,0.0,0.0,0.0,0.0,0.0,0.0,0.0,0.0,1.0,1.0,0.0,0.0,0.0,0.0,0.0,0.0,0.0,0.0,0.0
1,Q1,0,0.0950246972067914,0.0907870283169215,-0.0042376688898698,0.0452629067586129,0.9,0.0005584163881959,0.0005576035762594,0.1897142857142857,0.2114285714285714,0.2231085714285714,-3.089996928151167e-07,0.1043503035093675,0.0093256063025761,0.0004915414260168,0.5102857142857142,0.6594285714285715,0.5082057142857143,0.4531664825448979,0.1043503035093675,0.3581417853381065,0.0093256063025761,0.0004915414260168,1.0,0.580298062605565,0.239027455884968,0.4531664825448981,0.0926877004634537,-0.0023369967433376,0.0,3.199099697004382e-05,0.1222857142857142,0.144,0.2114971428571428,0.4254570204709936,2.3156769801054207,0.8390094328762369,1.0,0.0,0.4618473895582329,0.9866555462885738,1.3972247527886736,0.0102738421638088,0.1092434717816216,0.041133295109703,0.5175958971852577,1.0,0.5175958971852577,id01,3.0,2.0,1.0,0.004016064257028112,0.02523099814262444,0.9996816476922675,0.12583391159936969,0.9920513226096732,0.0,0.038461538461538464,27.0,1.0,0.0,0.0,0.0,0.0,0.0,0.0,1.0,0.0,0.0,0.0,0.0,0.0,0.0,0.0,0.0,0.0,0.0,0.0,0.0,0.0,0.0,1.0,1.0,0.0,0.0,0.0,0.0,0.0,0.0,0.0
1,Q2,1,0.5142003796073951,0.5133567889236041,-0.0008435906837909,0.0025889781021748,0.7666666666666667,0.0005616850269822,0.0005617073623647,0.44,0.498,0.37804,0.0,0.5187505477991277,0.0045501681917325,4.144920898019322e-05,0.1965714285714285,0.1502857142857142,0.24496,0.5145089490087116,0.5187505477991277,0.0003085694013165,0.0045501681917325,4.144920898019322e-05,1.0,0.1736374911769936,0.239027455884968,0.5145089490087111,0.4951030354128912,-0.0190973441945038,0.0,0.0007296554401188,0.4554285714285714,0.3948571428571428,0.3909257142857143,0.5854617180925707,0.288418672562228,0.0,0.0,0.0,0.4618473895582329,0.0,0.242015747380603,-0.0,0.5172148530254022,0.003014473418007,0.0120698423069859,0.925925925925926,0.0111757799138758,id01,3.0,2.0,1.0,0.004016064257028112,0.02523099814262444,0.9996816476922675,0.12583391159936969,0.9920513226096732,0.0,0.038461538461538464,27.0,0.0,1.0,0.0,0.0,0.0,0.0,0.0,1.0,0.0,0.0,0.0,0.0,0.0,0.0,0.0,0.0,0.0,0.0,0.0,0.0,0.0,0.0,1.0,1.0,0.0,0.0,0.0,0.0,0.0,0.0,0.0
1,Q3,2,0.510501737615549,0.5003747591576653,-0.0101269784578836,0.0391636223938055,0.9666666666666668,0.000570533776212,0.0005701372433404,0.7302857142857143,0.7428571428571429,0.6440914285714286,1.339366189338611e-07,0.4726780803870616,-0.0378236572284873,0.0028622194528785,0.9022857142857142,0.8102857142857143,0.8287542857142858,0.5448119819558639,0.4726780803870616,0.0343102443403149,-0.0378236572284873,0.0028622194528785,0.0,0.5419163483198508,0.239027455884968,0.5448119819558638,0.4865778312300809,-0.023923906385468,0.0,0.0011448814785318,0.5514285714285714,0.4765714285714286,0.4002171428571429,0.5526997482224537,0.0592206142371341,-0.0065350591287629,0.0,1.0,0.4618473895582329,0.5704753961634695,0.9125483190729462,0.0028241009776905,0.498679954653228,-0.0393375800951993,-0.1576444093942143,1.0,0.1576444093942143,id01,3.0,2.0,1.0,0.004016064257028112,0.02523099814262444,0.9996816476922675,0.12583391159936969,0.9920513226096732,0.0,0.038461538461538464,27.0,0.0,0.0,1.0,0.0,0.0,0.0,0.0,1.0,0.0,0.0,0.0,0.0,0.0,0.0,0.0,0.0,0.0,0.0,0.0,0.0,0.0,0.0,1.0,1.0,0.0,0.0,0.0,0.0,0.0,0.0,0.0
1,S1,3,0.2239016388290741,0.1984331195263186,-0.0254685193027554,0.1530438885707403,1.0,0.0005679282080684,0.0005678715959975,0.6931428571428572,0.2782857142857143,0.5434971428571429,-2.034897477563129e-07,0.2022819536957725,-0.0216196851333015,0.0013774747342323,0.7542857142857143,0.7491428571428571,0.7319542857142858,0.6879250659627296,0.2022819536957725,0.4640234271336555,-0.0216196851333015,0.0013774747342323,0.0,0.6896706340341365,0.239027455884968,0.6879250659627301,0.2004894260771313,-0.0234122127519427,0.0,0.0016187253924248,0.632,0.6348571428571429,0.5022057142857143,0.5741690693765056,1.463619098603002,-0.1146523568834106,0.0,1.0,0.4618473895582329,0.2852376980817347,0.6038686541530183,0.000993579959312,0.2181219462130418,-0.0196855601059867,-0.1119069035231556,1.0,0.1119069035231556,id01,3.0,2.0,1.0,0.004016064257028112,0.02523099814262444,0.9996816476922675,0.12583391159936969,0.9920513226096732,0.0,0.038461538461538464,27.0,0.0,0.0,0.0,1.0,0.0,0.0,0.0,1.0,0.0,0.0,0.0,0.0,0.0,0.0,0.0,0.0,0.0,0.0,0.0,0.0,0.0,0.0,1.0,1.0,0.0,0.0,0.0,0.0,0.0,0.0,0.0
1,S2,4,0.467637104525372,0.4660247489266985,-0.0016123555986734,0.0049664175473199,0.7666666666666667,0.0005767819485868,0.0005768941369587,0.8234285714285714,0.498,0.5415942857142857,0.0,0.4632458946007179,-0.004391209924654,3.874294339134554e-05,0.1862857142857142,0.1457142857142857,0.2362285714285714,0.5930509477166964,0.463245894600718,0.1254138431913244,-0.0043912099246539,3.874294339134554e-05,0.0,0.299394062605565,0.239027455884968,0.5930509477166962,0.4641561018909467,-0.0034810026344253,0.0,2.4344258420683215e-05,0.0994285714285714,0.0811428571428571,0.1242514285714285,0.6051010873102188,0.4906231322099249,-0.0322709313566682,0.0,1.0,0.4618473895582329,0.4870725604670559,0.792667495955149,0.0010003527419601,0.4606261252996861,-0.0234149432570702,-0.0939648530265389,1.0,0.0939648530265389,id01,3.0,2.0,1.0,0.004016064257028112,0.02523099814262444,0.9996816476922675,0.12583391159936969,0.9920513226096732,0.0,0.038461538461538464,27.0,0.0,0.0,0.0,0.0,1.0,0.0,0.0,1.0,0.0,0.0,0.0,0.0,0.0,0.0,0.0,0.0,0.0,0.0,0.0,0.0,0.0,0.0,1.0,1.0,0.0,0.0,0.0,0.0,0.0,0.0,0.0
1,S3,5,0.8477592475098434,0.8845130862606745,0.036753838750831,0.3187467747847912,1.0,0.0005610405939285,0.0005612186364288,0.3897142857142857,0.1651428571428571,0.40552,-4.109055942988598e-07,0.8438819772748377,-0.0038772702350057,5.7839300414253e-05,0.2154285714285714,0.2285714285714285,0.3911771428571429,0.7932069017997818,0.8438819772748377,-0.0545523457100616,-0.0038772702350057,5.7839300414253e-05,1.0,0.3471209197484222,0.239027455884968,0.7932069017997821,0.8709674773573103,0.0232082298474668,0.0,0.0021812350074131,0.7017142857142857,0.7537142857142857,0.5220685714285714,0.6362508050635006,-0.964728696920912,-0.1864594811317613,0.0,1.0,0.4618473895582329,0.2143452877397831,0.5954119213410838,0.0045275226265522,0.8581448390355743,0.0370391086446104,0.2761094265996793,1.0,0.2761094265996793,id01,3.0,2.0,1.0,0.004016064257028112,0.02523099814262444,0.9996816476922675,0.12583391159936969,0.9920513226096732,0.0,0.038461538461538464,27.0,0.0,0.0,0.0,0.0,0.0,1.0,0.0,1.0,0.0,0.0,0.0,0.0,0.0,0.0,0.0,0.0,0.0,0.0,0.0,0.0,0.0,0.0,1.0,1.0,0.0,0.0,0.0,0.0,0.0,0.0,0.0
1,S4,6,0.3729978985430439,0.3510717331241581,-0.0219261654188857,0.0949545197590819,1.0,0.0005863821362318,0.0005869516712231,0.8845714285714286,0.9148571428571428,0.83288,4.913813746412726e-07,0.3686329740127958,-0.004364924530248,4.079823693547979e-05,0.1925714285714285,0.1525714285714285,0.3453028571428571,0.5033348906590132,0.3686329740127959,0.1303369921159692,-0.004364924530248,4.079823693547979e-05,0.0,0.3545917768912793,0.239027455884968,0.503334890659013,0.3426005925774791,-0.0303973059655647,0.0,0.0019989060572798,0.6845714285714286,0.6188571428571429,0.4945257142857144,0.5928068220935102,0.6896777332157888,-0.1415772134005767,0.0,1.0,0.4618473895582329,0.2527105921601334,0.6388086723023145,0.0091803700870478,0.3526629414923649,-0.0694521160043094,-0.2932574915211047,1.0,0.2932574915211047,id01,3.0,2.0,1.0,0.004016064257028112,0.02523099814262444,0.9996816476922675,0.12583391159936969,0.9920513226096732,0.0,0.038461538461538464,27.0,0.0,0.0,0.0,0.0,0.0,0.0,1.0,1.0,0.0,0.0,0.0,0.0,0.0,0.0,0.0,0.0,0.0,0.0,0.0,0.0,0.0,0.0,1.0,1.0,0.0,0.0,0.0,0.0,0.0,0.0,0.0
2,Q1,0,0.1032837510399468,0.077998961821201,-0.0252847892187457,0.3085914733792281,1.0,0.0005603055790975,0.0005603773134428,0.312,0.3291428571428571,0.4339428571428572,-1.4647574353987777e-07,0.098336410723645,-0.0049473403163017,0.0001340511717936,0.3051428571428571,0.388,0.3618971428571428,0.441106990068633,0.0983364107236449,0.3378232390286862,-0.0049473403163019,0.0001340511717936,0.0,0.4807640009527362,0.2148371476208242,0.4411069900686332,0.077090657854941,-0.0261930931850057,0.0,0.0040231119452067,0.8291428571428572,0.8851428571428571,0.6785142857142857,0.4199643025825801,1.6230265480782142,-0.3494586022555574,0.0,1.0,0.6586345381526104,0.1392827356130108,0.6260614112073264,0.004046663275402,0.0950448599074043,-0.0299511661016469,-0.3075899006346607,1.0,0.3075899006346607,id01,4.0,3.0,1.0,0.008032128514056224,0.050445931592278684,0.9987267934654538,0.2496673968626068,0.968331653383204,0.0,0.07692307692307693,27.0,1.0,0.0,0.0,0.0,0.0,0.0,0.0,1.0,0.0,0.0,0.0,0.0,0.0,0.0,0.0,0.0,0.0,0.0,0.0,0.0,0.0,0.0,0.0,0.0,1.0,1.0,0.0,0.0,0.0,0.0,0.0
2,Q2,1,0.536621580933206,0.538644048265523,0.002022467332317,0.0081359704901944,1.0,0.0005611516203472,0.0005611370791783,0.3805714285714285,0.498,0.3619942857142856,0.0,0.5560632633840944,0.0194416824508883,0.0007616842641078,0.6005714285714285,0.5217142857142857,0.6739885714285715,0.5736150666855888,0.5560632633840944,0.0369934857523828,0.0194416824508883,0.0007616842641078,1.0,0.441862286667022,0.2148371476208242,0.5736150666855889,0.5409931301575935,0.0043715492243875,1.0,3.8444026540185305e-05,0.1297142857142857,0.1,0.29664,0.5633573072378911,0.1080497365852381,0.0,0.0,0.0,0.6586345381526104,0.0,0.3340056624439438,-0.0,0.5377758312344867,0.0011542503012806,0.0046427005439917,0.925925925925926,0.0042987967999923,id01,4.0,3.0,1.0,0.008032128514056224,0.050445931592278684,0.9987267934654538,0.2496673968626068,0.968331653383204,0.0,0.07692307692307693,27.0,0.0,1.0,0.0,0.0,0.0,0.0,0.0,1.0,0.0,0.0,0.0,0.0,0.0,0.0,0.0,0.0,0.0,0.0,0.0,0.0,0.0,0.0,0.0,0.0,1.0,1.0,0.0,0.0,0.0,0.0,0.0
2,Q3,2,0.5682112561937659,0.5815456929633855,0.0133344367696196,0.0545650158403303,1.0,0.0005404045656975,0.00054044338059,0.008,0.636,0.3187542857142857,5.4974655711382375e-08,0.5623075434361192,-0.0059037127576466,7.095366733667063e-05,0.2394285714285714,0.188,0.4226057142857143,0.504538229632149,0.5623075434361192,-0.0636730265616168,-0.0059037127576466,7.095366733667063e-05,1.0,0.3249400009527363,0.2148371476208242,0.5045382296321487,0.5493519623669602,-0.0188592938268057,1.0,0.0007224885090586,0.4525714285714285,0.3954285714285714,0.5745371428571429,0.5628537116928587,0.0481540310851837,0.0033688077930735,1.0,0.0,0.6586345381526104,0.6055045871559633,1.011437064922949,0.0011157273682508,0.5755517993613313,0.0245800253229295,0.0999414265655189,0.9629629629629628,0.0962398922482774,id01,4.0,3.0,1.0,0.008032128514056224,0.050445931592278684,0.9987267934654538,0.2496673968626068,0.968331653383204,0.0,0.07692307692307693,27.0,0.0,0.0,1.0,0.0,0.0,0.0,0.0,1.0,0.0,0.0,0.0,0.0,0.0,0.0,0.0,0.0,0.0,0.0,0.0,0.0,0.0,0.0,0.0,0.0,1.0,1.0,0.0,0.0,0.0,0.0,0.0
2,S1,3,0.2518576456277656,0.2140462529097879,-0.0378113927179776,0.2119766008442198,1.0,0.0005855501774715,0.000585831390254,0.8811428571428571,0.8874285714285715,0.8703885714285714,3.686715776386386e-07,0.2457392252553653,-0.0061184203724002,9.987788942744658e-05,0.2708571428571428,0.2514285714285714,0.40384,0.6723588243341558,0.2457392252553653,0.4205011787063902,-0.0061184203724002,9.987788942744658e-05,0.0,0.483838286667022,0.2148371476208242,0.6723588243341563,0.232745151208388,-0.0191124944193775,0.0,0.0009863364883202,0.5177142857142857,0.508,0.4236457142857143,0.5640506228887563,1.119457599349349,-0.2539931968797506,0.0,1.0,0.6586345381526104,0.1759799833194328,0.6663035417039143,0.0090847255451955,0.233980901242373,-0.0629742166977317,-0.3241278850800814,1.0,0.3241278850800814,id01,4.0,3.0,1.0,0.008032128514056224,0.050445931592278684,0.9987267934654538,0.2496673968626068,0.968331653383204,0.0,0.07692307692307693,27.0,0.0,0.0,0.0,1.0,0.0,0.0,0.0,1.0,0.0,0.0,0.0,0.0,0.0,0.0,0.0,0.0,0.0,0.0,0.0,0.0,0.0,0.0,0.0,0.0,1.0,1.0,0.0,0.0,0.0,0.0,0.0
2,S2,4,0.4522512987540221,0.4407842557903129,-0.0114670429637092,0.0464011957855328,1.0,0.0005902919579865,0.0005914429359463,0.8971428571428571,0.8165714285714286,0.75144,2.2390390985782825e-07,0.4491114281651112,-0.0031398705889109,1.9907214955150465e-05,0.1182857142857142,0.0954285714285714,0.2961142857142857,0.6693123819480876,0.4491114281651111,0.2170610831940655,-0.0031398705889109,1.9907214955150465e-05,0.0,0.3696188580955934,0.2148371476208242,0.669312381948088,0.4635372544116896,0.0112859556576675,1.0,0.0002567400712134,0.2862857142857143,0.2371428571428571,0.4717485714285714,0.5995864995269543,0.4469713374468333,-0.0663080905302216,0.0,1.0,0.6586345381526104,0.3894912427022519,0.8527136004006268,0.0050648902646841,0.4365545756901297,-0.0526398940767719,-0.2119282282297796,1.0,0.2119282282297796,id01,4.0,3.0,1.0,0.008032128514056224,0.050445931592278684,0.9987267934654538,0.2496673968626068,0.968331653383204,0.0,0.07692307692307693,27.0,0.0,0.0,0.0,0.0,1.0,0.0,0.0,1.0,0.0,0.0,0.0,0.0,0.0,0.0,0.0,0.0,0.0,0.0,0.0,0.0,0.0,0.0,0.0,0.0,1.0,1.0,0.0,0.0,0.0,0.0,0.0
2,S3,5,0.8949298069616637,0.9338138593932273,0.0388840524315634,0.5046894077711932,1.0,0.0006092596727377,0.0006078282329399,0.9331428571428572,0.9805714285714284,0.9529942857142856,1.3380197572124188e-06,0.9238302262292608,0.028900419267597,0.0048610556734146,0.9708571428571428,0.9525714285714286,0.8117257142857144,0.7920951095250216,0.9238302262292608,-0.102834697436642,0.0289004192675971,0.0048610556734146,0.0,0.6783582866670221,0.2148371476208242,0.7920951095250217,0.9226106343013528,0.027680827339689,0.0,0.0044405120518266,0.8582857142857143,0.8937142857142857,0.6198171428571428,0.6166021219529975,-1.0817244363691747,-0.6330700946035633,0.0,1.0,0.6586345381526104,0.097581317764804,0.6158065342396226,0.0312737807018934,0.9162869320069286,0.0903824396296849,0.8360593687512934,1.0,0.8360593687512934,id01,4.0,3.0,1.0,0.008032128514056224,0.050445931592278684,0.9987267934654538,0.2496673968626068,0.968331653383204,0.0,0.07692307692307693,27.0,0.0,0.0,0.0,0.0,0.0,1.0,0.0,1.0,0.0,0.0,0.0,0.0,0.0,0.0,0.0,0.0,0.0,0.0,0.0,0.0,0.0,0.0,0.0,0.0,1.0,1.0,0.0,0.0,0.0,0.0,0.0
2,S4,6,0.4013011799248306,0.3852697014489072,-0.0160314784759233,0.0671935720453779,1.0,0.0005546507961608,0.0005551031739997,0.1245714285714285,0.8451428571428572,0.4618171428571428,2.77181502493176e-07,0.3586667196346971,-0.0426344602901335,0.0038327463732997,0.9502857142857144,0.8685714285714285,0.9150628571428572,0.4927322549139198,0.358666719634697,0.0914310749890892,-0.0426344602901336,0.0038327463732997,0.0,0.6416028580955935,0.2148371476208242,0.4927322549139198,0.3576599290153595,-0.0436412509094711,0.0,0.0040172896376208,0.828,0.7342857142857143,0.6603885714285714,0.5856277799352759,0.586957626774597,-0.0933312932242366,0.0,1.0,0.6586345381526104,0.3244370308590492,0.7917760266363264,0.005651222681831,0.3850440301233684,-0.0549865675153266,-0.2271551008280334,1.0,0.2271551008280334,id01,4.0,3.0,1.0,0.008032128514056224,0.050445931592278684,0.9987267934654538,0.2496673968626068,0.968331653383204,0.0,0.07692307692307693,27.0,0.0,0.0,0.0,0.0,0.0,0.0,1.0,1.0,0.0,0.0,0.0,0.0,0.0,0.0,0.0,0.0,0.0,0.0,0.0,0.0,0.0,0.0,0.0,0.0,1.0,1.0,0.0,0.0,0.0,0.0,0.0
3,Q1,0,0.6577389160188123,0.6763885912669583,0.0186496752481459,0.0839900908662346,1.0,0.0005570237047537,0.0005570030128195,0.1742857142857143,0.6491428571428571,0.4241028571428571,6.128712784773467e-08,0.6609753555557109,0.0032364395368985,2.3299945100085928e-05,0.1337142857142857,0.112,0.2555428571428571,0.5239660278944073,0.6609753555557109,-0.133772888124405,0.0032364395368985,2.3299945100085928e-05,0.0,0.34491576810564,0.3900359833853433,0.5239660278944077,0.6861674736989277,0.0284285576801154,0.0,0.0018204702709865,0.6594285714285715,0.6114285714285714,0.46368,0.4415615573957847,-0.7999713050740065,-0.0704693676136632,0.0,1.0,0.7751004016064257,0.3794829024186822,0.8626305874986246,0.0016254704366526,0.6661864583357414,0.0285444523164528,0.125842670260608,1.0,0.125842670260608,id01,5.0,4.0,1.0,0.012048192771084338,0.0756287458844567,0.997136045279652,0.36953183094075687,0.9292180723175653,0.0,0.11538461538461539,27.0,1.0,0.0,0.0,0.0,0.0,0.0,0.0,1.0,0.0,0.0,0.0,0.0,0.0,0.0,0.0,0.0,0.0,0.0,0.0,0.0,0.0,0.0,0.0,0.0,0.0,0.0,1.0,1.0,0.0,0.0,0.0
3,Q2,1,0.6501384240276701,0.6637515664338725,0.0136131424062023,0.060409939126868,1.0,0.0005730554473165,0.0005725500293405,0.7765714285714286,0.8177142857142857,0.7175771428571429,2.2548218565301633e-07,0.6658137589259477,0.0156753348982776,0.0005439986487008,0.528,0.476,0.4264,0.552795134207606,0.6658137589259477,-0.0973432898200641,0.0156753348982776,0.0005439986487008,0.0,0.4270586252484972,0.3900359833853433,0.5527951342076056,0.6764436267398519,0.0263052027121818,0.0,0.0015398021157367,0.6194285714285714,0.564,0.4332457142857143,0.5202283579114012,-0.3927098771135185,-0.057327875889842,0.0,1.0,0.7751004016064257,0.4186822351959967,0.9383079076973226,0.0045147454771596,0.6642319183005386,0.0479804826865353,0.2085431773676623,1.0,0.2085431773676623,id01,5.0,4.0,1.0,0.012048192771084338,0.0756287458844567,0.997136045279652,0.36953183094075687,0.9292180723175653,0.0,0.11538461538461539,27.0,0.0,1.0,0.0,0.0,0.0,0.0,0.0,1.0,0.0,0.0,0.0,0.0,0.0,0.0,0.0,0.0,0.0,0.0,0.0,0.0,0.0,0.0,0.0,0.0,0.0,0.0,1.0,1.0,0.0,0.0,0.0
3,Q3,2,0.5574422325902662,0.5613297063015418,0.0038874737112756,0.0141952308281679,0.9,0.0005563259718119,0.0005564318398469,0.1537142857142857,0.556,0.29744,1.4198723172258493e-08,0.5786655131687602,0.021223280578494,0.0009162079882965,0.6485714285714286,0.5702857142857143,0.6387200000000001,0.6035246536085481,0.5786655131687602,0.0460824210182819,0.021223280578494,0.0009162079882965,1.0,0.4770311966770686,0.3900359833853433,0.603524653608548,0.5603527012789213,0.0029104686886551,1.0,1.7176110153394042e-05,0.0748571428571428,0.0691428571428571,0.1973257142857142,0.5565212443183105,-0.0037324297801448,-0.0,0.0,0.0,0.7751004016064257,0.0,0.3997857639821722,-0.0,0.5611151764415474,0.0036729438512812,0.0149012967650997,0.8148148148148148,0.0121417973641553,id01,5.0,4.0,1.0,0.012048192771084338,0.0756287458844567,0.997136045279652,0.36953183094075687,0.9292180723175653,0.0,0.11538461538461539,27.0,0.0,0.0,1.0,0.0,0.0,0.0,0.0,1.0,0.0,0.0,0.0,0.0,0.0,0.0,0.0,0.0,0.0,0.0,0.0,0.0,0.0,0.0,0.0,0.0,0.0,0.0,1.0,1.0,0.0,0.0,0.0
3,S1,3,0.876117151296551,0.8974284173886855,0.0213112660921345,0.2128090181828226,1.0,0.0005617800851914,0.0005614549467288,0.4217142857142857,0.3091428571428571,0.4579085714285714,-1.6446093217266398e-07,0.8847839126573273,0.0086667613607762,0.0003532144233739,0.4405714285714285,0.544,0.3869257142857143,0.7481117979448009,0.8847839126573271,-0.1280053533517501,0.0086667613607761,0.0003532144233739,0.0,0.4865237681056401,0.3900359833853433,0.7481117979448014,0.8968685456482158,0.0207513943516648,0.0,0.0020879441804733,0.6937142857142857,0.7765714285714286,0.5059085714285714,0.5604010440950405,-1.5855964252016588,-0.2026030881576459,0.0,1.0,0.7751004016064257,0.2051709758131776,0.7133615425397752,0.0016587829863503,0.8819393826400942,0.0203700109681839,0.1825388721127698,1.0,0.1825388721127698,id01,5.0,4.0,1.0,0.012048192771084338,0.0756287458844567,0.997136045279652,0.36953183094075687,0.9292180723175653,0.0,0.11538461538461539,27.0,0.0,0.0,0.0,1.0,0.0,0.0,0.0,1.0,0.0,0.0,0.0,0.0,0.0,0.0,0.0,0.0,0.0,0.0,0.0,0.0,0.0,0.0,0.0,0.0,0.0,0.0,1.0,1.0,0.0,0.0,0.0
3,S2,4,0.5522444759551001,0.545028636562514,-0.007215839392586,0.025254322799129,0.8666666666666667,0.0005689556905932,0.0005699872902927,0.7268571428571429,0.7954285714285714,0.6444571428571428,1.926462819680293e-07,0.5728009808295799,0.0205565048744797,0.0008571998575084,0.6365714285714286,0.5554285714285714,0.6616685714285714,0.6643354649265015,0.5728009808295799,0.1120909889714014,0.0205565048744797,0.0008571998575084,1.0,0.5558723395342114,0.3900359833853433,0.6643354649265018,0.5574018448680188,0.0051573689129187,1.0,5.382420091182283e-05,0.1428571428571428,0.112,0.3181942857142857,0.5794521103341972,-0.0690362310603021,0.0124139175900272,1.0,0.0,0.7751004016064257,0.6438698915763136,1.177332042065061,0.0074062131001764,0.5331211386151726,-0.0630558495252138,-0.2568820416957963,1.0,0.2568820416957963,id01,5.0,4.0,1.0,0.012048192771084338,0.0756287458844567,0.997136045279652,0.36953183094075687,0.9292180723175653,0.0,0.11538461538461539,27.0,0.0,0.0,0.0,0.0,1.0,0.0,0.0,1.0,0.0,0.0,0.0,0.0,0.0,0.0,0.0,0.0,0.0,0.0,0.0,0.0,0.0,0.0,0.0,0.0,0.0,0.0,1.0,1.0,0.0,0.0,0.0
3,S3,5,0.8345777914923951,0.8599720626626979,0.0253942711703027,0.1835241846750095,0.9333333333333332,0.0005593743678418,0.0005595616389905,0.2702857142857143,0.0337142857142857,0.2823314285714285,-1.453605128197087e-06,0.845272407378059,0.0106946158856638,0.0004216380450813,0.4731428571428571,0.5274285714285715,0.5629942857142858,0.7895176716395795,0.845272407378059,-0.0450601198528155,0.0106946158856638,0.0004216380450813,0.0,0.4662403395342115,0.3900359833853433,0.7895176716395796,0.8432297305871965,0.0086519390948014,0.0,0.0002750011386137,0.2971428571428571,0.3291428571428571,0.2927542857142857,0.5979041589897102,-1.2216849117749928,-0.0,0.0,0.0,0.7751004016064257,0.0,0.4442683254458658,-0.0,0.8249107294459367,-0.0096670620464583,-0.0684457005179572,1.0,0.0684457005179572,id01,5.0,4.0,1.0,0.012048192771084338,0.0756287458844567,0.997136045279652,0.36953183094075687,0.9292180723175653,0.0,0.11538461538461539,27.0,0.0,0.0,0.0,0.0,0.0,1.0,0.0,1.0,0.0,0.0,0.0,0.0,0.0,0.0,0.0,0.0,0.0,0.0,0.0,0.0,0.0,0.0,0.0,0.0,0.0,0.0,1.0,1.0,0.0,0.0,0.0
3,S4,6,0.5920179317962512,0.6030202320848141,0.0110023002885629,0.0457517396074629,1.0,0.0005655445137441,0.000565546144693,0.6285714285714286,0.6411428571428571,0.5714057142857143,5.756281175622973e-08,0.6176238793759022,0.025605947579651,0.0013668435166215,0.7525714285714286,0.6725714285714286,0.6699200000000001,0.5521483147319487,0.6176238793759022,-0.0398696170643024,0.025605947579651,0.0013668435166215,0.0,0.4932997681056402,0.3900359833853433,0.5521483147319491,0.5927259370502644,0.0007080052540132,0.0,1.0378755681550444e-06,0.0137142857142857,0.0131428571428571,0.0833485714285714,0.5687075838606416,-0.0275546356272828,-0.0018786473964708,0.0,1.0,0.7751004016064257,0.5871559633027523,1.0522361812586238,0.0010434642440266,0.5990559892473388,0.0236030217615212,0.0973985659349813,1.0,0.0973985659349813,id01,5.0,4.0,1.0,0.012048192771084338,0.0756287458844567,0.997136045279652,0.36953183094075687,0.9292180723175653,0.0,0.11538461538461539,27.0,0.0,0.0,0.0,0.0,0.0,0.0,1.0,1.0,0.0,0.0,0.0,0.0,0.0,0.0,0.0,0.0,0.0,0.0,0.0,0.0,0.0,0.0,0.0,0.0,0.0,0.0,1.0,1.0,0.0,0.0,0.0
4,Q1,0,0.5445439902464404,0.5391806192822834,-0.0053633709641569,0.0208849700381882,0.9666666666666668,0.000561336432724,0.0005611237998192,0.3771428571428571,0.6222857142857143,0.42584,4.866726012695696e-08,0.5329886165540589,-0.0115553736923814,0.0002688421591418,0.3965714285714286,0.3354285714285714,0.3885028571428572,0.4170951077277849,0.5329886165540589,-0.1274488825186555,-0.0115553736923814,0.0002688421591418,1.0,0.4057122129329431,0.3231439218075724,0.4170951077277849,0.5615874027870215,0.017043412540581,0.0,0.0005869174742908,0.412,0.3565714285714286,0.43448,0.4399124056687542,-0.4201671538521229,-0.0,0.0,0.0,0.6144578313253012,0.0,0.3360453822149662,-0.0,0.5369350293056544,-0.007608960940786,-0.0306398637581686,1.0,0.0306398637581686,id01,6.0,5.0,1.0,0.01606425702811245,0.10076340700506825,0.9949104159715743,0.4835216863996972,0.8753323818876991,0.0,0.15384615384615385,27.0,1.0,0.0,0.0,0.0,0.0,0.0,0.0,1.0,0.0,0.0,0.0,0.0,0.0,0.0,0.0,0.0,0.0,0.0,0.0,0.0,0.0,0.0,0.0,0.0,0.0,0.0,0.0,0.0,1.0,1.0,0.0
4,Q2,1,0.5395147550620563,0.5348651575483347,-0.0046495975137215,0.0174551945880424,0.9333333333333332,0.0005538163438492,0.000554077089239,0.104,0.6245714285714286,0.3067314285714285,4.9184329163747524e-08,0.5517921058326669,0.0122773507706106,0.0003037879022139,0.416,0.3554285714285714,0.4570514285714286,0.7213659764012654,0.5517921058326669,0.1818512213392091,0.0122773507706106,0.0003037879022139,1.0,0.4782733557900859,0.3231439218075724,0.7213659764012658,0.5691520869534487,0.0296373318913923,1.0,0.0017744207176573,0.6531428571428571,0.5731428571428572,0.7226057142857143,0.5464177575351747,-0.0510762502415221,0.0040296165015698,1.0,0.0,0.6144578313253012,0.609674728940784,1.0048396080110962,0.0014349193582632,0.5311041706114682,-0.0279399202684772,-0.1127059048975138,1.0,0.1127059048975138,id01,6.0,5.0,1.0,0.01606425702811245,0.10076340700506825,0.9949104159715743,0.4835216863996972,0.8753323818876991,0.0,0.15384615384615385,27.0,0.0,1.0,0.0,0.0,0.0,0.0,0.0,1.0,0.0,0.0,0.0,0.0,0.0,0.0,0.0,0.0,0.0,0.0,0.0,0.0,0.0,0.0,0.0,0.0,0.0,0.0,0.0,0.0,1.0,1.0,0.0
4,Q3,2,0.5388232923930961,0.5436070193820521,0.004783726988956,0.0179815690094461,0.9333333333333332,0.0005574853441271,0.0005572197079428,0.1805714285714285,0.4342857142857143,0.2673828571428571,-2.5455206975404673e-08,0.5559713990493333,0.0171481066562372,0.0005928595173962,0.5457142857142857,0.4725714285714286,0.5533485714285714,0.6844292235745917,0.5559713990493333,0.1456059311814955,0.0171481066562372,0.0005928595173962,1.0,0.5096070700758002,0.3231439218075724,0.6844292235745918,0.563379797363051,0.0245565049699548,1.0,0.0012169703926889,0.568,0.4914285714285714,0.6617828571428571,0.5332424392038958,-0.0224401930595099,-0.0,0.0,0.0,0.6144578313253012,0.0,0.3128321174922675,-0.0,0.5371125579069205,-0.0017107344861756,-0.0068826318135625,0.7037037037037037,0.0048433334984329,id01,6.0,5.0,1.0,0.01606425702811245,0.10076340700506825,0.9949104159715743,0.4835216863996972,0.8753323818876991,0.0,0.15384615384615385,27.0,0.0,0.0,1.0,0.0,0.0,0.0,0.0,1.0,0.0,0.0,0.0,0.0,0.0,0.0,0.0,0.0,0.0,0.0,0.0,0.0,0.0,0.0,0.0,0.0,0.0,0.0,0.0,0.0,1.0,1.0,0.0
4,S1,3,0.7815781459655472,0.7972502015353934,0.0156720555698461,0.0880218428148989,0.9333333333333332,0.0005623405839024,0.0005625968568864,0.4971428571428571,0.1125714285714285,0.3596914285714286,-6.16189169386387e-07,0.756759531461629,-0.0248186145039182,0.0017577576505879,0.8097142857142857,0.7782857142857142,0.68224,0.6805735126560843,0.756759531461629,-0.1010046333094628,-0.0248186145039182,0.0017577576505879,1.0,0.5833224986472288,0.3231439218075724,0.6805735126560842,0.7859240406010606,0.0043458946355133,0.0,5.558446089060087e-05,0.1474285714285714,0.1337142857142857,0.2797714285714285,0.5474298303676081,-1.0845953689386336,-0.0,0.0,0.0,0.6144578313253012,0.0,0.3577720831869502,-0.0,0.7705449373881617,-0.0110332085773855,-0.0634960658580534,0.9629629629629628,0.0611443597151625,id01,6.0,5.0,1.0,0.01606425702811245,0.10076340700506825,0.9949104159715743,0.4835216863996972,0.8753323818876991,0.0,0.15384615384615385,27.0,0.0,0.0,0.0,1.0,0.0,0.0,0.0,1.0,0.0,0.0,0.0,0.0,0.0,0.0,0.0,0.0,0.0,0.0,0.0,0.0,0.0,0.0,0.0,0.0,0.0,0.0,0.0,0.0,1.0,1.0,0.0
4,S2,4,0.6868186532777408,0.7230167282780514,0.0361980750003105,0.1741873642293343,1.0,0.0005832025055316,0.0005847025646024,0.876,0.9548571428571428,0.8840228571428571,8.200566217068214e-07,0.7114328204547915,0.0246141671770506,0.0014295324119582,0.7645714285714286,0.7051428571428572,0.4937600000000001,0.5902906957794559,0.7114328204547915,-0.0965279574982849,0.0246141671770506,0.0014295324119582,0.0,0.4696207843615145,0.3231439218075724,0.5902906957794559,0.7557610476547327,0.0689423943769919,0.0,0.0115658588114488,0.9817142857142858,0.8971428571428571,0.7976685714285714,0.5589099918959963,-0.2773512716772492,-0.0752168666993423,0.0,1.0,0.6144578313253012,0.3669724770642202,0.8426405007886204,0.0147902160672266,0.711260781480581,0.0854958278422119,0.3874244601928051,1.0,0.3874244601928051,id01,6.0,5.0,1.0,0.01606425702811245,0.10076340700506825,0.9949104159715743,0.4835216863996972,0.8753323818876991,0.0,0.15384615384615385,27.0,0.0,0.0,0.0,0.0,1.0,0.0,0.0,1.0,0.0,0.0,0.0,0.0,0.0,0.0,0.0,0.0,0.0,0.0,0.0,0.0,0.0,0.0,0.0,0.0,0.0,0.0,0.0,0.0,1.0,1.0,0.0
4,S3,5,0.8598191584284451,0.8906568194542905,0.0308376610258453,0.2836790383996173,1.0,0.0005607680365475,0.0005602992733419,0.3051428571428571,0.6114285714285714,0.5353600000000001,4.3079452640857945e-08,0.8730326812106183,0.0132135227821731,0.0007443171509106,0.5948571428571429,0.6988571428571428,0.4428571428571429,0.7197680367870883,0.8730326812106183,-0.1400511216413568,0.0132135227821731,0.0007443171509106,0.0,0.5148002129329431,0.3231439218075724,0.7197680367870883,0.8983817535629032,0.038562595134458,0.0,0.0067230821565459,0.9291428571428572,0.9057142857142856,0.7542514285714286,0.5756767829732272,-1.2718558816445615,-0.3012797606834618,0.0,1.0,0.6144578313253012,0.1559633027522936,0.6270572841668024,0.0063720262449946,0.8716144826446961,0.0428484869504255,0.338402852344172,1.0,0.338402852344172,id01,6.0,5.0,1.0,0.01606425702811245,0.10076340700506825,0.9949104159715743,0.4835216863996972,0.8753323818876991,0.0,0.15384615384615385,27.0,0.0,0.0,0.0,0.0,0.0,1.0,0.0,1.0,0.0,0.0,0.0,0.0,0.0,0.0,0.0,0.0,0.0,0.0,0.0,0.0,0.0,0.0,0.0,0.0,0.0,0.0,0.0,0.0,1.0,1.0,0.0
4,S4,6,0.6844363334065584,0.7080519134382737,0.0236155800317152,0.1117062435818888,1.0,0.0005715261588388,0.0005724136472616,0.7725714285714286,0.7817142857142857,0.7447314285714286,1.774388055006734e-07,0.6899112793917581,0.0054749459851997,6.961096074453721e-05,0.236,0.2011428571428571,0.29824,0.413544901027969,0.6899112793917581,-0.2708914323785893,0.0054749459851997,6.961096074453721e-05,0.0,0.4219510700758002,0.3231439218075724,0.4135449010279687,0.6985732614298242,0.0141369280232658,0.0,0.0004665005700952,0.3737142857142857,0.3411428571428571,0.3268228571428571,0.5475666735007295,-0.4487059226855578,-0.0604341472606853,0.0,1.0,0.6144578313253012,0.4078398665554629,0.8405118925668842,0.0036514910976019,0.6967686727916064,0.0421169994654542,0.1924077479743781,1.0,0.1924077479743781,id01,6.0,5.0,1.0,0.01606425702811245,0.10076340700506825,0.9949104159715743,0.4835216863996972,0.8753323818876991,0.0,0.15384615384615385,27.0,0.0,0.0,0.0,0.0,0.0,0.0,1.0,1.0,0.0,0.0,0.0,0.0,0.0,0.0,0.0,0.0,0.0,0.0,0.0,0.0,0.0,0.0,0.0,0.0,0.0,0.0,0.0,0.0,1.0,1.0,0.0
5,Q1,0,0.1250884806363739,0.1073746840710066,-0.0177137965653672,0.1612250507388754,0.9333333333333332,0.0005827913456947,0.0005820656136978,0.8662857142857143,0.82,0.8248114285714286,2.274436078755415e-07,0.095680257257873,-0.0294082233785008,0.0042538194182842,0.9622857142857144,0.9422857142857144,0.8321142857142858,0.4707101350971538,0.0956802572578729,0.3456216544607799,-0.029408223378501,0.0042538194182842,0.0,0.7795937552285979,0.3831402047144179,0.470710135097154,0.1054063642377329,-0.0196821163986409,0.0,0.0018564683171871,0.6622857142857143,0.7548571428571429,0.4749942857142857,0.4524595716140883,1.5415065004025434,-0.3281205139143513,0.0,1.0,0.108433734939759,0.146788990825688,0.3560658926008849,0.0046677540250871,0.1154413843271495,-0.0348593388612841,-0.3040814885852316,0.9629629629629628,0.292819211230223,id01,1.0,0.0,1.0,0.020080321285140562,0.12583391159936969,0.9920513226096732,0.5898248260658018,0.8075312220319699,0.0,0.19230769230769232,27.0,1.0,0.0,0.0,0.0,0.0,0.0,0.0,1.0,0.0,0.0,0.0,0.0,0.0,0.0,0.0,0.0,0.0,0.0,1.0,1.0,0.0,0.0,0.0,0.0,0.0,0.0,0.0,0.0,0.0,0.0,0.0
5,Q2,1,0.5429948329009698,0.5452304359528753,0.0022356030519055,0.0081113210665791,0.9,0.000560655980669,0.0005606596485916,0.3365714285714286,0.498,0.3434,0.0,0.5372878438689619,-0.0057069890320079,6.558290653091436e-05,0.2302857142857143,0.1794285714285714,0.20736,0.6157669259837345,0.5372878438689619,0.0727720930827646,-0.0057069890320079,6.558290653091436e-05,0.0,0.2704543266571693,0.3831402047144179,0.6157669259837345,0.5074455310074164,-0.0355493018935534,0.0,0.0025380760939592,0.7291428571428571,0.6445714285714286,0.5476114285714285,0.5468911432186617,0.0157122704841127,0.0,0.0,0.0,0.108433734939759,0.0,0.0675959412263117,-0.0,0.5397788409957452,-0.0032159919052245,-0.0129527590923688,1.0,0.0129527590923688,id01,1.0,0.0,1.0,0.020080321285140562,0.12583391159936969,0.9920513226096732,0.5898248260658018,0.8075312220319699,0.0,0.19230769230769232,27.0,0.0,1.0,0.0,0.0,0.0,0.0,0.0,1.0,0.0,0.0,0.0,0.0,0.0,0.0,0.0,0.0,0.0,0.0,1.0,1.0,0.0,0.0,0.0,0.0,0.0,0.0,0.0,0.0,0.0,0.0,0.0
5,Q3,2,0.5251374051887717,0.5295314539312763,0.0043940487425045,0.0176289972942788,1.0,0.000563284433558,0.0005630383270136,0.5234285714285715,0.4091428571428571,0.4012571428571428,-5.158784225681753e-08,0.5385285386764473,0.0133911334876756,0.0003599209582419,0.4451428571428571,0.3828571428571428,0.5244800000000001,0.5901322742784681,0.5385285386764473,0.0649948690896964,0.0133911334876756,0.0003599209582419,1.0,0.426072612371455,0.3831402047144179,0.590132274278468,0.5051372503743161,-0.0200001548144556,0.0,0.0008011772826921,0.4731428571428571,0.4114285714285714,0.3355885714285714,0.5246242392917206,-0.0020577592378029,-0.0,0.0,0.0,0.108433734939759,0.0,0.0749144089221379,-0.0,0.5192541769215546,-0.0058832282672171,-0.023579653631047,0.8888888888888888,0.0209596921164862,id01,1.0,0.0,1.0,0.020080321285140562,0.12583391159936969,0.9920513226096732,0.5898248260658018,0.8075312220319699,0.0,0.19230769230769232,27.0,0.0,0.0,1.0,0.0,0.0,0.0,0.0,1.0,0.0,0.0,0.0,0.0,0.0,0.0,0.0,0.0,0.0,0.0,1.0,1.0,0.0,0.0,0.0,0.0,0.0,0.0,0.0,0.0,0.0,0.0,0.0
5,S1,3,0.452157785185675,0.445950486790802,-0.0062072983948729,0.0250900180127696,1.0,0.0005600406459501,0.0005600222750228,0.2908571428571428,0.6045714285714285,0.38824,3.9711094652174666e-08,0.4503968244545821,-0.0017609607310928,6.260704990324051e-06,0.0628571428571428,0.052,0.1581028571428571,0.6612640467636158,0.4503968244545822,0.2091062615779408,-0.0017609607310928,6.260704990324051e-06,0.0,0.3319743266571693,0.3831402047144179,0.661264046763616,0.4545443183764108,0.0023865331907358,1.0,1.149284914014892e-05,0.0628571428571428,0.0571428571428571,0.2301942857142857,0.5233082668647947,0.2266751567363304,-0.0132790044714859,0.0,1.0,0.108433734939759,0.5479566305254379,0.6700980262972042,0.0007896548064899,0.4459464324680705,-0.020759291666186,-0.0836880700159965,1.0,0.0836880700159965,id01,1.0,0.0,1.0,0.020080321285140562,0.12583391159936969,0.9920513226096732,0.5898248260658018,0.8075312220319699,0.0,0.19230769230769232,27.0,0.0,0.0,0.0,1.0,0.0,0.0,0.0,1.0,0.0,0.0,0.0,0.0,0.0,0.0,0.0,0.0,0.0,0.0,1.0,1.0,0.0,0.0,0.0,0.0,0.0,0.0,0.0,0.0,0.0,0.0,0.0
5,S2,4,0.5497473648760006,0.5654788515314435,0.0157314866554428,0.0637782820336168,1.0,0.0005631720451077,0.0005632256608045,0.5337142857142857,0.264,0.4091657142857143,-2.1783663883973386e-07,0.5490457254508635,-0.0007016394251371,9.943467822459695e-07,0.0222857142857142,0.0194285714285714,0.1675885714285714,0.6921035289034481,0.5490457254508635,0.1423561640274474,-0.0007016394251371,9.943467822459695e-07,0.0,0.3017000409428836,0.3831402047144179,0.6921035289034483,0.5732728132436292,0.0235254483676286,1.0,0.001121922779165,0.5457142857142857,0.476,0.5679771428571428,0.544365623144338,-0.0217195597818316,-0.0,0.0,0.0,0.108433734939759,0.0,0.0659950264178498,-0.0,0.5466000854430871,-0.0031472794329134,-0.012707119303821,0.925925925925926,0.0117658512072417,id01,1.0,0.0,1.0,0.020080321285140562,0.12583391159936969,0.9920513226096732,0.5898248260658018,0.8075312220319699,0.0,0.19230769230769232,27.0,0.0,0.0,0.0,0.0,1.0,0.0,0.0,1.0,0.0,0.0,0.0,0.0,0.0,0.0,0.0,0.0,0.0,0.0,1.0,1.0,0.0,0.0,0.0,0.0,0.0,0.0,0.0,0.0,0.0,0.0,0.0
5,S3,5,0.789998902831536,0.8258163865055939,0.0358174836740579,0.2159207515539691,0.9333333333333332,0.0005658376416577,0.000565998088297,0.648,0.0291428571428571,0.4468914285714286,-1.565894294070034e-06,0.7675978327980649,-0.022401070033471,0.0014750679300499,0.7685714285714286,0.7525714285714286,0.6836342857142857,0.7814120314288399,0.7675978327980649,-0.008586871402696,-0.022401070033471,0.0014750679300499,1.0,0.4725206123714551,0.3831402047144179,0.7814120314288401,0.8145368776474403,0.0245379748159043,0.0,0.0018701390788784,0.668,0.6708571428571428,0.5361714285714286,0.5820786465245572,-0.9936064964783368,-0.0,0.0,0.0,0.108433734939759,0.0,0.0766296747883472,-0.0,0.7859230880484744,-0.0040758147830615,-0.0243952181331805,0.925925925925926,0.0225881649381301,id01,1.0,0.0,1.0,0.020080321285140562,0.12583391159936969,0.9920513226096732,0.5898248260658018,0.8075312220319699,0.0,0.19230769230769232,27.0,0.0,0.0,0.0,0.0,0.0,1.0,0.0,1.0,0.0,0.0,0.0,0.0,0.0,0.0,0.0,0.0,0.0,0.0,1.0,1.0,0.0,0.0,0.0,0.0,0.0,0.0,0.0,0.0,0.0,0.0,0.0
5,S4,6,0.539318589457077,0.5599854397659967,0.0206668503089196,0.0835032167752901,1.0,0.000559918617872,0.0005602442461665,0.304,0.724,0.5069142857142857,1.14073286762004e-07,0.5236374407238362,-0.0156811487332407,0.0004941214647056,0.5114285714285715,0.4382857142857143,0.5624914285714286,0.5488054805541366,0.5236374407238362,0.0094868910970595,-0.0156811487332407,0.0004941214647056,0.0,0.3841491838000265,0.3831402047144179,0.5488054805541368,0.5449973034877562,0.0056787140306792,1.0,6.493721858646939e-05,0.16,0.1228571428571428,0.2417485714285714,0.5308156669247994,0.0668201812915487,0.0067488944243386,1.0,0.0,0.108433734939759,0.6205170975813178,0.7751341937533128,0.0023542934137948,0.5500532439565448,0.0359072923324095,0.1442869139637413,0.9629629629629628,0.1389429541873064,id01,1.0,0.0,1.0,0.020080321285140562,0.12583391159936969,0.9920513226096732,0.5898248260658018,0.8075312220319699,0.0,0.19230769230769232,27.0,0.0,0.0,0.0,0.0,0.0,0.0,1.0,1.0,0.0,0.0,0.0,0.0,0.0,0.0,0.0,0.0,0.0,0.0,1.0,1.0,0.0,0.0,0.0,0.0,0.0,0.0,0.0,0.0,0.0,0.0,0.0
6,Q1,0,0.5712427809308589,0.5571331950211253,-0.0141095859097335,0.0535620370120574,0.9333333333333332,0.0005593818259994,0.0005590818224638,0.2457142857142857,0.5942857142857143,0.4018285714285714,3.1099017064876485e-08,0.5823357649098182,0.0110929839789593,0.000251771994687,0.3817142857142857,0.3251428571428571,0.4802057142857143,0.4755897088226232,0.5823357649098182,-0.0956530721082357,0.0110929839789593,0.000251771994687,0.0,0.3902707541266831,0.1911766277762726,0.4755897088226233,0.5413364427018038,-0.029906338229055,1.0,0.0018164391270345,0.6577142857142857,0.5754285714285714,0.6647771428571428,0.4539995135369858,-0.471447209157028,-0.0,0.0,0.0,0.5823293172690763,0.0,0.314034870183995,-0.0,0.5649302452540452,-0.0063125356768136,-0.0257275791645523,0.8888888888888888,0.0228689592573798,id01,2.0,1.0,1.0,0.024096385542168676,0.15082429716137383,0.9885605855918885,0.6867513112135011,0.7268924518431438,0.0,0.23076923076923078,27.0,1.0,0.0,0.0,0.0,0.0,0.0,0.0,1.0,0.0,0.0,0.0,0.0,0.0,0.0,0.0,0.0,0.0,0.0,0.0,0.0,1.0,1.0,0.0,0.0,0.0,0.0,0.0,0.0,0.0,0.0,0.0
6,Q2,1,0.5953821937104642,0.6088121138745601,0.0134299201640959,0.0560611243607963,1.0,0.0005621408937291,0.0005620409140743,0.4611428571428571,0.8154285714285714,0.5788571428571427,2.208297404453348e-07,0.598761844419557,0.0033796507090928,2.372815775664172e-05,0.1354285714285714,0.1091428571428571,0.3218971428571428,0.4828428815000369,0.5987618444195572,-0.1125393122104272,0.0033796507090929,2.372815775664172e-05,0.0,0.3138604684123974,0.1911766277762726,0.4828428815000365,0.5945136026561828,-0.0008685910542813,1.0,1.5655269693937155e-06,0.0205714285714285,0.0171428571428571,0.3031085714285714,0.528243976494439,-0.2731643072427537,-0.0,0.0,0.0,0.5823293172690763,0.0,0.3404499645236176,-0.0,0.6101073931460865,0.0147251994356223,0.0615030535234162,0.9629629629629628,0.0592251626521786,id01,2.0,1.0,1.0,0.024096385542168676,0.15082429716137383,0.9885605855918885,0.6867513112135011,0.7268924518431438,0.0,0.23076923076923078,27.0,0.0,1.0,0.0,0.0,0.0,0.0,0.0,1.0,0.0,0.0,0.0,0.0,0.0,0.0,0.0,0.0,0.0,0.0,0.0,0.0,1.0,1.0,0.0,0.0,0.0,0.0,0.0,0.0,0.0,0.0,0.0
6,Q3,2,0.6207118969909945,0.6396500302234205,0.0189381332324259,0.0812745437784265,1.0,0.0005465892561508,0.0005460396623427,0.0262857142857142,0.6308571428571429,0.3527085714285715,5.2428638498569624e-08,0.6259416411474428,0.0052297441564482,5.8191265641438505e-05,0.2165714285714285,0.1748571428571428,0.3247085714285714,0.4930979516350509,0.6259416411474428,-0.1276139453559436,0.0052297441564482,5.8191265641438505e-05,0.0,0.3358398969838259,0.1911766277762726,0.4930979516350504,0.6020138534786591,-0.0186980435123353,1.0,0.000737990291989,0.4565714285714286,0.4068571428571428,0.5804228571428571,0.5410061194859331,-0.2450396075540988,-0.020372014121163,0.0,1.0,0.5823293172690763,0.5287739783152627,0.91176253632087,0.0015132061728484,0.6290635133784945,0.0281115215412024,0.1187680538931732,1.0,0.1187680538931732,id01,2.0,1.0,1.0,0.024096385542168676,0.15082429716137383,0.9885605855918885,0.6867513112135011,0.7268924518431438,0.0,0.23076923076923078,27.0,0.0,0.0,1.0,0.0,0.0,0.0,0.0,1.0,0.0,0.0,0.0,0.0,0.0,0.0,0.0,0.0,0.0,0.0,0.0,0.0,1.0,1.0,0.0,0.0,0.0,0.0,0.0,0.0,0.0,0.0,0.0
6,S1,3,0.7886821487526844,0.8087506914053438,0.0200685426526594,0.1165853465402271,0.9333333333333332,0.0005608092294282,0.0005608096239597,0.3514285714285714,0.2611428571428571,0.3736914285714285,-2.220656284334885e-07,0.7939676627884658,0.0052855140357813,8.433068694013723e-05,0.2554285714285714,0.2451428571428571,0.3636342857142857,0.6673147435933617,0.7939676627884658,-0.1213674051593226,0.0052855140357813,8.433068694013723e-05,0.0,0.3756707541266831,0.1911766277762726,0.6673147435933623,0.8046437940498157,0.0159616452971312,0.0,0.0007790406001109,0.4668571428571428,0.4885714285714285,0.4494399999999999,0.5379947242127094,-1.1647275390352672,-0.0,0.0,0.0,0.5823293172690763,0.0,0.3038576260444867,-0.0,0.7913174163371042,0.0026352675844197,0.015884830709808,0.7777777777777778,0.0123548683298507,id01,2.0,1.0,1.0,0.024096385542168676,0.15082429716137383,0.9885605855918885,0.6867513112135011,0.7268924518431438,0.0,0.23076923076923078,27.0,0.0,0.0,0.0,1.0,0.0,0.0,0.0,1.0,0.0,0.0,0.0,0.0,0.0,0.0,0.0,0.0,0.0,0.0,0.0,0.0,1.0,1.0,0.0,0.0,0.0,0.0,0.0,0.0,0.0,0.0,0.0
6,S2,4,0.5542707137333157,0.538689112053172,-0.0155816016801436,0.0565874796939935,0.9,0.00058255597276,0.000583852618845,0.8714285714285714,0.9211428571428572,0.7921485714285714,5.15155377410442e-07,0.5133517509878861,-0.0409189627454296,0.0033722762532066,0.9331428571428572,0.8354285714285714,0.7892571428571429,0.6125403726944998,0.5133517509878861,0.058269658961184,-0.0409189627454296,0.0033722762532066,0.0,0.5450867541266832,0.1911766277762726,0.6125403726944999,0.5821094970689047,0.0278387833355889,1.0,0.0015757414967068,0.6251428571428571,0.5445714285714286,0.6872342857142857,0.5584123145362412,-0.223273697638057,0.0535975789062128,1.0,0.0,0.5823293172690763,0.7714762301918265,1.227306411982454,0.0131706790267208,0.5287336726474708,-0.0838046814227732,-0.3429332280336064,1.0,0.3429332280336064,id01,2.0,1.0,1.0,0.024096385542168676,0.15082429716137383,0.9885605855918885,0.6867513112135011,0.7268924518431438,0.0,0.23076923076923078,27.0,0.0,0.0,0.0,0.0,1.0,0.0,0.0,1.0,0.0,0.0,0.0,0.0,0.0,0.0,0.0,0.0,0.0,0.0,0.0,0.0,1.0,1.0,0.0,0.0,0.0,0.0,0.0,0.0,0.0,0.0,0.0
6,S3,5,0.8503035903764421,0.8759116285608342,0.025608038184392,0.2028013151971504,0.9333333333333332,0.0005611104533925,0.0005611156890159,0.3765714285714285,0.1434285714285714,0.3735771428571429,-4.838299685276589e-07,0.8607547271299738,0.0104511367535317,0.0004375917490832,0.4811428571428571,0.5588571428571428,0.4958171428571428,0.7381525622561191,0.8607547271299738,-0.1121510281203229,0.0104511367535317,0.0004375917490832,0.0,0.4800958969838259,0.1911766277762726,0.7381525622561194,0.8733080623510618,0.0230044719746197,0.0,0.0021742311811673,0.7,0.7554285714285714,0.5870514285714286,0.5673811591977913,-1.465809892265753,-0.0,0.0,0.0,0.5823293172690763,0.0,0.3149496786459733,-0.0,0.853975533037808,0.0036719426613659,0.0291442104012173,0.8148148148148148,0.0237471344009919,id01,2.0,1.0,1.0,0.024096385542168676,0.15082429716137383,0.9885605855918885,0.6867513112135011,0.7268924518431438,0.0,0.23076923076923078,27.0,0.0,0.0,0.0,0.0,0.0,1.0,0.0,1.0,0.0,0.0,0.0,0.0,0.0,0.0,0.0,0.0,0.0,0.0,0.0,0.0,1.0,1.0,0.0,0.0,0.0,0.0,0.0,0.0,0.0,0.0,0.0
6,S4,6,0.6328214697458728,0.638155570682234,0.0053341009363612,0.0214924013012933,0.9333333333333332,0.0005706608911929,0.0005712066040438,0.7537142857142857,0.6485714285714286,0.5946742857142857,6.120844251612026e-08,0.6532292437930123,0.0204077740471394,0.0009035233805336,0.6457142857142857,0.5811428571428572,0.5894171428571429,0.5607205896928948,0.6532292437930123,-0.0721008800529779,0.0204077740471394,0.0009035233805336,0.0,0.4445873255552545,0.1911766277762726,0.5607205896928952,0.6418566668103812,0.0090351970645083,0.0,0.000176284025583,0.2428571428571428,0.2102857142857143,0.2172457142857143,0.5530542294802698,-0.2452938203609082,-0.0211020247005066,0.0,1.0,0.5823293172690763,0.5237698081734778,0.9084736320452944,0.0015994561248156,0.6413455734065711,0.0287317686858615,0.1228964901268118,1.0,0.1228964901268118,id01,2.0,1.0,1.0,0.024096385542168676,0.15082429716137383,0.9885605855918885,0.6867513112135011,0.7268924518431438,0.0,0.23076923076923078,27.0,0.0,0.0,0.0,0.0,0.0,0.0,1.0,1.0,0.0,0.0,0.0,0.0,0.0,0.0,0.0,0.0,0.0,0.0,0.0,0.0,1.0,1.0,0.0,0.0,0.0,0.0,0.0,0.0,0.0,0.0,0.0
7,Q1,0,0.1466324541766752,0.14470795639207,-0.0019244977846051,0.0134024968913818,0.8666666666666667,0.000581303220164,0.0005801969162215,0.852,0.2942857142857142,0.4892114285714286,-1.804844458137707e-07,0.1795660560011507,0.0329336018244755,0.0040928262806227,0.9571428571428572,0.9245714285714286,0.6902857142857143,0.4781775352587667,0.1795660560011507,0.3315450810820915,0.0329336018244754,0.0040928262806227,1.0,0.6993126492785853,0.3347061035357832,0.4781775352587669,0.1671989861792666,0.0205665320025914,1.0,0.0016290998768312,0.6337142857142857,0.6725714285714286,0.5972571428571428,0.4665438126013989,2.1129477221687396,1.0262830842588613,1.0,0.0,0.5983935742971888,0.9924937447873228,1.4777397028907484,0.026754895489015,0.1746391110604152,0.0790282002656745,0.6938736232875387,1.0,0.6938736232875387,id01,4.0,3.0,1.0,0.028112449799196786,0.17571865219725105,0.9844404274865908,0.7727602671207603,0.6346980144599881,0.0,0.2692307692307692,27.0,1.0,0.0,0.0,0.0,0.0,0.0,0.0,1.0,0.0,0.0,0.0,0.0,0.0,0.0,0.0,0.0,0.0,0.0,0.0,0.0,0.0,0.0,0.0,0.0,1.0,1.0,0.0,0.0,0.0,0.0,0.0
7,Q2,1,0.5470612653540049,0.5451045261795106,-0.0019567391744943,0.0068414865615907,0.8666666666666667,0.0005565330707773,0.0005567354955294,0.164,0.498,0.2680628571428571,0.0,0.5583267511240507,0.0112654857700458,0.0002564791176691,0.3862857142857143,0.3257142857142857,0.4954971428571428,0.5888580974644522,0.5583267511240507,0.0417968321104472,0.0112654857700458,0.0002564791176691,1.0,0.3714863635642995,0.3347061035357832,0.588858097464452,0.5158556584511786,-0.0312056069028262,0.0,0.0019585402956504,0.6794285714285714,0.5954285714285714,0.5185257142857143,0.5140193666187411,-0.1327117570005928,-0.0,0.0,0.0,0.5983935742971888,0.0,0.3572871244842147,-0.0,0.5296319648312692,-0.0174293005227357,-0.0701370083679761,1.0,0.0701370083679761,id01,4.0,3.0,1.0,0.028112449799196786,0.17571865219725105,0.9844404274865908,0.7727602671207603,0.6346980144599881,0.0,0.2692307692307692,27.0,0.0,1.0,0.0,0.0,0.0,0.0,0.0,1.0,0.0,0.0,0.0,0.0,0.0,0.0,0.0,0.0,0.0,0.0,0.0,0.0,0.0,0.0,0.0,0.0,1.0,1.0,0.0,0.0,0.0,0.0,0.0
7,Q3,2,0.4917108437508116,0.4467430597304579,-0.0449677840203536,0.1806803914260357,1.0,0.0005452489705083,0.0005423546661378,0.012,0.9828571428571428,0.5337257142857144,1.4733869977295542e-06,0.4697341744771669,-0.0219766692736446,0.0009669953556796,0.6645714285714286,0.5765714285714286,0.5978742857142857,0.6305361382199584,0.4697341744771669,0.1388252944691467,-0.0219766692736446,0.0009669953556796,0.0,0.5354989349928709,0.3347061035357832,0.6305361382199586,0.4750603571149304,-0.0166504866358812,0.0,0.0005549368649792,0.404,0.3422857142857143,0.3764114285714286,0.5300228671546112,-0.1944960452725996,0.0676635830860102,1.0,0.0,0.5983935742971888,0.8023352793994996,1.2800340676916044,0.0280014556838232,0.4545616693723967,-0.123478235221373,-0.4969883136490736,1.0,0.4969883136490736,id01,4.0,3.0,1.0,0.028112449799196786,0.17571865219725105,0.9844404274865908,0.7727602671207603,0.6346980144599881,0.0,0.2692307692307692,27.0,0.0,0.0,1.0,0.0,0.0,0.0,0.0,1.0,0.0,0.0,0.0,0.0,0.0,0.0,0.0,0.0,0.0,0.0,0.0,0.0,0.0,0.0,0.0,0.0,1.0,1.0,0.0,0.0,0.0,0.0,0.0
7,S1,3,0.3813671038213733,0.3712834166419811,-0.0100836871793921,0.0401009243681477,0.9333333333333332,0.0005595478613775,0.0005596255432982,0.2725714285714286,0.4514285714285714,0.3421371428571428,-6.518042819018277e-09,0.3839240792640274,0.002556975442654,1.3844489233472146e-05,0.0868571428571428,0.0805714285714285,0.1204342857142857,0.7126911273785844,0.3839240792640273,0.3313240235572111,0.0025569754426539,1.3844489233472146e-05,1.0,0.3476223635642995,0.3347061035357832,0.7126911273785849,0.3912579459798306,0.0098908421584573,1.0,0.000206659247569,0.2594285714285714,0.2245714285714285,0.3648571428571429,0.5288366040912403,0.5992241595256098,0.0,0.0,0.0,0.5983935742971888,0.0,0.3106318929233227,-0.0,0.3782151457111625,-0.0031519581102107,-0.0133813382779393,0.8518518518518519,0.0113989177923186,id01,4.0,3.0,1.0,0.028112449799196786,0.17571865219725105,0.9844404274865908,0.7727602671207603,0.6346980144599881,0.0,0.2692307692307692,27.0,0.0,0.0,0.0,1.0,0.0,0.0,0.0,1.0,0.0,0.0,0.0,0.0,0.0,0.0,0.0,0.0,0.0,0.0,0.0,0.0,0.0,0.0,0.0,0.0,1.0,1.0,0.0,0.0,0.0,0.0,0.0
7,S2,4,0.5701058542186728,0.6087410748847057,0.0386352206660329,0.1597404145629269,1.0,0.0005526499282644,0.0005533717514234,0.0897142857142857,0.9297142857142856,0.5397714285714286,5.706498492183878e-07,0.5927329487402715,0.0226270945215987,0.0010494111519224,0.684,0.6011428571428571,0.5053714285714286,0.7044293355784254,0.5927329487402715,0.1343234813597525,0.0226270945215987,0.0010494111519224,1.0,0.4999012207071567,0.3347061035357832,0.7044293355784257,0.6244490814290664,0.0543432272103936,1.0,0.0061008697067099,0.9137142857142856,0.8062857142857143,0.80096,0.5411859299797389,0.1020537839606638,0.0223721268914147,1.0,0.0,0.5983935742971888,0.6713928273561302,1.127250563618504,0.0109490616882312,0.5929644791134212,0.0772036866584283,0.3131699779575896,0.9629629629629628,0.3015710898850863,id01,4.0,3.0,1.0,0.028112449799196786,0.17571865219725105,0.9844404274865908,0.7727602671207603,0.6346980144599881,0.0,0.2692307692307692,27.0,0.0,0.0,0.0,0.0,1.0,0.0,0.0,1.0,0.0,0.0,0.0,0.0,0.0,0.0,0.0,0.0,0.0,0.0,0.0,0.0,0.0,0.0,0.0,0.0,1.0,1.0,0.0,0.0,0.0,0.0,0.0
7,S3,5,0.7965533146411341,0.8508214677699044,0.0542681531287703,0.3761706241445273,1.0,0.0005668316374974,0.0005654249185819,0.624,0.892,0.7846971428571429,3.8487113625926225e-07,0.8174893841710013,0.0209360695298671,0.0013889675114369,0.7571428571428571,0.764,0.5725485714285714,0.831186177206691,0.8174893841710013,0.0346328625655568,0.0209360695298671,0.0013889675114369,1.0,0.466273792135728,0.3347061035357832,0.8311861772066911,0.8381597325420775,0.0416064179009434,1.0,0.0056464889648015,0.9062857142857144,0.8548571428571429,0.7720914285714287,0.5504532687511471,-0.8190252012433414,-0.2812226449092633,0.0,1.0,0.5983935742971888,0.1651376146788991,0.6421502966245203,0.0180326547263136,0.8193641509527001,0.084094128803245,0.4905180389746006,1.0,0.4905180389746006,id01,4.0,3.0,1.0,0.028112449799196786,0.17571865219725105,0.9844404274865908,0.7727602671207603,0.6346980144599881,0.0,0.2692307692307692,27.0,0.0,0.0,0.0,0.0,0.0,1.0,0.0,1.0,0.0,0.0,0.0,0.0,0.0,0.0,0.0,0.0,0.0,0.0,0.0,0.0,0.0,0.0,0.0,0.0,1.0,1.0,0.0,0.0,0.0,0.0,0.0
7,S4,6,0.433144784944163,0.4266093361442109,-0.006535448799952,0.0266667122853234,1.0,0.0005637664039841,0.0005636621111087,0.5497142857142857,0.6285714285714286,0.5088228571428571,5.1327261215957867e-08,0.4198294230345096,-0.0133153619096533,0.0003619725200867,0.4474285714285714,0.3868571428571428,0.3250971428571428,0.6043392109638129,0.4198294230345096,0.1711944260196499,-0.0133153619096533,0.0003619725200867,0.0,0.4134920778500137,0.3347061035357832,0.6043392109638135,0.4117329455276688,-0.0214118394164941,0.0,0.0009375705540999,0.5074285714285715,0.448,0.3822628571428571,0.5367465541575439,0.3480358020082151,-0.0237526713402744,0.0,1.0,0.5983935742971888,0.5187656380316931,0.8957211444484408,0.0010625764694516,0.4259777804523954,-0.0239941548944387,-0.0974968305937749,1.0,0.0974968305937749,id01,4.0,3.0,1.0,0.028112449799196786,0.17571865219725105,0.9844404274865908,0.7727602671207603,0.6346980144599881,0.0,0.2692307692307692,27.0,0.0,0.0,0.0,0.0,0.0,0.0,1.0,1.0,0.0,0.0,0.0,0.0,0.0,0.0,0.0,0.0,0.0,0.0,0.0,0.0,0.0,0.0,0.0,0.0,1.0,1.0,0.0,0.0,0.0,0.0,0.0
8,Q1,0,0.4871969586270964,0.4799019451186053,-0.007295013508491,0.0272647164214926,0.9333333333333332,0.0005579429508729,0.0005579306564092,0.1994285714285714,0.3228571428571428,0.24656,-1.528734618273314e-07,0.4885582388460777,0.0013612802189812,3.708431413507185e-06,0.0411428571428571,0.036,0.1791314285714285,0.4843407529721197,0.4885582388460776,-0.0028562056549766,0.0013612802189811,3.708431413507185e-06,0.0,0.1279019088948813,0.2041781159029781,0.4843407529721198,0.4854674884320273,-0.001729470195069,1.0,5.986424866044615e-06,0.0411428571428571,0.0388571428571428,0.2545371428571428,0.4723691833202248,-0.0594126177254487,-0.0,0.0,0.0,0.3453815261044177,0.0,0.2108840163398017,-0.0,0.4980422942656777,0.0108453356385813,0.0433924997279604,1.0,0.0433924997279604,id01,5.0,4.0,1.0,0.0321285140562249,0.20050112635625097,0.9796934716174619,0.8464843789012082,0.5324135575623856,0.0,0.3076923076923077,27.0,1.0,0.0,0.0,0.0,0.0,0.0,0.0,1.0,0.0,0.0,0.0,0.0,0.0,0.0,0.0,0.0,0.0,0.0,0.0,0.0,0.0,0.0,0.0,0.0,0.0,0.0,1.0,1.0,0.0,0.0,0.0
8,Q2,1,0.5298229073435359,0.5331394610629289,0.0033165537193929,0.0128750961162554,0.9666666666666668,0.0005613530588073,0.0005612895052869,0.3994285714285714,0.5965714285714285,0.4133142857142857,3.2796783307099676e-08,0.5173079126197249,-0.012514994723811,0.0003140878883174,0.4217142857142857,0.3594285714285714,0.476,0.4792486606390082,0.5173079126197249,-0.0505742467045277,-0.012514994723811,0.0003140878883174,1.0,0.3498356231805957,0.2041781159029781,0.4792486606390075,0.5500906148817188,0.0202677075381829,0.0,0.000826058192977,0.48,0.4182857142857142,0.3781942857142857,0.5222485427847067,-0.0303804201103059,-0.0,0.0,0.0,0.3453815261044177,0.0,0.2000206658538097,-0.0,0.5372504360677081,0.0074275287241721,0.0298449410744523,0.9629629629629628,0.0287395728865096,id01,5.0,4.0,1.0,0.0321285140562249,0.20050112635625097,0.9796934716174619,0.8464843789012082,0.5324135575623856,0.0,0.3076923076923077,27.0,0.0,1.0,0.0,0.0,0.0,0.0,0.0,1.0,0.0,0.0,0.0,0.0,0.0,0.0,0.0,0.0,0.0,0.0,0.0,0.0,0.0,0.0,0.0,0.0,0.0,0.0,1.0,1.0,0.0,0.0,0.0
8,Q3,2,0.5265629473409531,0.5339142107076116,0.0073512633666584,0.0265621845263847,0.9,0.0005526956300064,0.0005524941556048,0.0748571428571428,0.7508571428571429,0.3556228571428572,1.4180712934701734e-07,0.5297588091324581,0.0031958617915049,2.0489672919454804e-05,0.1211428571428571,0.0971428571428571,0.2660114285714285,0.5032736142337776,0.5297588091324582,-0.0232893331071755,0.0031958617915051,2.0489672919454804e-05,0.0,0.1959693374663098,0.2041781159029781,0.503273614233777,0.5408788153380989,0.0143158679971457,0.0,0.0004115234704651,0.3537142857142857,0.2988571428571429,0.2459885714285714,0.5204910850323277,-0.0243416454294283,-0.0,0.0,0.0,0.3453815261044177,0.0,0.2215186647102991,-0.0,0.5415562800034461,0.014993332662493,0.0602575392302208,0.9629629629629628,0.0580257785179904,id01,5.0,4.0,1.0,0.0321285140562249,0.20050112635625097,0.9796934716174619,0.8464843789012082,0.5324135575623856,0.0,0.3076923076923077,27.0,0.0,0.0,1.0,0.0,0.0,0.0,0.0,1.0,0.0,0.0,0.0,0.0,0.0,0.0,0.0,0.0,0.0,0.0,0.0,0.0,0.0,0.0,0.0,0.0,0.0,0.0,1.0,1.0,0.0,0.0,0.0
8,S1,3,0.7833614458734801,0.8006546048691715,0.0172931589956913,0.0980250097041343,0.9333333333333332,0.0005612062588614,0.000561316651001,0.4028571428571428,0.1491428571428571,0.3408457142857142,-4.554017670839471e-07,0.7661379447013621,-0.017223501172118,0.0008579544289215,0.6371428571428571,0.6302857142857143,0.5672457142857144,0.7114256872308524,0.7661379447013621,-0.0719357586426276,-0.017223501172118,0.0008579544289215,1.0,0.4624104803234528,0.2041781159029781,0.7114256872308531,0.8143522006920344,0.0309907548185542,0.0,0.0029357239871534,0.7617142857142857,0.7542857142857143,0.6122628571428571,0.5198095371183791,-1.206084243717717,-0.0,0.0,0.0,0.3453815261044177,0.0,0.1984197510453478,-0.0,0.7784754907436852,-0.0048859551297949,-0.0285596170796924,0.925925925925926,0.0264440898886041,id01,5.0,4.0,1.0,0.0321285140562249,0.20050112635625097,0.9796934716174619,0.8464843789012082,0.5324135575623856,0.0,0.3076923076923077,27.0,0.0,0.0,0.0,1.0,0.0,0.0,0.0,1.0,0.0,0.0,0.0,0.0,0.0,0.0,0.0,0.0,0.0,0.0,0.0,0.0,0.0,0.0,0.0,0.0,0.0,0.0,1.0,1.0,0.0,0.0,0.0
8,S2,4,0.571821952388274,0.5793174715055757,0.0074955191173016,0.0296608281948318,0.9666666666666668,0.0005636983985812,0.000563703057154,0.5508571428571428,0.3771428571428571,0.4175314285714286,-8.694311391022196e-08,0.5752560540790768,0.0034341016908027,2.409941136749527e-05,0.1365714285714285,0.1085714285714285,0.2260571428571428,0.6676906947486834,0.5752560540790768,0.0958687423604093,0.0034341016908027,2.409941136749527e-05,1.0,0.2632756231805956,0.2041781159029781,0.6676906947486836,0.6058653810346867,0.0340434286464126,1.0,0.0023845769478796,0.7177142857142857,0.6354285714285715,0.6939885714285715,0.5353532108536797,-0.1476393501634221,-0.0,0.0,0.0,0.3453815261044177,0.0,0.1909869322917743,-0.0,0.5672676379747247,-0.0045543144135493,-0.018576781039916,1.0,0.018576781039916,id01,5.0,4.0,1.0,0.0321285140562249,0.20050112635625097,0.9796934716174619,0.8464843789012082,0.5324135575623856,0.0,0.3076923076923077,27.0,0.0,0.0,0.0,0.0,1.0,0.0,0.0,1.0,0.0,0.0,0.0,0.0,0.0,0.0,0.0,0.0,0.0,0.0,0.0,0.0,0.0,0.0,0.0,0.0,0.0,0.0,1.0,1.0,0.0,0.0,0.0
8,S3,5,0.8319663663360969,0.8447474751028035,0.0127811087667065,0.0880683269176687,0.9333333333333332,0.0005652211300617,0.0005663963254928,0.6542857142857142,0.1194285714285714,0.4284114285714285,-5.901238139153684e-07,0.8103827749652867,-0.0215835913708102,0.0016127982328464,0.7914285714285715,0.7965714285714286,0.6826514285714287,0.7854336377962201,0.8103827749652867,-0.0465327285398767,-0.0215835913708102,0.0016127982328464,1.0,0.5108287660377386,0.2041781159029781,0.7854336377962202,0.8278381359145927,-0.0041282304215042,1.0,6.055983422725841e-05,0.152,0.1548571428571428,0.2734971428571429,0.5421168535557401,-1.613857922945682,0.2954935610742074,1.0,0.0,0.3453815261044177,0.9291075896580484,1.2463380897028244,0.0043107758227576,0.820708856619341,-0.035324225356193,-0.2615680430573115,0.9629629629629628,0.2518803377588925,id01,5.0,4.0,1.0,0.0321285140562249,0.20050112635625097,0.9796934716174619,0.8464843789012082,0.5324135575623856,0.0,0.3076923076923077,27.0,0.0,0.0,0.0,0.0,0.0,1.0,0.0,1.0,0.0,0.0,0.0,0.0,0.0,0.0,0.0,0.0,0.0,0.0,0.0,0.0,0.0,0.0,0.0,0.0,0.0,0.0,1.0,1.0,0.0,0.0,0.0
8,S4,6,0.6856607309200997,0.7136128649510411,0.0279521340309414,0.1330860282923641,1.0,0.0005772263457852,0.0005777590499282,0.8342857142857143,0.8028571428571428,0.7917142857142857,1.996801338430382e-07,0.6821375101851865,-0.0035232207349131,2.8738824807472696e-05,0.16,0.1348571428571428,0.3061028571428571,0.5742383517049288,0.6821375101851864,-0.1114223792151709,-0.0035232207349132,2.8738824807472696e-05,1.0,0.318496194609167,0.2041781159029781,0.574238351704929,0.709991875366337,0.0243311444462372,0.0,0.0013936336473308,0.5965714285714285,0.5531428571428572,0.4418285714285714,0.5296593553771063,-0.5117162270341689,-0.0764590898785994,0.0,1.0,0.3453815261044177,0.3628023352793995,0.6700842933001617,0.0044862888983511,0.6992956193718995,0.0466943581868316,0.2134528191302571,1.0,0.2134528191302571,id01,5.0,4.0,1.0,0.0321285140562249,0.20050112635625097,0.9796934716174619,0.8464843789012082,0.5324135575623856,0.0,0.3076923076923077,27.0,0.0,0.0,0.0,0.0,0.0,0.0,1.0,1.0,0.0,0.0,0.0,0.0,0.0,0.0,0.0,0.0,0.0,0.0,0.0,0.0,0.0,0.0,0.0,0.0,0.0,0.0,1.0,1.0,0.0,0.0,0.0
9,Q1,0,0.1092143052792624,0.0795435723990076,-0.0296707328802547,0.3497730683428575,1.0,0.0005801992441521,0.0005802774747436,0.8531428571428571,0.876,0.8733714285714286,3.380139142866622e-07,0.1302798097428011,0.0210655044635387,0.0021633345984534,0.848,0.8948571428571429,0.8486857142857143,0.378932364495305,0.1302798097428011,0.2697180592160426,0.0210655044635386,0.0021633345984534,1.0,0.7747125634908772,0.3844485317401003,0.378932364495305,0.1138742980870552,0.0046599928077928,1.0,0.0001102427882938,0.1994285714285714,0.248,0.3574742857142857,0.4675061037862905,1.6241919348030824,-0.5594380602414355,0.0,1.0,0.8232931726907631,0.1000834028356964,0.689660235035852,0.0109807043435666,0.0956596390021166,-0.0518396151424885,-0.492058365634743,1.0,0.492058365634743,id01,0.0,6.0,1.0,0.03614457831325301,0.22515594052269397,0.9743227403932134,0.9067516281939826,0.421665133450184,0.0,0.34615384615384615,27.0,1.0,0.0,0.0,0.0,0.0,0.0,0.0,1.0,0.0,0.0,0.0,0.0,0.0,0.0,0.0,0.0,0.0,1.0,0.0,0.0,0.0,0.0,0.0,0.0,0.0,0.0,0.0,0.0,0.0,0.0,1.0
9,Q2,1,0.6502796130241703,0.6629801820400043,0.012700569015834,0.0525792020490528,0.9333333333333332,0.0005592787374633,0.0005593550348183,0.2565714285714285,0.2074285714285714,0.25824,-3.142137934368738e-07,0.6180051440127775,-0.0322744690113927,0.0022599472390121,0.8548571428571429,0.7754285714285715,0.8061485714285714,0.6870831326193271,0.6180051440127775,0.0368035195951568,-0.0322744690113927,0.0022599472390121,0.0,0.5646279920623059,0.3844485317401003,0.6870831326193274,0.6584552691975023,0.008175656173332,1.0,0.0001474977870586,0.2211428571428571,0.1925714285714285,0.34928,0.5265019948012215,-0.5141610828010288,-0.0,0.0,0.0,0.8232931726907631,0.0,0.4493824354019853,-0.0,0.6404987530427892,-0.009780859981381,-0.0427389746896024,1.0,0.0427389746896024,id01,0.0,6.0,1.0,0.03614457831325301,0.22515594052269397,0.9743227403932134,0.9067516281939826,0.421665133450184,0.0,0.34615384615384615,27.0,0.0,1.0,0.0,0.0,0.0,0.0,0.0,1.0,0.0,0.0,0.0,0.0,0.0,0.0,0.0,0.0,0.0,1.0,0.0,0.0,0.0,0.0,0.0,0.0,0.0,0.0,0.0,0.0,0.0,0.0,1.0
9,Q3,2,0.6597490444502253,0.6712297817121774,0.011480737261952,0.0515763661368976,1.0,0.0005560181513347,0.0005562029389922,0.1497142857142857,0.8022857142857143,0.4380342857142857,1.9909186716168592e-07,0.7003028203945337,0.0405537759443084,0.0037405500617787,0.9485714285714286,0.8748571428571429,0.8753142857142857,0.5965321785849473,0.7003028203945337,-0.0632168658652779,0.0405537759443084,0.0037405500617787,0.0,0.63440970634802,0.3844485317401003,0.5965321785849471,0.6643109168515112,0.0045618724012859,0.0,4.645440152328817e-05,0.1365714285714285,0.1097142857142857,0.1432571428571428,0.515253053269357,-0.4545952682087821,-0.0666207814571032,0.0,1.0,0.8232931726907631,0.3878231859883236,0.9320026482628077,0.0044916206153355,0.6737033786196895,0.0475788693758867,0.2093566554568909,1.0,0.2093566554568909,id01,0.0,6.0,1.0,0.03614457831325301,0.22515594052269397,0.9743227403932134,0.9067516281939826,0.421665133450184,0.0,0.34615384615384615,27.0,0.0,0.0,1.0,0.0,0.0,0.0,0.0,1.0,0.0,0.0,0.0,0.0,0.0,0.0,0.0,0.0,0.0,1.0,0.0,0.0,0.0,0.0,0.0,0.0,0.0,0.0,0.0,0.0,0.0,0.0,1.0
9,S1,3,0.3424435747342945,0.3276358642405892,-0.0148077104937052,0.0620419913769824,0.9333333333333332,0.0005606795546464,0.0005606922498737,0.3422857142857143,0.6068571428571429,0.4573371428571429,4.065796623416728e-08,0.3294317801079361,-0.0130117946263583,0.0003782943100716,0.4531428571428571,0.4108571428571428,0.4138742857142857,0.6528402681720646,0.3294317801079361,0.3103966934377701,-0.0130117946263583,0.0003782943100716,0.0,0.5180759920623058,0.3844485317401003,0.652840268172065,0.3369339176615798,-0.0055096570727146,0.0,6.758121128302985e-05,0.1622857142857142,0.1291428571428571,0.1308571428571428,0.5208283201287571,0.7357852006901172,0.0,0.0,0.0,0.8232931726907631,0.0,0.4378329785695096,-0.0,0.3356722021400494,-0.006771372594245,-0.0302169248034148,0.8888888888888888,0.0268594887141465,id01,0.0,6.0,1.0,0.03614457831325301,0.22515594052269397,0.9743227403932134,0.9067516281939826,0.421665133450184,0.0,0.34615384615384615,27.0,0.0,0.0,0.0,1.0,0.0,0.0,0.0,1.0,0.0,0.0,0.0,0.0,0.0,0.0,0.0,0.0,0.0,1.0,0.0,0.0,0.0,0.0,0.0,0.0,0.0,0.0,0.0,0.0,0.0,0.0,1.0
9,S2,4,0.5962785506935936,0.6290742011589407,0.0327956504653471,0.1382644341553039,1.0,0.0005623423328508,0.0005631547519612,0.5285714285714286,0.9337142857142856,0.71544,5.904124267121014e-07,0.60176022601838,0.0054816753247863,6.250436745147692e-05,0.2251428571428571,0.1782857142857143,0.3831314285714285,0.6450329874927357,0.60176022601838,0.0487544367991421,0.0054816753247863,6.250436745147692e-05,1.0,0.3272702777765914,0.3844485317401003,0.6450329874927359,0.6264774630122943,0.0301989123187007,1.0,0.00191085362479,0.6714285714285714,0.6034285714285714,0.5675314285714286,0.5288791333140515,-0.0548877326232593,-0.0120451012830547,0.0,1.0,0.8232931726907631,0.5537948290241869,1.1243893856382934,0.0107878532878419,0.6186996791632642,0.0761694547898653,0.3134996970147999,1.0,0.3134996970147999,id01,0.0,6.0,1.0,0.03614457831325301,0.22515594052269397,0.9743227403932134,0.9067516281939826,0.421665133450184,0.0,0.34615384615384615,27.0,0.0,0.0,0.0,0.0,1.0,0.0,0.0,1.0,0.0,0.0,0.0,0.0,0.0,0.0,0.0,0.0,0.0,1.0,0.0,0.0,0.0,0.0,0.0,0.0,0.0,0.0,0.0,0.0,0.0,0.0,1.0
9,S3,5,0.8487076691316686,0.8897729338846656,0.0410652647529969,0.3639230192189742,1.0,0.0005730004438149,0.0005720728742791,0.7674285714285715,0.6142857142857143,0.73872,4.446064422770329e-08,0.8554791009191468,0.0067714317874781,0.0001807896147535,0.34,0.3817142857142857,0.4302628571428571,0.7259329647168438,0.8554791009191468,-0.1227747044148248,0.0067714317874781,0.0001807896147535,0.0,0.4766794206337343,0.3844485317401003,0.7259329647168438,0.8885024817251016,0.0397948125934329,0.0,0.0066831913776969,0.9274285714285714,0.9011428571428572,0.6484342857142856,0.5348055739614554,-1.2863835920057756,-0.3842034812215033,0.0,1.0,0.8232931726907631,0.1309424520433694,0.7157165398181393,0.0108263068077237,0.8644206065567259,0.0581696347537452,0.4266706443098456,1.0,0.4266706443098456,id01,0.0,6.0,1.0,0.03614457831325301,0.22515594052269397,0.9743227403932134,0.9067516281939826,0.421665133450184,0.0,0.34615384615384615,27.0,0.0,0.0,0.0,0.0,0.0,1.0,0.0,1.0,0.0,0.0,0.0,0.0,0.0,0.0,0.0,0.0,0.0,1.0,0.0,0.0,0.0,0.0,0.0,0.0,0.0,0.0,0.0,0.0,0.0,0.0,1.0
9,S4,6,0.4972880481774325,0.4918120001923743,-0.0054760479850581,0.0189860794113948,0.8666666666666667,0.0005658031852352,0.0005659754922467,0.6468571428571429,0.6354285714285715,0.5409142857142857,5.44827315646879e-08,0.4984036630805096,0.0011156149030771,2.489248436599034e-06,0.0337142857142857,0.0302857142857142,0.2484342857142857,0.5021655631178892,0.4984036630805095,0.0048775149404566,0.0011156149030769,2.489248436599034e-06,1.0,0.1975708492051629,0.3844485317401003,0.5021655631178891,0.5186205306593932,0.0213324824819606,1.0,0.0009103121940541,0.4977142857142857,0.4314285714285714,0.5345371428571428,0.5233362059041996,0.0277482267442475,-0.0021230827961984,0.0,1.0,0.8232931726907631,0.5863219349457881,1.0816734955621816,0.0013587685134691,0.489091997869335,-0.0273182219862164,-0.1093033962528554,0.9629629629629628,0.1052551223175644,id01,0.0,6.0,1.0,0.03614457831325301,0.22515594052269397,0.9743227403932134,0.9067516281939826,0.421665133450184,0.0,0.34615384615384615,27.0,0.0,0.0,0.0,0.0,0.0,0.0,1.0,1.0,0.0,0.0,0.0,0.0,0.0,0.0,0.0,0.0,0.0,1.0,0.0,0.0,0.0,0.0,0.0,0.0,0.0,0.0,0.0,0.0,0.0,0.0,1.0
10,Q1,0,0.0767046561552894,0.0615270214755563,-0.015177634679733,0.2367908619255949,1.0,0.0005718147404931,0.0005718425499832,0.7645714285714286,0.5502857142857143,0.6985714285714285,1.0453797620089734e-08,0.0834620630365506,0.0067574068812612,0.0003140654103029,0.4211428571428571,0.5954285714285714,0.4810971428571429,0.3623844073503527,0.0834620630365506,0.2856797511950634,0.0067574068812611,0.0003140654103029,1.0,0.5699086534104976,0.2893604099096309,0.3623844073503524,0.0727947602016812,-0.0039098959536081,0.0,0.00010965499974,0.1982857142857143,0.2925714285714286,0.2150742857142857,0.4795197986140478,2.2110323362953235,-0.4311242223544906,0.0,1.0,0.4417670682730923,0.1184320266889074,0.4901446059941214,0.0025368019005103,0.0709918168766488,-0.0207126258759733,-0.278553929813913,1.0,0.278553929813913,id01,1.0,0.0,1.0,0.040160642570281124,0.2496673968626068,0.968331653383204,0.952603925155422,0.3042133491128933,0.0,0.38461538461538464,27.0,1.0,0.0,0.0,0.0,0.0,0.0,0.0,1.0,0.0,0.0,0.0,0.0,0.0,0.0,0.0,0.0,0.0,0.0,1.0,1.0,0.0,0.0,0.0,0.0,0.0,0.0,0.0,0.0,0.0,0.0,0.0
10,Q2,1,0.5342018668120326,0.5298100888584021,-0.0043917779536305,0.0158755549468031,0.9,0.0005571647338458,0.0005573302056061,0.1828571428571428,0.5914285714285714,0.3252,3.001951998872804e-08,0.5394071755852398,0.0052053087732071,5.447220976595446e-05,0.2097142857142857,0.1662857142857143,0.2904,0.5451260322688894,0.5394071755852398,0.0109241654568568,0.0052053087732071,5.447220976595446e-05,1.0,0.2168949391247833,0.2893604099096309,0.545126032268889,0.5456648892957198,0.0114630224836871,1.0,0.000264338331801,0.2902857142857142,0.24,0.4078171428571429,0.5133155683547111,-0.1390314116356855,0.007686328839867,1.0,0.0,0.4417670682730923,0.6255212677231026,0.9106700963136224,0.0007059266946666,0.5283017021299468,-0.019627251440298,-0.0789783376436662,1.0,0.0789783376436662,id01,1.0,0.0,1.0,0.040160642570281124,0.2496673968626068,0.968331653383204,0.952603925155422,0.3042133491128933,0.0,0.38461538461538464,27.0,0.0,1.0,0.0,0.0,0.0,0.0,0.0,1.0,0.0,0.0,0.0,0.0,0.0,0.0,0.0,0.0,0.0,0.0,1.0,1.0,0.0,0.0,0.0,0.0,0.0,0.0,0.0,0.0,0.0,0.0,0.0
10,Q3,2,0.6561743656712474,0.6595359681870151,0.0033616025157676,0.0149351323609701,1.0,0.0005593121262038,0.0005592573558704,0.2531428571428571,0.5874285714285714,0.3518285714285714,2.627087383176299e-08,0.6559270239538441,-0.0002473417174033,1.3556815570137104e-07,0.0097142857142857,0.0085714285714285,0.1584228571428571,0.5633474228730158,0.6559270239538441,-0.0928269427982316,-0.0002473417174033,1.3556815570137104e-07,1.0,0.2348766534104976,0.2893604099096309,0.5633474228730152,0.6498612651533874,-0.00631310051786,1.0,8.80742547857416e-05,0.18,0.1462857142857143,0.3400114285714286,0.5145771506674912,-0.5879667716850547,-0.0,0.0,0.0,0.4417670682730923,0.0,0.245354660494465,-0.0,0.6618451685464576,0.0056708028752101,0.0252358693547941,0.9629629629629628,0.0243012075268388,id01,1.0,0.0,1.0,0.040160642570281124,0.2496673968626068,0.968331653383204,0.952603925155422,0.3042133491128933,0.0,0.38461538461538464,27.0,0.0,0.0,1.0,0.0,0.0,0.0,0.0,1.0,0.0,0.0,0.0,0.0,0.0,0.0,0.0,0.0,0.0,0.0,1.0,1.0,0.0,0.0,0.0,0.0,0.0,0.0,0.0,0.0,0.0,0.0,0.0
10,S1,3,0.3104271131734202,0.2884724288167966,-0.0219546843566236,0.1046913858621023,1.0,0.0005664837006281,0.0005664059827552,0.6548571428571428,0.412,0.5501142857142857,-4.827536586179008e-08,0.2961322167942221,-0.0142948963791981,0.0004814592344083,0.5045714285714286,0.4674285714285714,0.4781714285714286,0.5848707418175568,0.2961322167942221,0.2744436286441366,-0.0142948963791981,0.0004814592344083,0.0,0.5242206534104976,0.2893604099096309,0.5848707418175566,0.301754032107719,-0.0086730810657011,0.0,0.0001766192710355,0.2434285714285714,0.2188571428571428,0.2066171428571428,0.5165107491731644,0.7917405480445487,-0.0573613944096988,0.0,1.0,0.4417670682730923,0.4178482068390325,0.7212932046691178,0.0010455629174851,0.3038199305950749,-0.0223249278044798,-0.1034996241623611,1.0,0.1034996241623611,id01,1.0,0.0,1.0,0.040160642570281124,0.2496673968626068,0.968331653383204,0.952603925155422,0.3042133491128933,0.0,0.38461538461538464,27.0,0.0,0.0,0.0,1.0,0.0,0.0,0.0,1.0,0.0,0.0,0.0,0.0,0.0,0.0,0.0,0.0,0.0,0.0,1.0,1.0,0.0,0.0,0.0,0.0,0.0,0.0,0.0,0.0,0.0,0.0,0.0
10,S2,4,0.5615081354310529,0.5974101455369101,0.0359020101058571,0.1474005722110929,1.0,0.0005527263290989,0.0005534457161773,0.0908571428571428,0.9091428571428573,0.5270628571428572,4.616922966096553e-07,0.5601419043315035,-0.0013662310995494,3.789679643317889e-06,0.0422857142857142,0.0377142857142857,0.3230628571428571,0.6212821917280248,0.5601419043315035,0.0597740562969718,-0.0013662310995494,3.789679643317889e-06,0.0,0.2770217962676405,0.2893604099096309,0.6212821917280248,0.6254057103067469,0.0638975748756939,1.0,0.0084049268657233,0.956,0.844,0.8426514285714285,0.5223591272043235,0.0398895494675475,0.0078853006003361,1.0,0.0,0.4417670682730923,0.6271893244370309,0.996957935760541,0.0089416799224664,0.5822469738170704,0.0698478546186353,0.2823976528614793,0.9629629629629628,0.2719384805332764,id01,1.0,0.0,1.0,0.040160642570281124,0.2496673968626068,0.968331653383204,0.952603925155422,0.3042133491128933,0.0,0.38461538461538464,27.0,0.0,0.0,0.0,0.0,1.0,0.0,0.0,1.0,0.0,0.0,0.0,0.0,0.0,0.0,0.0,0.0,0.0,0.0,1.0,1.0,0.0,0.0,0.0,0.0,0.0,0.0,0.0,0.0,0.0,0.0,0.0
10,S3,5,0.8646190282324883,0.9070477804614128,0.0424287522289245,0.4239134058564424,1.0,0.0005662934537053,0.0005659192748126,0.6445714285714286,0.932,0.8116228571428572,5.809167866842805e-07,0.880319387014319,0.0157003587818307,0.0010894806523566,0.6948571428571428,0.7805714285714286,0.5661714285714287,0.7424631957006119,0.8803193870143189,-0.1221558325318763,0.0157003587818306,0.0010894806523566,0.0,0.5638492248390691,0.2893604099096309,0.742463195700612,0.9036971791349204,0.0390781509024321,0.0,0.0071479667268576,0.936,0.9131428571428571,0.6857142857142857,0.5301653668690831,-1.3159121900678663,-0.5493614817494448,0.0,1.0,0.4417670682730923,0.1017514595496246,0.5058253881973201,0.019462362610489,0.8842302675205973,0.0762839990160937,0.5963939863984735,1.0,0.5963939863984735,id01,1.0,0.0,1.0,0.040160642570281124,0.2496673968626068,0.968331653383204,0.952603925155422,0.3042133491128933,0.0,0.38461538461538464,27.0,0.0,0.0,0.0,0.0,0.0,1.0,0.0,1.0,0.0,0.0,0.0,0.0,0.0,0.0,0.0,0.0,0.0,0.0,1.0,1.0,0.0,0.0,0.0,0.0,0.0,0.0,0.0,0.0,0.0,0.0,0.0
10,S4,6,0.3868343067969694,0.3565293623190946,-0.0303049444778747,0.1298210546421921,1.0,0.000554153613182,0.000555618231663,0.1377142857142857,0.9154285714285716,0.5399885714285715,4.93937508027424e-07,0.3432640876850436,-0.0435702191119258,0.004063993700669,0.956,0.8777142857142857,0.8631314285714285,0.4316138536894701,0.3432640876850436,0.0447795468925006,-0.0435702191119258,0.004063993700669,0.0,0.5871955105533548,0.2893604099096309,0.4316138536894698,0.3719066920233425,-0.0149276147736269,0.0,0.0004720508423903,0.3748571428571428,0.3257142857142857,0.2801142857142857,0.518539165433557,0.3309550033824203,-0.0674732576201744,0.0,1.0,0.4417670682730923,0.3869891576313595,0.7621322686689921,0.0091790061818552,0.3663254162736617,-0.0698338569711032,-0.2912491639156185,1.0,0.2912491639156185,id01,1.0,0.0,1.0,0.040160642570281124,0.2496673968626068,0.968331653383204,0.952603925155422,0.3042133491128933,0.0,0.38461538461538464,27.0,0.0,0.0,0.0,0.0,0.0,0.0,1.0,1.0,0.0,0.0,0.0,0.0,0.0,0.0,0.0,0.0,0.0,0.0,1.0,1.0,0.0,0.0,0.0,0.0,0.0,0.0,0.0,0.0,0.0,0.0,0.0
11,Q1,0,0.5153668089923147,0.5099702132658055,-0.0053965957265091,0.0201604292065681,0.9333333333333332,0.00056129496818,0.0005612212857733,0.3908571428571428,0.5891428571428572,0.4172914285714286,2.6521590969219173e-08,0.5407135526005822,0.0253467436082674,0.0012880228692904,0.7388571428571429,0.6491428571428571,0.6651885714285715,0.3838706059452277,0.5407135526005821,-0.1314962030470869,0.0253467436082673,0.0012880228692904,0.0,0.5333822987820295,0.1613800653387188,0.3838706059452275,0.49873457020285,-0.0166322387894646,1.0,0.0005535104282742,0.4034285714285714,0.3417142857142857,0.39488,0.477812863940033,-0.1502934640459967,-0.0,0.0,0.0,0.2610441767068273,0.0,0.147560395957759,-0.0,0.5103532984130397,-0.005013510579275,-0.0200674860195648,0.8518518518518519,0.0170945251277774,id01,2.0,1.0,1.0,0.04417670682730924,0.27401988881860617,0.9617240251401847,0.9833123395532226,0.18192537723574403,0.0,0.4230769230769231,27.0,1.0,0.0,0.0,0.0,0.0,0.0,0.0,1.0,0.0,0.0,0.0,0.0,0.0,0.0,0.0,0.0,0.0,0.0,0.0,0.0,1.0,1.0,0.0,0.0,0.0,0.0,0.0,0.0,0.0,0.0,0.0
11,Q2,1,0.6125929875115891,0.6223100132157341,0.009717025704145,0.0411397695642431,1.0,0.0005714109567275,0.0005709688873555,0.7462857142857143,0.7697142857142857,0.6630742857142857,1.649200916768395e-07,0.6247764083355348,0.0121834208239457,0.0003139747732857,0.4205714285714286,0.3685714285714285,0.2768685714285714,0.5318386805108667,0.6247764083355347,-0.0807543070007223,0.0121834208239456,0.0003139747732857,0.0,0.286009727353458,0.1613800653387188,0.5318386805108662,0.6247298581770224,0.0121368706654333,0.0,0.0003115752257492,0.3085714285714285,0.264,0.1792685714285714,0.5151938535052953,-0.2644862785889439,-0.0351619921242759,0.0,1.0,0.2610441767068273,0.4787322768974145,0.7301234332897075,0.0039025400169843,0.6260249407153934,0.0454143539960524,0.1899206930067711,0.9629629629629628,0.1828865932657795,id01,2.0,1.0,1.0,0.04417670682730924,0.27401988881860617,0.9617240251401847,0.9833123395532226,0.18192537723574403,0.0,0.4230769230769231,27.0,0.0,1.0,0.0,0.0,0.0,0.0,0.0,1.0,0.0,0.0,0.0,0.0,0.0,0.0,0.0,0.0,0.0,0.0,0.0,0.0,1.0,1.0,0.0,0.0,0.0,0.0,0.0,0.0,0.0,0.0,0.0
11,Q3,2,0.5055049252394067,0.4890893229838494,-0.0164156022555572,0.065670228347559,1.0,0.0005522084406794,0.0005533663809411,0.0885714285714285,0.8788571428571429,0.4579085714285714,3.429344176890048e-07,0.4806367665137395,-0.0248681587256672,0.0012370590869292,0.7291428571428571,0.6342857142857142,0.4992457142857143,0.5052961918805267,0.4806367665137394,-0.00020873335888,-0.0248681587256673,0.0012370590869292,1.0,0.3206508702106009,0.1613800653387188,0.5052961918805262,0.4727710160492862,-0.0327339091901205,1.0,0.0021437793275079,0.696,0.6154285714285714,0.5691999999999999,0.510190524406127,-0.161005107632157,0.0289410319586542,1.0,0.0,0.2610441767068273,0.6972477064220184,0.9735673934032194,0.0074915072451683,0.4862494451170337,-0.0640233232403535,-0.2567889427704626,1.0,0.2567889427704626,id01,2.0,1.0,1.0,0.04417670682730924,0.27401988881860617,0.9617240251401847,0.9833123395532226,0.18192537723574403,0.0,0.4230769230769231,27.0,0.0,0.0,1.0,0.0,0.0,0.0,0.0,1.0,0.0,0.0,0.0,0.0,0.0,0.0,0.0,0.0,0.0,0.0,0.0,0.0,1.0,1.0,0.0,0.0,0.0,0.0,0.0,0.0,0.0,0.0,0.0
11,S1,3,0.7980148542708336,0.8165852023179498,0.0185703480471162,0.1114847835650518,0.9333333333333332,0.0005604213132701,0.0005604173274868,0.316,0.2811428571428571,0.36264,-2.0045185130815394e-07,0.7927925021870413,-0.0052223520837922,8.40632569036881e-05,0.2542857142857143,0.2462857142857142,0.2857371428571429,0.6700557092642805,0.7927925021870413,-0.1279591450065531,-0.0052223520837922,8.40632569036881e-05,1.0,0.3426291559248866,0.1613800653387188,0.6700557092642808,0.8160714454872072,0.0180565912163735,0.0,0.0010350353501082,0.5291428571428571,0.556,0.3840571428571429,0.5118087209723418,-1.326689383837634,-0.0,0.0,0.0,0.2610441767068273,0.0,0.1417284920126475,-0.0,0.8003640100733106,0.0023491558024769,0.0146379259473818,0.7777777777777778,0.0113850535146303,id01,2.0,1.0,1.0,0.04417670682730924,0.27401988881860617,0.9617240251401847,0.9833123395532226,0.18192537723574403,0.0,0.4230769230769231,27.0,0.0,0.0,0.0,1.0,0.0,0.0,0.0,1.0,0.0,0.0,0.0,0.0,0.0,0.0,0.0,0.0,0.0,0.0,0.0,0.0,1.0,1.0,0.0,0.0,0.0,0.0,0.0,0.0,0.0,0.0,0.0
11,S2,4,0.5784757864191358,0.566659359627342,-0.0118164267917937,0.0450662211349676,0.9333333333333332,0.0005560901825922,0.0005560041376724,0.1457142857142857,0.8554285714285714,0.4491199999999999,2.971001714839879e-07,0.5826469448974633,0.0041711584783274,3.570835681765416e-05,0.1788571428571428,0.1428571428571428,0.33472,0.5324090239209596,0.5826469448974633,-0.0460667624981762,0.0041711584783274,3.570835681765416e-05,0.0,0.2506142987820295,0.1613800653387188,0.5324090239209592,0.5948443446508832,0.0163685582317474,0.0,0.0005514346392901,0.4028571428571428,0.3451428571428571,0.3639428571428571,0.5194553374443397,-0.4283046316397717,0.0812261848254775,1.0,0.0,0.2610441767068273,0.8248540450375312,1.1038038063469198,0.008116075507535,0.5585409531413099,-0.0653661469263151,-0.270922605831481,1.0,0.270922605831481,id01,2.0,1.0,1.0,0.04417670682730924,0.27401988881860617,0.9617240251401847,0.9833123395532226,0.18192537723574403,0.0,0.4230769230769231,27.0,0.0,0.0,0.0,0.0,1.0,0.0,0.0,1.0,0.0,0.0,0.0,0.0,0.0,0.0,0.0,0.0,0.0,0.0,0.0,0.0,1.0,1.0,0.0,0.0,0.0,0.0,0.0,0.0,0.0,0.0,0.0
11,S3,5,0.8422241438292339,0.8733875199331158,0.0311633761038818,0.2563774837308294,1.0,0.0005516364973842,0.0005516141910491,0.0645714285714285,0.2834285714285714,0.3057942857142857,-1.982405235153175e-07,0.8484528460882539,0.0062287022590199,0.0001475752711793,0.3171428571428571,0.3411428571428571,0.2712914285714286,0.6973672999640592,0.8484528460882539,-0.1448568438651747,0.0062287022590199,0.0001475752711793,0.0,0.366185727353458,0.1613800653387188,0.6973672999640592,0.8536911609214743,0.0114670170922404,0.0,0.0005048963235071,0.3868571428571428,0.4525714285714285,0.2424342857142857,0.52835652752659,-1.3913552722550782,-0.2364852670066489,0.0,1.0,0.2610441767068273,0.1859883236030025,0.4587631277940376,0.0035992321645317,0.8516642424135461,0.0333596061228887,0.2428108064565184,1.0,0.2428108064565184,id01,2.0,1.0,1.0,0.04417670682730924,0.27401988881860617,0.9617240251401847,0.9833123395532226,0.18192537723574403,0.0,0.4230769230769231,27.0,0.0,0.0,0.0,0.0,0.0,1.0,0.0,1.0,0.0,0.0,0.0,0.0,0.0,0.0,0.0,0.0,0.0,0.0,0.0,0.0,1.0,1.0,0.0,0.0,0.0,0.0,0.0,0.0,0.0,0.0,0.0
11,S4,6,0.512018681523908,0.5071915937837466,-0.0048270877401613,0.0173840663073202,0.9,0.000560630886938,0.0005604837923928,0.3194285714285714,0.568,0.3756,1.803019804299645e-08,0.5054025203600411,-0.0066161611638668,8.75817670065171e-05,0.2588571428571428,0.2102857142857143,0.17408,0.4354232416947921,0.5054025203600411,-0.0765954398291158,-0.0066161611638668,8.75817670065171e-05,1.0,0.2167834416391723,0.1613800653387188,0.4354232416947917,0.5039431080164044,-0.0080755735075035,1.0,0.0001304770688298,0.2074285714285714,0.172,0.2384228571428571,0.5148969207263475,0.0115213353446342,0.0,0.0,0.0,0.2610441767068273,0.0,0.1453877258605606,-0.0,0.5079507968653618,-0.0040678846585461,-0.0162781199560366,0.925925925925926,0.0150723332926265,id01,2.0,1.0,1.0,0.04417670682730924,0.27401988881860617,0.9617240251401847,0.9833123395532226,0.18192537723574403,0.0,0.4230769230769231,27.0,0.0,0.0,0.0,0.0,0.0,0.0,1.0,1.0,0.0,0.0,0.0,0.0,0.0,0.0,0.0,0.0,0.0,0.0,0.0,0.0,1.0,1.0,0.0,0.0,0.0,0.0,0.0,0.0,0.0,0.0,0.0
12,Q1,0,0.4537704814295021,0.455352332462798,0.0015818510332959,0.0055294170641366,0.8666666666666667,0.0005545371078787,0.0005548897669751,0.1194285714285714,0.498,0.2469428571428571,0.0,0.4367265678902225,-0.0170439135392795,0.000587360747684,0.544,0.472,0.6576457142857144,0.490924636662669,0.4367265678902224,0.0371541552331669,-0.0170439135392796,0.000587360747684,0.0,0.470927956775413,0.4232226410199214,0.4909246366626691,0.4771511706543564,0.0233806892248543,1.0,0.0010999497422422,0.5405714285714286,0.4708571428571428,0.5361142857142858,0.4856194968175126,0.2817028402866914,0.0433239229839899,1.0,0.0,0.5220883534136547,0.7422852376980817,1.1396358752396716,0.005433863227064,0.4701514222307478,0.0541574955692257,0.2197042759156062,1.0,0.2197042759156062,id01,3.0,2.0,1.0,0.04819277108433735,0.29819791104666543,0.9545040627715552,0.9983886888289513,0.05674527309307409,0.0,0.46153846153846156,27.0,1.0,0.0,0.0,0.0,0.0,0.0,0.0,1.0,0.0,0.0,0.0,0.0,0.0,0.0,0.0,0.0,0.0,0.0,0.0,0.0,0.0,0.0,1.0,1.0,0.0,0.0,0.0,0.0,0.0,0.0,0.0
12,Q2,1,0.5263864276333604,0.5280837394206106,0.0016973117872501,0.0065824755089074,0.9666666666666668,0.0005619185578881,0.0005619181639416,0.4531428571428571,0.498,0.3889314285714286,0.0,0.5562617838277286,0.0298753561943682,0.0017949223464186,0.8148571428571428,0.7148571428571429,0.7823314285714287,0.4790287017419093,0.5562617838277286,-0.0473577258914511,0.0298753561943682,0.0017949223464186,0.0,0.5631793853468414,0.4232226410199214,0.4790287017419088,0.5229785545184058,-0.0034078731149546,1.0,2.328664802186964e-05,0.0954285714285714,0.0794285714285714,0.3413485714285714,0.514035228291493,-0.0494881897176104,-0.0,0.0,0.0,0.5220883534136547,0.0,0.2847148456605151,-0.0,0.5325224976077935,0.006136069974433,0.024630066094761,0.9629629629629628,0.0237178414245847,id01,3.0,2.0,1.0,0.04819277108433735,0.29819791104666543,0.9545040627715552,0.9983886888289513,0.05674527309307409,0.0,0.46153846153846156,27.0,0.0,1.0,0.0,0.0,0.0,0.0,0.0,1.0,0.0,0.0,0.0,0.0,0.0,0.0,0.0,0.0,0.0,0.0,0.0,0.0,0.0,0.0,1.0,1.0,0.0,0.0,0.0,0.0,0.0,0.0,0.0
12,Q3,2,0.5423068588055675,0.5382755113536181,-0.0040313474519494,0.0151488157565452,0.9333333333333332,0.0005557617553563,0.0005557337864065,0.1405714285714285,0.684,0.3417028571428571,8.04254869184505e-08,0.5387209842392555,-0.0035858745663119,2.5892116163106493e-05,0.1474285714285714,0.1131428571428571,0.3780114285714285,0.4954024872123764,0.5387209842392555,-0.0469043715931911,-0.0035858745663119,2.5892116163106493e-05,1.0,0.3203496710611271,0.4232226410199214,0.4954024872123761,0.5259828559078481,-0.0163240028977194,1.0,0.0005358917810787,0.3982857142857143,0.3365714285714286,0.4511542857142857,0.5074509982261769,-0.2725374010716268,0.0361685914552401,1.0,0.0,0.5220883534136547,0.7222685571309424,1.1076123336090675,0.0040535266777579,0.5281594421152973,-0.046855887110128,-0.1895865160578427,1.0,0.1895865160578427,id01,3.0,2.0,1.0,0.04819277108433735,0.29819791104666543,0.9545040627715552,0.9983886888289513,0.05674527309307409,0.0,0.46153846153846156,27.0,0.0,0.0,1.0,0.0,0.0,0.0,0.0,1.0,0.0,0.0,0.0,0.0,0.0,0.0,0.0,0.0,0.0,0.0,0.0,0.0,0.0,0.0,1.0,1.0,0.0,0.0,0.0,0.0,0.0,0.0,0.0
12,S1,3,0.8086601946030273,0.8272580778630622,0.0185978832600348,0.1166574697727282,0.9333333333333332,0.0005615840634359,0.0005616311009037,0.4342857142857143,0.2445714285714285,0.4023085714285714,-2.5209623367753984e-07,0.7884782047940077,-0.0201819898090196,0.0012827704750042,0.7365714285714285,0.7342857142857143,0.7450285714285714,0.7139644514268215,0.7884782047940077,-0.0946957431762057,-0.0201819898090196,0.0012827704750042,1.0,0.62847881391827,0.4232226410199214,0.713964451426822,0.8137558919792409,0.0050956973762136,0.0,8.448536659683148e-05,0.1771428571428571,0.1782857142857143,0.2391542857142857,0.510779033438544,-1.3982050492029772,-0.0,0.0,0.0,0.5220883534136547,0.0,0.2690487507491372,-0.0,0.8101768196857897,0.0015166250827624,0.0098316465897814,0.7037037037037037,0.006918566118735,id01,3.0,2.0,1.0,0.04819277108433735,0.29819791104666543,0.9545040627715552,0.9983886888289513,0.05674527309307409,0.0,0.46153846153846156,27.0,0.0,0.0,0.0,1.0,0.0,0.0,0.0,1.0,0.0,0.0,0.0,0.0,0.0,0.0,0.0,0.0,0.0,0.0,0.0,0.0,0.0,0.0,1.0,1.0,0.0,0.0,0.0,0.0,0.0,0.0,0.0
12,S2,4,0.558780265236678,0.5700106275029473,0.0112303622662692,0.0456812178356428,1.0,0.0005591814185852,0.000559221858999,0.2508571428571428,0.728,0.4455428571428571,1.1681550239939029e-07,0.5767269130602655,0.0179466478235874,0.0006552067789167,0.5645714285714286,0.4948571428571429,0.47872,0.6582302936038185,0.5767269130602655,0.0994500283671404,0.0179466478235874,0.0006552067789167,1.0,0.4616970996325557,0.4232226410199214,0.6582302936038186,0.628223668016643,0.0694434027799649,1.0,0.0099231700356243,0.9697142857142858,0.8628571428571429,0.8916000000000002,0.5156737890032854,-0.1734975899492306,-0.0,0.0,0.0,0.5220883534136547,0.0,0.2980939194169474,-0.0,0.5692500206012026,0.0104697553645245,0.0425786192433186,0.9629629629629628,0.0410016333454179,id01,3.0,2.0,1.0,0.04819277108433735,0.29819791104666543,0.9545040627715552,0.9983886888289513,0.05674527309307409,0.0,0.46153846153846156,27.0,0.0,0.0,0.0,0.0,1.0,0.0,0.0,1.0,0.0,0.0,0.0,0.0,0.0,0.0,0.0,0.0,0.0,0.0,0.0,0.0,0.0,0.0,1.0,1.0,0.0,0.0,0.0,0.0,0.0,0.0,0.0
12,S3,5,0.8372632240978997,0.8445301069406194,0.0072668828427197,0.0507028815128029,0.9333333333333332,0.0005700116609737,0.0005712028846914,0.7531428571428571,0.188,0.4569028571428571,-3.5428879979698713e-07,0.8087494041011615,-0.0285138199967381,0.0028548373592441,0.9005714285714286,0.8902857142857142,0.8257828571428572,0.7704717354628068,0.8087494041011615,-0.0667914886350928,-0.0285138199967381,0.0028548373592441,1.0,0.6589896710611272,0.4232226410199214,0.7704717354628067,0.8404055129385558,0.0031422888406561,0.0,3.64236558565989e-05,0.1268571428571428,0.1251428571428571,0.2544342857142857,0.5224691876062136,-1.7763908255702572,0.4055920685043456,1.0,0.0,0.5220883534136547,0.9499582985821518,1.370064796615451,0.0065178284817399,0.8234867451775103,-0.0425460966946285,-0.3261766680958218,0.9629629629629628,0.3140960507589395,id01,3.0,2.0,1.0,0.04819277108433735,0.29819791104666543,0.9545040627715552,0.9983886888289513,0.05674527309307409,0.0,0.46153846153846156,27.0,0.0,0.0,0.0,0.0,0.0,1.0,0.0,1.0,0.0,0.0,0.0,0.0,0.0,0.0,0.0,0.0,0.0,0.0,0.0,0.0,0.0,0.0,1.0,1.0,0.0,0.0,0.0,0.0,0.0,0.0,0.0
12,S4,6,0.4779634589053494,0.4758576867165095,-0.0021057721888398,0.0061901413800877,0.7333333333333333,0.0005596942365371,0.0005600514716278,0.292,0.498,0.3204514285714285,0.0,0.4984916074489529,0.0205281485436034,0.0008436680717651,0.632,0.5428571428571428,0.7030399999999999,0.5686294530160948,0.4984916074489529,0.0906659941107453,0.0205281485436034,0.0008436680717651,1.0,0.5535839567754128,0.4232226410199214,0.5686294530160952,0.4861703424426792,0.0082068835373298,1.0,0.0001349089333645,0.2114285714285714,0.1748571428571428,0.4243657142857143,0.5122975076312195,0.0472859848450846,-0.004261283940974,0.0,1.0,0.5220883534136547,0.5779816513761468,0.9332510996667364,0.001881751992881,0.4683361823210036,-0.0321423095012723,-0.1287389594834369,0.9629629629629628,0.1239708498729393,id01,3.0,2.0,1.0,0.04819277108433735,0.29819791104666543,0.9545040627715552,0.9983886888289513,0.05674527309307409,0.0,0.46153846153846156,27.0,0.0,0.0,0.0,0.0,0.0,0.0,1.0,1.0,0.0,0.0,0.0,0.0,0.0,0.0,0.0,0.0,0.0,0.0,0.0,0.0,0.0,0.0,1.0,1.0,0.0,0.0,0.0,0.0,0.0,0.0,0.0
13,Q1,0,0.5508859927350321,0.551139893615868,0.0002539008808358,0.0006841919263285,0.6666666666666666,0.0005597338880878,0.00055969701089,0.2748571428571428,0.498,0.3058228571428572,0.0,0.5768859839210669,0.0259999911860348,0.0013716764709259,0.7531428571428571,0.6662857142857143,0.70496,0.394032268859348,0.5768859839210669,-0.1568537238756841,0.0259999911860348,0.0013716764709259,0.0,0.5698896176626085,0.1644309454558993,0.3940322688593478,0.5395052613479748,-0.0113807313870573,1.0,0.0002613684198542,0.2885714285714286,0.2388571428571428,0.3851314285714285,0.4884640662720308,-0.2504030339001183,-0.0,0.0,0.0,0.6305220883534136,0.0,0.3158327994654432,-0.0,0.5506471363934485,-0.0002388563415836,-0.0009653774386038,0.5555555555555556,0.0005363207992243,id01,5.0,4.0,1.0,0.05220883534136546,0.3221860692884393,0.9466763632606789,0.9975932989093745,-0.06933693078808152,0.0,0.5,27.0,1.0,0.0,0.0,0.0,0.0,0.0,0.0,1.0,0.0,0.0,0.0,0.0,0.0,0.0,0.0,0.0,0.0,0.0,0.0,0.0,0.0,0.0,0.0,0.0,0.0,0.0,1.0,1.0,0.0,0.0,0.0
13,Q2,1,0.5561424946634292,0.5519996444202866,-0.0041428502431426,0.0150908343174793,0.9,0.0005534458146378,0.0005537207664955,0.0942857142857142,0.6228571428571429,0.2988,4.885031863355318e-08,0.548002926598178,-0.0081395680652512,0.0001340377445102,0.3045714285714285,0.252,0.28592,0.6244815138150869,0.548002926598178,0.0683390191516576,-0.0081395680652512,0.0001340377445102,0.0,0.2657501890911798,0.1644309454558993,0.624481513815087,0.5446033840074922,-0.011539110655937,0.0,0.0002692559951095,0.2937142857142857,0.2468571428571428,0.1853485714285714,0.510109654038381,-0.2696967873725903,0.0228217275307664,1.0,0.0,0.6305220883534136,0.6755629691409508,1.0834483700929578,0.0016397208038858,0.5471731015450061,-0.0297465551111252,-0.1208856368617179,1.0,0.1208856368617179,id01,5.0,4.0,1.0,0.05220883534136546,0.3221860692884393,0.9466763632606789,0.9975932989093745,-0.06933693078808152,0.0,0.5,27.0,0.0,1.0,0.0,0.0,0.0,0.0,0.0,1.0,0.0,0.0,0.0,0.0,0.0,0.0,0.0,0.0,0.0,0.0,0.0,0.0,0.0,0.0,0.0,0.0,0.0,0.0,1.0,1.0,0.0,0.0,0.0
