kbsooo/etri/hitl/h102_bad_axis_nullspace_assignment_hsjepa/h102_selected_cells.csv
candidate_id,flat_index,row,subject_id,sleep_date,lifelog_date,target,target_index,h057_prob,q061,cell_q061_gain,public_score,invariant_score,private_safe_score,latent_shortcut_energy,bad_pressure_rank,h068_cell_health,outside_h069_cell,outside_h070_cell,is_h050_null,source_count,source_weight,source_family_count,source_consensus,source_mean_move,source_action_delta,source_posterior_delta,hit_h071,hit_h074,hit_h076,hit_h079,h080_bad_same_raw,h080_bad_opp_raw,h080_bad_same_rank,h080_bad_opp_rank,h080_bad_margin_rank,h079_cell,h079_row,h079_role,h080_cell_score,h085_q,h085_q_move,h085_q_gain,h085_abs_q_move,h082_cell,h084_dark_cell,source_agrees_h085,h085_cell_score,q_hard,best_world_y,confidence,hard_gain,combined_score,hard_logit_delta,binary_shock,h086_resp_weight,h086_resp_lift,h086_resp_rank,h086_equation_alignment,h086_resp_action_score,hard_logit_move,hard_diag_gain,h088_prob,h088_logit_move,h088_active,h088_q_delta,h088_q_bad,h088_bad_rank,h088_move_abs_rank,h088_toxicity,h057_positive_weight,h057_positive_logit_move,h095_safe_cell_score,sleep_dow,lifelog_dow,date_gap_days,row_norm,row_sin1,row_cos1,row_sin3,row_cos3,subject_idx,within_subject_norm,subject_block_size,target_Q1,target_Q2,target_Q3,target_S1,target_S2,target_S3,target_S4,sleep_dow_0,lifelog_dow_0,sleep_dow_1,lifelog_dow_1,sleep_dow_2,lifelog_dow_2,sleep_dow_3,lifelog_dow_3,sleep_dow_4,lifelog_dow_4,sleep_dow_5,lifelog_dow_5,sleep_dow_6,lifelog_dow_6,is_q,is_s,is_subjective_quality,is_objective_stage,h057_h088_anti_conflict,h057_h088_same_conflict,conflict_strength,h097_gradient,h097_descent_logit_move,h097_counter_h088_move,h097_conflict_move,h097_positive_move,h097_cell_score,h098_frontier_cell_score,h099_route_move,h097_move_col,h099_action_id,h099_route_id,h099_route_name,h099_route_targets,basis_id,basis_spec,h100_direct_move,h102_direct_move
h102_shadow_margin_conflict_c96_r34_amp105_008a60e1,72,10,id01,2024-08-13,2024-08-12,Q3,2,0.6540271650616462,0.6541952273622312,6.241744099355628e-08,0.1664742857142857,0.602737142857143,0.2302518285714286,0.5890000000000001,0.4491428571428571,0.230052,1.0,1.0,0,0.0,0.0,0.0,0.0,0.0,0.0,0.0,0.0,0.0,0.0,0.0,0.0100850770282789,0.0408244641423714,0.4988571428571428,0.4182857142857142,0.4394285714285714,0.0,0.0,,-0.6395342857142857,0.6541978720697573,0.0007545083536356,5.860198104556958e-08,0.0007545083536356,0.0,0.0,0.0,0.0462374857142857,0.660758935028728,1,0.660758935028728,2.6109075210230136e-08,0.2374057142857142,0.0203862121377524,0.001085971111288,0.0005706359268388,0.9986128719680278,0.6548571428571428,0.3147640732580876,0.2738849142857143,0.029889488025075,0.0001004468135936,0.6540928845184623,0.0002904528282908,1.0,-4.00379900344916e-08,0.0,0.4542857142857143,0.444,0.4495714285714286,0.8768742857142858,-0.0095032758873225,-0.0067589714285714,1.0,0.0,1.0,0.040160642570281124,0.2496673968626068,0.968331653383204,0.6867513112135011,0.7268924518431438,0.0,0.38461538461538464,27.0,0.0,0.0,1.0,0.0,0.0,0.0,0.0,0.0,1.0,1.0,0.0,0.0,0.0,0.0,0.0,0.0,0.0,0.0,0.0,0.0,0.0,1.0,0.0,1.0,0.0,1.0,0.0,0.39421762530612253,-3.109827135981011e-05,0.4026647540694522,-0.0014173688180983805,-0.06353104889240023,-0.06353104889240023,0.2875056502857143,0.27865553142857147,-0.06353104889240023,h102_direct_move,r010_q3_s_stage_conflict_invert,r010_q3_s_stage,q3_s_stage,"Q3,S1,S2,S3,S4",basis_conflict_a052__r010_q3_s_stage_conflict_invert,basis_conflict_a052,-0.03303614542404812,-0.034687952695250525
h102_shadow_margin_conflict_c96_r34_amp105_008a60e1,249,35,id02,2024-09-03,2024-09-02,S2,4,0.8823122084998396,0.881625272331127,2.2683932919820293e-06,0.3141771428571429,0.3170571428571428,0.3076631428571429,0.5137285714285714,0.1785714285714285,0.362382,1.0,1.0,0,0.0,0.0,0.0,0.0,0.0,0.0,0.0,0.0,0.0,0.0,0.0,0.0,0.2800586053484107,0.1785714285714285,0.8428571428571429,0.844,0.0,0.0,,-0.5605257142857143,0.8815578212908938,-0.0072449921663491,2.4887918590454916e-06,0.0072449921663491,0.0,0.0,0.0,0.1059947428571428,0.8728222570809246,1,0.8728222570809246,1.6048527488541938e-07,0.6375885714285714,-0.0718540747710767,0.0025778289398956,0.0005714536940665,1.000043964616444,0.6754285714285714,0.6785783715599005,0.3989555428571429,-0.0883644115187145,0.0004239501228325,0.8792503666371515,-0.0291602558011754,1.0,2.2478691047267407e-05,2.2478691047267407e-05,0.9377142857142856,0.5857142857142857,0.7718571428571429,0.8785085714285715,0.0165103367476378,-0.0347169142857142,1.0,0.0,1.0,0.14056224899598393,0.7727602671207603,0.6346980144599881,0.4724395684796713,-0.8813630660146488,1.0,0.25806451612903225,32.0,0.0,0.0,0.0,0.0,1.0,0.0,0.0,0.0,1.0,1.0,0.0,0.0,0.0,0.0,0.0,0.0,0.0,0.0,0.0,0.0,0.0,0.0,1.0,0.0,1.0,1.0,0.0,0.6780831159183675,1.4379599740051708e-05,-0.194837533741155,0.14134529349827102,0.1100754843074986,0.1100754843074986,0.24646872228571431,0.25910259428571436,0.1100754843074986,h102_direct_move,r035_recovery_route_conflict_invert,r035_recovery_route,recovery_route,"Q1,S2,S3,S4",basis_conflict_a052__r035_recovery_route_conflict_invert,basis_conflict_a052,0.05723925183989927,0.06010121443189424
h102_shadow_margin_conflict_c96_r34_amp105_008a60e1,394,56,id02,2024-10-14,2024-10-13,Q3,2,0.7069956394747284,0.7081894374029917,3.4426032856638145e-06,0.31964,0.5154171428571428,0.2213924571428571,0.6876285714285715,0.548,0.3332165714285713,1.0,1.0,0,0.0,0.0,0.0,0.0,0.0,0.0,0.0,0.0,0.0,0.0,0.0,0.0367803263739192,0.03934489390002,0.672,0.4131428571428571,0.368,0.0,0.0,,-0.6593971428571429,0.7081753336653023,0.0057015383038324,3.0593224843444844e-06,0.0057015383038324,0.0,0.0,0.0,0.0495174285714285,0.713629090774197,1,0.713629090774197,5.580608700907642e-09,0.1772114285714286,-0.0098848687141418,0.0005605431876912,0.0005714496738913,1.0000369293098734,0.6748571428571428,0.3780880327563019,0.3411499428571428,0.0322384836720165,0.0001066845409199,0.7091946127024747,0.0106386996117656,1.0,-8.446723652744126e-07,0.0,0.4542857142857143,0.5057142857142857,0.4693714285714285,0.9061828571428572,-0.0421233523861583,-0.0053579428571428,0.0,6.0,1.0,0.2248995983935743,0.9875894586558354,0.15705750905917895,-0.8901457403773966,-0.4556759384562417,1.0,0.9354838709677419,32.0,0.0,0.0,1.0,0.0,0.0,0.0,0.0,1.0,0.0,0.0,0.0,0.0,0.0,0.0,0.0,0.0,0.0,0.0,0.0,0.0,1.0,1.0,0.0,1.0,0.0,1.0,0.0,0.42533634220408156,-3.116150024757437e-05,0.40339161215918584,-0.05186879702491882,-0.27473820399168614,-0.27473820399168614,0.26199918628571434,0.25314420571428575,-0.27473820399168614,h102_direct_move,r056_q3_s_stage_conflict_invert,r056_q3_s_stage,q3_s_stage,"Q3,S1,S2,S3,S4",basis_conflict_a052__r056_q3_s_stage_conflict_invert,basis_conflict_a052,-0.1428638660756768,-0.15000705937946066
h102_shadow_margin_conflict_c96_r34_amp105_008a60e1,548,78,id03,2024-10-06,2024-10-05,Q3,2,0.7936544401585863,0.7937688832623561,3.999282749411749e-08,0.1934914285714286,0.5812571428571428,0.1726038857142857,0.64,0.6131428571428571,0.2588342857142857,1.0,1.0,0,0.0,0.0,0.0,0.0,0.0,0.0,0.0,0.0,0.0,0.0,0.0,0.0424170946698951,0.0477365793334812,0.6982857142857143,0.4417142857142857,0.3754285714285714,0.0,0.0,,-0.6733800000000001,0.7937590193930218,0.0006387050392127,3.039021689854593e-08,0.0006387050392127,0.0,0.0,0.0,0.0145573142857142,0.7933361205125407,0,0.7933361205125407,3.993836410772035e-09,0.2115428571428571,-0.0093434113037451,0.000990806439708,0.0005752921861245,1.0067613257180117,0.7542857142857143,0.4067481407263825,0.3583275428571429,-0.0019426259365227,3.0924676153176733e-07,0.7936832301967062,0.0001758077772848,1.0,-1.5855042945212006e-08,0.0,0.4542857142857143,0.4428571428571428,0.4491428571428572,0.8736342857142857,-0.0074007853672224,-0.0359851428571428,6.0,5.0,1.0,0.3132530120481928,0.9220586030376136,-0.38705029720221723,-0.36953183094075726,0.929218072317565,2.0,0.95,21.0,0.0,0.0,1.0,0.0,0.0,0.0,0.0,0.0,0.0,0.0,0.0,0.0,0.0,0.0,0.0,0.0,0.0,0.0,1.0,1.0,0.0,1.0,0.0,1.0,0.0,1.0,0.0,0.39238659918367347,-3.026614230353823e-05,0.39305174166301265,-0.0008579175100449788,-0.04950176775980782,-0.04950176775980782,0.25518066285714286,0.24309862857142855,-0.04950176775980782,h102_direct_move,r078_q_subjective_conflict_invert,r078_q_subjective,q_subjective,"Q1,Q2,Q3",basis_conflict_a052__r078_q_subjective_conflict_invert,basis_conflict_a052,-0.02574091923510007,-0.027027965196855075
h102_shadow_margin_conflict_c96_r34_amp105_008a60e1,951,135,id06,2024-07-14,2024-07-13,S4,6,0.8326790220313127,0.833879711711521,5.183653563278767e-06,0.2921257142857143,0.4153771428571429,-0.1112793428571428,0.8874,0.9285714285714286,0.3429414857142857,1.0,1.0,0,0.0,0.0,0.0,0.0,0.0,0.0,0.0,0.0,0.0,0.0,0.0,0.3617674279706701,0.0,0.9582857142857144,0.0777142857142857,0.1788571428571428,0.0,0.0,,-0.7936942857142857,0.8337650677901544,0.0078153785157646,3.859087214619361e-06,0.0078153785157646,0.0,0.0,0.0,-0.0153674857142856,0.8312358502886998,1,0.8312358502886998,3.840924880026521e-07,0.6961371428571429,-0.0989839981964375,0.0011361898931917,0.0005810148178281,1.016775931199321,0.8325714285714285,0.5783184363674189,0.3844385142857142,-0.010322855520866,7.457335124527731e-06,0.8329793279449548,0.0021569871909787,1.0,-2.0186312811865115e-06,0.0,0.4542857142857143,0.4594285714285714,0.4581428571428572,0.9290628571428572,-0.0886611426755714,-0.0597717714285714,6.0,5.0,1.0,0.5421686746987951,-0.2618644849608063,-0.9651046531419334,-0.7137661126871386,-0.7003841348713511,5.0,0.30434782608695654,24.0,0.0,0.0,0.0,0.0,0.0,0.0,1.0,0.0,0.0,0.0,0.0,0.0,0.0,0.0,0.0,0.0,0.0,0.0,1.0,1.0,0.0,0.0,1.0,0.0,1.0,1.0,0.0,0.42564351183673477,2.0450299232601817e-05,-0.2735355762516674,-0.010525411472474492,-0.5324185666889959,-0.5324185666889959,0.3290954308571429,0.4147663657142857,-0.5324185666889959,h102_direct_move,r135_s14_edge_conflict_invert,r135_s14_edge,s14_edge,"S1,S4",basis_conflict_a052__r135_s14_edge_conflict_invert,basis_conflict_a052,-0.2768576546782779,-0.2907005374121918
h102_shadow_margin_conflict_c96_r34_amp105_008a60e1,1001,143,id06,2024-08-13,2024-08-12,Q1,0,0.2092269005697418,0.2089219578518885,2.8112041883243677e-07,0.2036971428571428,0.7239771428571429,0.4493369714285714,0.4697285714285715,0.1785714285714285,0.2708112,1.0,1.0,0,11.0,8.46508252903368,2.0,1.0,-0.001844088639247,-2.5733492812731393e-10,-2.811204188324367e-07,1.0,1.0,0.0,0.0,0.0,0.2475444819520837,0.1785714285714285,0.8182857142857143,0.8182857142857143,0.0,0.0,,0.5362942857142857,0.2088731251040907,-0.0021395802130861,3.443420287796428e-07,0.0021395802130861,0.0,0.0,1.0,0.2474148,0.1954998359663392,0,0.8045001640336608,2.029760534566282e-07,0.5569485714285715,-0.0679898442374993,0.0026140759999864,0.0005749680522457,1.006194091430059,0.748,0.6201089184571771,0.5372242285714286,-0.0850698678716392,0.0005789513017284,0.2002522879358252,-0.0551265446534379,1.0,0.0002292094574748,0.0002292094574748,0.9862857142857144,0.6948571428571428,0.8541142857142858,0.8878,0.0170800236341399,0.0637723428571428,1.0,0.0,1.0,0.5742971887550201,-0.4500514963711879,-0.8930026039234458,-0.9855293386108991,-0.16950493425609692,5.0,0.6521739130434783,24.0,1.0,0.0,0.0,0.0,0.0,0.0,0.0,0.0,1.0,1.0,0.0,0.0,0.0,0.0,0.0,0.0,0.0,0.0,0.0,0.0,0.0,1.0,0.0,1.0,0.0,1.0,0.0,0.758282662857143,6.542138367364244e-05,-0.7152795166654436,0.2627033420299245,0.11384126947922175,0.11384126947922175,0.4854993462857143,0.46207152000000007,0.11384126947922175,h102_direct_move,r143_nonq2_full_conflict_invert,r143_nonq2_full,nonq2_full,"Q1,Q3,S1,S2,S3,S4",basis_conflict_a052__r143_nonq2_full_conflict_invert,basis_conflict_a052,0.059197460129195315,0.06215733313565508
h102_shadow_margin_conflict_c96_r34_amp105_008a60e1,1003,143,id06,2024-08-13,2024-08-12,Q3,2,0.7974211568605402,0.7976028404050293,1.0219184443105437e-07,0.1975142857142857,0.7239771428571429,0.3612903428571428,0.4418571428571428,0.428,0.2734751428571428,1.0,1.0,0,9.0,6.528504425976319,2.0,1.0,0.0011250688438861,-5.3973778056587786e-11,-1.0219184443105437e-07,1.0,1.0,0.0,0.0,0.0036869899416043,0.2033244741112442,0.4194285714285714,0.7645714285714286,0.7622857142857142,0.0,0.0,,0.4938285714285715,0.7976486346250319,0.0014087668147091,1.4579317042517914e-07,0.0014087668147091,0.0,0.0,1.0,0.2141395999999999,0.8042915887861274,0,0.8042915887861274,6.427869809191278e-08,0.4171542857142857,0.038301195431796,0.0034032669145295,0.000583616319535,1.02132855918633,0.8502857142857143,0.3996342215272672,0.5556594285714285,0.0430822151337688,0.0001473572723578,0.801907638378985,0.02800623506122,1.0,5.662968595832041e-05,5.662968595832041e-05,0.9542857142857144,0.5817142857142857,0.7860285714285715,0.8718800000000001,-0.0047810197019728,0.0492705142857143,1.0,0.0,1.0,0.5742971887550201,-0.4500514963711879,-0.8930026039234458,-0.9855293386108991,-0.16950493425609692,5.0,0.6521739130434783,24.0,0.0,0.0,1.0,0.0,0.0,0.0,0.0,0.0,1.0,1.0,0.0,0.0,0.0,0.0,0.0,0.0,0.0,0.0,0.0,0.0,0.0,1.0,0.0,1.0,0.0,1.0,0.0,0.685322590857143,-1.9948874544850952e-05,0.2671565189126078,-0.13582200142770975,-0.03199412921449077,-0.03199412921449077,0.3641333394285714,0.32353276571428574,-0.03199412921449077,h102_direct_move,r143_nonq2_full_conflict_invert,r143_nonq2_full,nonq2_full,"Q1,Q3,S1,S2,S3,S4",basis_conflict_a052__r143_nonq2_full_conflict_invert,basis_conflict_a052,-0.0166369471915352,-0.01746879455111196
h102_shadow_margin_conflict_c96_r34_amp105_008a60e1,1010,144,id06,2024-08-14,2024-08-13,Q3,2,0.7530964107373385,0.7533060688078742,1.1822187706567187e-07,0.1906514285714285,0.670817142857143,0.3328430285714286,0.4842571428571429,0.4268571428571429,0.2659077142857142,1.0,1.0,0,3.0,1.4815760139224,1.0,1.0,0.0011278662604456,-5.3211147464858437e-11,-1.1822187706567182e-07,0.0,1.0,0.0,0.0,0.00365308581125,0.156435418150198,0.4182857142857142,0.6862857142857143,0.688,0.0,0.0,,0.4532971428571428,0.7533312901862517,0.0012635893748875,1.350275770084508e-07,0.0012635893748875,1.0,0.0,1.0,0.2487823428571428,0.7611739450510254,1,0.7611739450510254,4.467222197900529e-08,0.3201142857142857,0.029716187931472,0.0017199612737889,0.000627826127369,1.0986957228958183,0.9451428571428572,0.3740817901993886,0.643182742857143,0.0439311011078744,0.0001767593750644,0.7637201240802629,0.0579890534623943,1.0,0.0002959477991754,0.0002959477991754,0.992,0.7085714285714285,0.8645428571428572,0.919554285714286,-0.0458518275004828,0.1008794285714285,2.0,1.0,1.0,0.5783132530120482,-0.47243956847967067,-0.881363066014649,-0.9955262728085589,-0.09448513188803238,5.0,0.6956521739130435,24.0,0.0,0.0,1.0,0.0,0.0,0.0,0.0,0.0,0.0,0.0,1.0,1.0,0.0,0.0,0.0,0.0,0.0,0.0,0.0,0.0,0.0,1.0,0.0,1.0,0.0,1.0,0.0,0.794994089469388,3.431319528069757e-05,-0.43896680839638214,-0.27565958444418215,-0.2976515027567479,-0.2976515027567479,0.6618220228571429,0.7304870285714288,-0.2976515027567479,h102_direct_move,r144_q_subjective_conflict_invert,r144_q_subjective,q_subjective,"Q1,Q2,Q3",basis_conflict_a052__r144_q_subjective_conflict_invert,basis_conflict_a052,-0.1547787814335089,-0.16251772050518434
h102_shadow_margin_conflict_c96_r34_amp105_008a60e1,1025,146,id06,2024-08-20,2024-08-19,S1,3,0.8954549884000682,0.8959698352864354,1.417783483670387e-06,0.3377485714285714,0.7720971428571428,0.5372021142857144,0.4566714285714286,0.1785714285714285,0.3825,1.0,1.0,0,2.0,1.93657810305736,1.0,1.0,0.0055115996762786,-7.210063458333783e-09,-1.417783483614876e-06,1.0,0.0,0.0,0.0,0.0,0.1814867640869667,0.1785714285714285,0.7262857142857143,0.7297142857142858,0.0,0.0,,0.5688714285714286,0.8960266401379597,0.0061211893265373,1.5910230796167824e-06,0.0061211893265373,0.0,0.0,1.0,0.2748399428571428,0.9013371564884484,1,0.9013371564884484,9.526538141963833e-08,0.5840571428571429,0.0605883148573789,0.0025008685591644,0.0005691878083733,0.996078664653354,0.5982857142857143,0.5025209256459693,0.4072595428571429,0.0644567290925564,0.0001879499485854,0.8960564726868825,0.006441449137962,1.0,-1.7434042313135834e-06,0.0,0.4542857142857143,0.4811428571428571,0.4641428571428571,0.6506171428571429,-0.0038684142351774,0.1833594285714285,1.0,0.0,1.0,0.5863453815261044,-0.51629923627004,-0.8564082546466804,-0.9983886888289513,0.05674527309307293,5.0,0.782608695652174,24.0,0.0,0.0,0.0,1.0,0.0,0.0,0.0,0.0,1.0,1.0,0.0,0.0,0.0,0.0,0.0,0.0,0.0,0.0,0.0,0.0,0.0,0.0,1.0,0.0,1.0,1.0,0.0,0.3019792995918367,2.311259854675144e-06,-0.03171151838474567,-0.031423035355420986,-0.025890111491514354,-0.025890111491514354,0.4066379085714286,0.4251408571428571,-0.025890111491514354,h102_direct_move,r146_full_state_conflict_invert,r146_full_state,full_state,"Q1,Q2,Q3,S1,S2,S3,S4",basis_conflict_a052__r146_full_state_conflict_invert,basis_conflict_a052,-0.013462857975587465,-0.014136000874366839
h102_shadow_margin_conflict_c96_r34_amp105_008a60e1,1514,216,id09,2024-09-07,2024-09-06,Q3,2,0.561573107889705,0.562248903897868,9.275702976818678e-07,0.25832,0.7008571428571428,0.2927635428571428,0.5907428571428572,0.5051428571428571,0.3136194285714285,1.0,1.0,0,0.0,0.0,0.0,0.0,0.0,0.0,0.0,0.0,0.0,0.0,0.0,0.0151677844480334,0.0369358356834338,0.5434285714285715,0.4005714285714286,0.4154285714285714,0.0,0.0,,-0.6041628571428572,0.5622498281808038,0.0027490300676703,8.464062550839202e-07,0.0027490300676703,0.0,0.0,0.0,0.0773387428571428,0.5584891832055837,1,0.5584891832055837,5.1471516030221246e-08,0.3424457142857143,-0.0273122302451104,0.0040329429551092,0.0005749452512714,1.0061541897251,0.7474285714285714,0.254107815425712,0.4086269714285714,-0.0125161606129137,1.9304281964616088e-05,0.5618337337533557,0.0010586255517181,1.0,-5.784377883344405e-07,0.0,0.4542857142857143,0.452,0.4528285714285714,0.8854000000000001,-0.0147960696321967,0.0221749714285713,5.0,4.0,1.0,0.8674698795180723,-0.7397584510798205,0.6728725243729192,-0.599966101448695,-0.8000254227913349,8.0,0.5769230769230769,27.0,0.0,0.0,1.0,0.0,0.0,0.0,0.0,0.0,0.0,0.0,0.0,0.0,0.0,0.0,0.0,0.0,1.0,1.0,0.0,0.0,0.0,1.0,0.0,1.0,0.0,1.0,0.0,0.40093441714285716,-2.6228755098631548e-05,0.34520606131413945,-0.005165900821722029,-0.09872506143666655,-0.09872506143666655,0.2806737097142857,0.26142321142857144,-0.09872506143666655,h102_direct_move,r216_q_subjective_conflict_invert,r216_q_subjective,q_subjective,"Q1,Q2,Q3",basis_conflict_a052__r216_q_subjective_conflict_invert,basis_conflict_a052,-0.05133703194706661,-0.053903883544419946
h102_shadow_margin_conflict_c96_r34_amp105_008a60e1,1588,226,id09,2024-09-21,2024-09-20,S4,6,0.7104535414465696,0.7110198835302667,7.799049277501524e-07,0.2826114285714286,0.5007771428571429,0.3803166285714286,0.4467285714285715,0.1785714285714285,0.3474061714285714,1.0,1.0,0,2.0,1.93657810305736,1.0,1.0,0.0027547162616905,-1.664293927511782e-09,-7.799049277501525e-07,1.0,0.0,0.0,0.0,0.0,0.2177525377063177,0.1785714285714285,0.7822857142857143,0.7834285714285715,0.0,0.0,,0.50158,0.7110755884780996,0.0030258408548433,8.562511311094312e-07,0.0030258408548433,1.0,0.0,1.0,0.2848805142857142,0.7253842671965738,1,0.7253842671965738,2.206396430290567e-07,0.6813028571428571,0.0614132157370143,0.0049648432062501,0.0005549856304347,0.971224853260826,0.1394285714285714,0.8634167914483498,0.2099168,0.0737409588063007,0.0005475538557093,0.7158923589273024,0.0265888406197017,1.0,5.590302905544853e-05,5.590302905544853e-05,0.9537142857142856,0.5765714285714286,0.7840857142857143,0.8783542857142858,-0.0123277430692864,0.1520126857142857,5.0,4.0,1.0,0.9076305220883534,-0.5483371924577639,0.8362573308303713,-0.9855293386108988,-0.16950493425609892,8.0,0.9615384615384616,27.0,0.0,0.0,0.0,0.0,0.0,0.0,1.0,0.0,0.0,0.0,0.0,0.0,0.0,0.0,0.0,0.0,1.0,1.0,0.0,0.0,0.0,0.0,1.0,0.0,1.0,1.0,0.0,0.6887050475102041,2.9395634569415002e-05,-0.3829026077818813,-0.12902663288632812,-0.08233742194422898,-0.08233742194422898,0.6653106582857142,0.7385512114285714,-0.08233742194422898,h102_direct_move,r226_q3_s_stage_conflict_invert,r226_q3_s_stage,q3_s_stage,"Q3,S1,S2,S3,S4",basis_conflict_a052__r226_q3_s_stage_conflict_invert,basis_conflict_a052,-0.04281545941099907,-0.04495623238154902
h102_shadow_margin_conflict_c96_r34_amp105_008a60e1,23,3,id01,2024-08-03,2024-08-02,Q3,2,0.5825405612758282,0.5795370659761659,1.8534940263270627e-05,0.2811657142857143,0.6352171428571428,0.1250753999999999,0.8544285714285714,0.9097142857142856,0.3286348571428571,0.0,1.0,0,3.0,5.4,1.0,1.0,-0.0020563557839757,-1.3985871682512395e-09,-5.640630085346209e-06,0.0,0.0,0.0,1.0,0.127484423230084,0.0059622151491581,0.8485714285714285,0.2148571428571428,0.1788571428571428,1.0,1.0,episode_neighbor_q061,0.28076,0.5795635192393868,-0.0122295736452776,1.6570339673616097e-05,0.0122295736452776,1.0,0.0,1.0,0.1879783428571428,0.5577169744059128,0,0.5577169744059128,8.511330267661373e-11,0.1802285714285714,0.0011137372782469,0.0033986064699007,0.0005605465865673,0.9809565264928056,0.22,0.1387492598971923,0.2050615999999999,-0.1013098164667343,0.0012604154204444,0.5729004845201093,-0.0395164455506682,1.0,7.263366103893443e-05,7.263366103893443e-05,0.9571428571428572,0.6308571428571429,0.8040571428571429,0.9461771428571428,0.1024235537449813,0.0526738285714285,5.0,4.0,1.0,0.012048192771084338,0.0756287458844567,0.997136045279652,0.225155940522694,0.9743227403932134,0.0,0.11538461538461539,27.0,0.0,0.0,1.0,0.0,0.0,0.0,0.0,0.0,0.0,0.0,0.0,0.0,0.0,0.0,0.0,0.0,1.0,1.0,0.0,0.0,0.0,1.0,0.0,1.0,0.0,1.0,0.0,0.760780490122449,-1.461782808600078e-05,0.19798109253029106,0.1904796281519601,0.5951754951749221,0.5951754951749221,0.5332048411428572,0.5840420685714287,0.5951754951749221,h102_direct_move,r003_nonq2_full_positive_bridge,r003_nonq2_full,nonq2_full,"Q1,Q3,S1,S2,S3,S4",basis_nonq2_positive_a038__r003_nonq2_full_positive_bridge,basis_nonq2_positive_a038,0.1976,0.20748
h102_shadow_margin_conflict_c96_r34_amp105_008a60e1,24,3,id01,2024-08-03,2024-08-02,S1,3,0.8856649411247233,0.884269699592085,9.57829480535688e-06,0.3897885714285715,0.6352171428571428,0.0773217714285714,0.9170857142857144,0.872,0.3982313142857143,1.0,1.0,0,3.0,5.4,1.0,1.0,-0.0022843066139102,-1.023657469904827e-08,-2.9117981057794986e-06,0.0,0.0,0.0,1.0,0.2406994082492063,0.0,0.9257142857142856,0.0777142857142857,0.1788571428571428,1.0,1.0,episode_neighbor_q061,0.3248571428571428,0.8843445253579758,-0.0129744625034478,7.806096574636268e-06,0.0129744625034478,0.0,1.0,1.0,0.2032936,0.8820840042998885,1,0.8820840042998885,9.344356289733132e-08,0.4318628571428572,0.0561513585022945,0.0001448418096032,0.0005651349325084,0.9889861318897074,0.3668571428571429,0.7227631446137076,0.1976734857142857,-0.0348906338605639,6.274948159712412e-05,0.8838282129387657,-0.0180127622696133,1.0,-7.28027584134816e-06,0.0,0.4542857142857143,0.5417142857142857,0.4852285714285714,0.9233085714285716,0.0910419923628584,0.0897802285714285,5.0,4.0,1.0,0.012048192771084338,0.0756287458844567,0.997136045279652,0.225155940522694,0.9743227403932134,0.0,0.11538461538461539,27.0,0.0,0.0,0.0,1.0,0.0,0.0,0.0,0.0,0.0,0.0,0.0,0.0,0.0,0.0,0.0,0.0,1.0,1.0,0.0,0.0,0.0,0.0,1.0,0.0,1.0,1.0,0.0,0.44801569910204087,-1.0119879480059769e-05,0.1380094854029948,0.0876741122897773,0.5437414878833825,0.5437414878833825,0.3940981508571429,0.43306448000000003,0.5437414878833825,h102_direct_move,r003_nonq2_full_positive_bridge,r003_nonq2_full,nonq2_full,"Q1,Q3,S1,S2,S3,S4",basis_nonq2_positive_a038__r003_nonq2_full_positive_bridge,basis_nonq2_positive_a038,0.1976,0.20748
h102_shadow_margin_conflict_c96_r34_amp105_008a60e1,495,70,id03,2024-09-16,2024-09-15,S3,5,0.4339995467608516,0.432356369008125,5.497455235037307e-06,0.3251771428571428,0.6828971428571429,0.0974404857142856,0.8948,0.84,0.3792589714285714,1.0,1.0,0,3.0,5.4,1.0,1.0,-0.0011153743242252,-3.1667587096087123e-09,-1.6736124081780563e-06,0.0,0.0,0.0,1.0,0.1755262427634193,0.0,0.8954285714285715,0.0777142857142857,0.1788571428571428,1.0,1.0,episode_neighbor_q061,0.3184914285714285,0.4324045390961372,-0.006495975889984,4.713727674743318e-06,0.006495975889984,0.0,0.0,1.0,0.1380639428571428,0.4362151510812417,1,0.5637848489187582,2.42810440140853e-07,0.4231657142857142,0.0596993860989079,0.0007370478100822,0.0005856856978188,1.02494997118291,0.8657142857142858,0.4358312021880767,0.5033509714285717,0.0090142714560029,9.98797653928296e-06,0.4335600833741482,-0.0017892377075804,1.0,-2.460680098903545e-06,0.0,0.4542857142857143,0.4548571428571428,0.4573714285714285,0.9124171428571428,0.0506851146429049,0.081622857142857,0.0,6.0,1.0,0.28112449799196787,0.9809388143902331,-0.19431686088109762,-0.8327815731637613,0.553601708269484,2.0,0.55,21.0,0.0,0.0,0.0,0.0,0.0,1.0,0.0,1.0,0.0,0.0,0.0,0.0,0.0,0.0,0.0,0.0,0.0,0.0,0.0,0.0,1.0,0.0,1.0,0.0,1.0,1.0,0.0,0.4173135320816326,-6.01783520183376e-06,0.08240777424978175,0.008731011525022038,0.32684854215835973,0.32684854215835973,0.35884891428571425,0.38928577142857146,0.08240777424978175,h102_direct_move,r070_s23_core_frontier_descent,r070_s23_core,s23_core,"S2,S3",basis_objective_a042__r070_s23_core_frontier_descent,basis_objective_a042,0.034611265184908334,0.036341828444153755
h102_shadow_margin_conflict_c96_r34_amp105_008a60e1,773,110,id05,2024-10-02,2024-10-01,S1,3,0.3056001244245433,0.3110822546809208,7.057753952244283e-05,0.3760514285714286,0.2893571428571428,-0.1615444571428571,0.9791428571428572,0.976,0.4021014857142857,0.0,1.0,0,0.0,0.0,0.0,0.0,0.0,0.0,0.0,0.0,0.0,0.0,0.0,0.5338642750937583,0.0,0.9782857142857144,0.0777142857142857,0.1788571428571428,0.0,0.0,,-0.8408714285714286,0.3109228312939359,0.0249620044578845,6.0536909005648454e-05,0.0249620044578845,0.0,0.0,0.0,0.0106631142857142,0.3280865985574698,0,0.6719134014425301,7.07270156879589e-07,0.8127885714285715,-0.103914952574892,0.0046335205166585,0.0004988658735812,0.8730152787671973,0.0251428571428571,0.617569535666361,-0.0207438285714286,0.1039186479338416,0.0011757968820913,0.3104731064038094,0.0228621025454448,1.0,-6.606645263562694e-05,0.0,0.4542857142857143,0.5617142857142857,0.5061428571428572,0.9841714285714288,-0.207833600508734,-0.0541572571428571,2.0,1.0,1.0,0.44176706827309237,0.3577789366275641,-0.9338063142352645,0.8901457403773968,-0.45567593845624127,4.0,0.15,21.0,0.0,0.0,0.0,1.0,0.0,0.0,0.0,0.0,0.0,0.0,1.0,1.0,0.0,0.0,0.0,0.0,0.0,0.0,0.0,0.0,0.0,0.0,1.0,0.0,1.0,1.0,0.0,0.4981313387755104,1.6060172410964027e-05,-0.21692467541082458,-0.111103341767302,-0.8834516417206303,-0.8834516417206303,0.30853769600000003,0.4053762742857143,-0.21692467541082458,h102_direct_move,r110_s_stage_frontier_descent,r110_s_stage,s_stage,"S1,S2,S3,S4",basis_objective_a042__r110_s_stage_frontier_descent,basis_objective_a042,-0.09110836367254632,-0.09566378185617364
h102_shadow_margin_conflict_c96_r34_amp105_008a60e1,776,110,id05,2024-10-02,2024-10-01,S4,6,0.4438495786612846,0.4451675276483861,3.517651817719347e-06,0.2391714285714286,0.2893571428571428,-0.0912718571428571,0.8011428571428572,0.8748571428571429,0.3034004571428571,0.0,1.0,0,0.0,0.0,0.0,0.0,0.0,0.0,0.0,0.0,0.0,0.0,0.0,0.1517560969078651,0.0055488407941821,0.8748571428571429,0.2114285714285714,0.1788571428571428,0.0,0.0,,-0.8335457142857143,0.4451219697262338,0.0051530909657626,2.983565084324624e-06,0.0051530909657626,0.0,0.0,0.0,-0.068577,0.4632074008694939,0,0.536792599130506,7.647812904665928e-08,0.2794971428571428,0.0331756448528687,0.0011639351142216,0.0005573933773258,0.975438410320314,0.168,0.5618931275998716,-0.0022037142857142,0.0781161866856486,0.0007569947114121,0.4480957780680643,0.0171855610708425,1.0,1.46086126527889e-05,1.46086126527889e-05,0.9274285714285714,0.5394285714285715,0.7487999999999999,0.9094228571428572,-0.04494054183278,-0.1995107428571428,2.0,1.0,1.0,0.44176706827309237,0.3577789366275641,-0.9338063142352645,0.8901457403773968,-0.45567593845624127,4.0,0.15,21.0,0.0,0.0,0.0,0.0,0.0,0.0,1.0,0.0,0.0,0.0,1.0,1.0,0.0,0.0,0.0,0.0,0.0,0.0,0.0,0.0,0.0,0.0,1.0,0.0,1.0,1.0,0.0,0.6809758354285714,2.3908606913751862e-05,-0.3168546135305518,-0.08366711666358208,-0.2920816055350949,-0.2920816055350949,0.34890999542857143,0.47316624,-0.3168546135305518,h102_direct_move,r110_s_stage_frontier_descent,r110_s_stage,s_stage,"S1,S2,S3,S4",basis_objective_a042__r110_s_stage_frontier_descent,basis_objective_a042,-0.13307893768283174,-0.13973288456697333
h102_shadow_margin_conflict_c96_r34_amp105_008a60e1,958,136,id06,2024-07-16,2024-07-15,S4,6,0.8793211893789878,0.8800493904202091,2.5029338155957426e-06,0.3645828571428571,0.5588971428571429,0.1084819428571429,0.7967428571428572,0.7268571428571429,0.3787347428571428,1.0,1.0,0,0.0,0.0,0.0,0.0,0.0,0.0,0.0,0.0,0.0,0.0,0.0,0.1594115670323823,0.0,0.8822857142857143,0.0777142857142857,0.1788571428571428,0.0,0.0,,-0.7095342857142858,0.8799999511198453,0.0064120263061722,1.9788838113155016e-06,0.0064120263061722,0.0,0.0,0.0,0.0212581142857142,0.8834973597348148,1,0.8834973597348148,8.471331549768475e-09,0.3511542857142857,-0.0171551486596812,0.0031343608795367,0.0005683629451615,0.9946351540327674,0.5531428571428572,0.5888697722476787,0.1944567999999999,0.039956691866398,8.300913775149965e-05,0.8807134130136618,0.0131857083159114,1.0,2.441039736456041e-07,2.441039736456041e-07,0.9085714285714286,0.5165714285714286,0.7216285714285715,0.9087942857142858,-0.0571118405260793,-0.0966108571428571,1.0,0.0,1.0,0.5461847389558233,-0.2861316735085688,-0.9581903075147368,-0.7646910926171749,-0.6443970304648767,5.0,0.34782608695652173,24.0,0.0,0.0,0.0,0.0,0.0,0.0,1.0,0.0,1.0,1.0,0.0,0.0,0.0,0.0,0.0,0.0,0.0,0.0,0.0,0.0,0.0,0.0,1.0,0.0,1.0,1.0,0.0,0.6558119221224491,2.419542879919579e-05,-0.3203916011619167,-0.06425578616901453,-0.3647183835581913,-0.3647183835581913,0.37831752,0.47814422857142863,-0.3203916011619167,h102_direct_move,r136_s_stage_frontier_descent,r136_s_stage,s_stage,"S1,S2,S3,S4",basis_objective_a042__r136_s_stage_frontier_descent,basis_objective_a042,-0.134564472488005,-0.14129269611240525
h102_shadow_margin_conflict_c96_r34_amp105_008a60e1,979,139,id06,2024-07-19,2024-07-18,S4,6,0.8268174475003207,0.8280647752584297,5.443071396993293e-06,0.2987828571428571,0.5280971428571429,-0.0621637714285713,0.8908857142857144,0.8897142857142857,0.3496909714285714,1.0,1.0,0,0.0,0.0,0.0,0.0,0.0,0.0,0.0,0.0,0.0,0.0,0.0,0.3410531498239687,0.0,0.9548571428571428,0.0777142857142857,0.1788571428571428,0.0,0.0,,-0.7669400000000001,0.8279578930664663,0.0079853695822413,4.14051900110568e-06,0.0079853695822413,0.0,0.0,0.0,0.0013515428571428,0.8320067417020486,0,0.8320067417020486,8.242813150596908e-08,0.4974857142857143,-0.0463207552654163,0.0051338467753729,0.0005824135970977,1.0192237949209952,0.8422857142857143,0.7491083425639209,0.3983379428571428,0.0366790192570158,9.478581098798512e-05,0.8300902641257938,0.0230294411245872,1.0,1.1516764712005134e-05,1.1516764712005134e-05,0.9228571428571428,0.5622857142857143,0.7513428571428572,0.9256342857142856,-0.0829997745224322,-0.1207928,4.0,3.0,1.0,0.5582329317269076,-0.3577789366275639,-0.9338063142352645,-0.8901457403773956,-0.4556759384562435,5.0,0.4782608695652174,24.0,0.0,0.0,0.0,0.0,0.0,0.0,1.0,0.0,0.0,0.0,0.0,0.0,0.0,0.0,1.0,1.0,0.0,0.0,0.0,0.0,0.0,0.0,1.0,0.0,1.0,1.0,0.0,0.6954687088979592,3.104464685390306e-05,-0.40204790646756566,-0.11190977768611925,-0.5047176181878962,-0.5047176181878962,0.3851301234285714,0.4912916914285715,-0.40204790646756566,h102_direct_move,r139_s14_edge_frontier_descent,r139_s14_edge,s14_edge,"S1,S4",basis_objective_a042__r139_s14_edge_frontier_descent,basis_objective_a042,-0.16886012071637757,-0.17730312675219645
h102_shadow_margin_conflict_c96_r34_amp105_008a60e1,1151,164,id07,2024-07-26,2024-07-25,S1,3,0.9223507042282848,0.9216005296464892,3.917279624177095e-06,0.2585542857142857,0.5277371428571428,-0.1077577142857144,0.9476857142857142,0.9794285714285714,0.3269070857142857,1.0,1.0,0,4.0,7.150759261260218,1.0,1.0,-0.0046557360965975,-2.455648310831864e-09,-2.6763739925174846e-06,0.0,0.0,0.0,1.0,0.580049688553327,0.0,0.9822857142857144,0.0777142857142857,0.1788571428571428,1.0,1.0,seed_q061_companion,0.24256,0.9217729289840444,-0.0080398963166077,2.11564951174692e-06,0.0080398963166077,0.0,1.0,1.0,0.1396150285714285,0.934273302796362,1,0.934273302796362,1.2071833231409308e-06,0.8719085714285715,0.2506320694487556,0.0026125534551015,0.0005915360823307,1.035188144078876,0.8891428571428571,0.8372818556296139,0.4899545142857143,0.1795407734626453,0.0010428642033394,0.9220945637329848,-0.0035709979341165,1.0,-1.6061254654586854e-06,0.0,0.4542857142857143,0.4657142857142857,0.4590857142857142,0.9133771428571428,0.0710912959861103,0.0364342857142856,4.0,3.0,1.0,0.6586345381526104,-0.839699808785118,-0.5430508550092121,-0.15082429716137438,0.9885605855918884,6.0,0.41379310344827586,30.0,0.0,0.0,0.0,1.0,0.0,0.0,0.0,0.0,0.0,0.0,0.0,0.0,0.0,0.0,1.0,1.0,0.0,0.0,0.0,0.0,0.0,0.0,1.0,0.0,1.0,1.0,0.0,0.4193183980408162,-8.005438920559612e-06,0.10943500973277603,0.017424214036254278,0.44295294558679593,0.44295294558679593,0.3501708571428572,0.3923701142857143,0.10943500973277603,h102_direct_move,r164_s14_edge_frontier_descent,r164_s14_edge,s14_edge,"S1,S4",basis_objective_a042__r164_s14_edge_frontier_descent,basis_objective_a042,0.04596270408776593,0.04826083929215423
h102_shadow_margin_conflict_c96_r34_amp105_008a60e1,1154,164,id07,2024-07-26,2024-07-25,S4,6,0.3773264958983826,0.3806992444389726,2.417989854019975e-05,0.3498857142857143,0.5277371428571428,-0.0450253714285713,0.9542,0.92,0.3851811428571428,1.0,1.0,0,4.0,7.150759261260218,1.0,1.0,0.006397676751739,-1.1884740666293036e-08,-1.652587185190865e-05,0.0,0.0,0.0,1.0,0.3149601376641728,0.0,0.9497142857142856,0.0777142857142857,0.1788571428571428,1.0,1.0,seed_q061_companion,0.2868685714285713,0.3806108503006162,0.0139551743480836,2.086447315363671e-05,0.0139551743480836,0.0,1.0,1.0,0.2017081142857142,0.3827457929282127,0,0.6172542070717872,4.143843838059222e-07,0.6303542857142858,-0.0798121694974146,0.0046721907240113,0.0005578411478312,0.9762220087046362,0.1765714285714285,0.6369021237462911,0.1225257142857142,0.0230015601792245,6.238347097342611e-05,0.3820022291534626,0.0198530550945121,1.0,-1.8827635697604705e-05,0.0,0.4542857142857143,0.5508571428571428,0.4944,0.9444742857142856,-0.1028137296766391,0.088597257142857,4.0,3.0,1.0,0.6586345381526104,-0.839699808785118,-0.5430508550092121,-0.15082429716137438,0.9885605855918884,6.0,0.41379310344827586,30.0,0.0,0.0,0.0,0.0,0.0,0.0,1.0,0.0,0.0,0.0,0.0,0.0,0.0,0.0,1.0,1.0,0.0,0.0,0.0,0.0,0.0,0.0,1.0,0.0,1.0,1.0,0.0,0.4669480868571428,5.850902323660922e-06,-0.0801317459417611,-0.09657820774732631,-0.5968595574914758,-0.5968595574914758,0.349705504,0.39203521142857145,-0.0801317459417611,h102_direct_move,r164_s14_edge_frontier_descent,r164_s14_edge,s14_edge,"S1,S4",basis_objective_a042__r164_s14_edge_frontier_descent,basis_objective_a042,-0.033655333295539665,-0.03533809996031665
h102_shadow_margin_conflict_c96_r34_amp105_008a60e1,689,98,id04,2024-10-19,2024-10-18,S1,3,0.6371260254955748,0.6405330343175071,2.51376604938347e-05,0.2224685714285713,0.4586171428571429,0.0413004,0.7652857142857143,0.6982857142857143,0.3247446857142857,1.0,1.0,0,0.0,0.0,0.0,0.0,0.0,0.0,0.0,0.0,0.0,0.0,0.0,0.0999969057319737,0.0,0.8154285714285714,0.0777142857142857,0.1788571428571428,0.0,0.0,,-0.7547914285714286,0.6405000114407822,0.0146231119468513,2.2435790286601257e-05,0.0146231119468513,0.0,0.0,0.0,0.0546097142857142,0.6458406625928385,0,0.6458406625928385,2.652752376425061e-07,0.6229485714285715,-0.0646258238737329,0.0076759256074498,0.0005509684978578,0.9641948712512676,0.1045714285714285,-0.0194807088009702,-0.0150077714285714,0.037894021574039,0.0001648212272662,0.6414968295448158,0.0189548562062582,1.0,-2.2492975142118787e-05,0.0,0.4542857142857143,0.5468571428571428,0.4944,0.9422057142857144,-0.102519845447772,-0.0024486857142857,5.0,4.0,1.0,0.39357429718875503,0.6199605408122387,-0.7846329892604544,0.9067516281939827,0.4216651334501838,3.0,0.6923076923076923,27.0,0.0,0.0,0.0,1.0,0.0,0.0,0.0,0.0,0.0,0.0,0.0,0.0,0.0,0.0,0.0,0.0,1.0,1.0,0.0,0.0,0.0,0.0,1.0,0.0,1.0,1.0,0.0,0.46582650514285723,2.194044366159535e-05,-0.2923497273116655,-0.09223419251227838,-0.5955915930492218,-0.5955915930492218,0.368164096,0.4561278171428572,-0.09223419251227838,h102_direct_move,r098_full_state_counter_h088,r098_full_state,full_state,"Q1,Q2,Q3,S1,S2,S3,S4",basis_q2_counter_a050__r098_full_state_counter_h088,basis_q2_counter_a050,-0.04611709625613919,-0.04842295106894615
h102_shadow_margin_conflict_c96_r34_amp105_008a60e1,692,98,id04,2024-10-19,2024-10-18,S4,6,0.5214942199375637,0.5220806282002836,6.890459806063731e-07,0.1991714285714285,0.4586171428571429,0.1756905714285715,0.6144571428571429,0.6337142857142857,0.2882345142857143,1.0,1.0,0,0.0,0.0,0.0,0.0,0.0,0.0,0.0,0.0,0.0,0.0,0.0,0.0166549901710211,0.0640435912665656,0.56,0.4845714285714286,0.4805714285714286,0.0,0.0,,-0.6675114285714286,0.5220939306128404,0.0024034092933237,6.55804488269851e-07,0.0024034092933237,0.0,0.0,0.0,0.0311753714285714,0.5317358803323887,0,0.5317358803323887,1.616032067237963e-08,0.2549485714285714,0.0153557474784382,0.005842441771129,0.0005639505118782,0.9869133957869688,0.3177142857142857,0.3199408510132027,0.0963508571428571,0.041084505048586,0.0002103100861962,0.525141978301795,0.0146229027435558,1.0,1.7903928382079215e-05,1.7903928382079215e-05,0.932,0.5251428571428571,0.7487428571428572,0.8981142857142858,-0.0257287575701478,-0.0963236571428572,5.0,4.0,1.0,0.39357429718875503,0.6199605408122387,-0.7846329892604544,0.9067516281939827,0.4216651334501838,3.0,0.6923076923076923,27.0,0.0,0.0,0.0,0.0,0.0,0.0,1.0,0.0,0.0,0.0,0.0,0.0,0.0,0.0,0.0,0.0,1.0,1.0,0.0,0.0,0.0,0.0,1.0,0.0,1.0,1.0,0.0,0.6724566563265306,3.12372375914435e-05,-0.40426159357591074,-0.0712368798205084,-0.17055009356096082,-0.17055009356096082,0.42993552914285715,0.5486207771428572,-0.0712368798205084,h102_direct_move,r098_full_state_counter_h088,r098_full_state,full_state,"Q1,Q2,Q3,S1,S2,S3,S4",basis_q2_counter_a050__r098_full_state_counter_h088,basis_q2_counter_a050,-0.0356184399102542,-0.03739936190576691
h102_shadow_margin_conflict_c96_r34_amp105_008a60e1,1045,149,id06,2024-08-23,2024-08-22,Q3,2,0.777022604386795,0.7775838198432127,9.094835523582034e-07,0.2452285714285714,0.7814571428571429,0.4971077142857142,0.4000428571428572,0.1785714285714285,0.3107259999999999,1.0,1.0,0,3.0,2.92297889772664,1.0,1.0,0.0032420924210658,-3.0912470261600027e-10,-9.094835523582034e-07,1.0,0.0,0.0,0.0,0.0,0.1858537712571854,0.1785714285714285,0.7365714285714285,0.7382857142857143,0.0,0.0,,0.5425857142857142,0.777621434684161,0.0034595987301866,9.42369486445216e-07,0.0034595987301866,1.0,0.0,1.0,0.3223777142857142,0.7843226988551862,1,0.7843226988551862,2.080929065056975e-08,0.3280685714285714,0.0209077107112019,0.0025222814853955,0.0005842227835737,1.0223898712541133,0.8554285714285714,0.4169258789693721,0.6592931428571428,0.0426381864788305,0.0001550105418142,0.7798976448569017,0.0166709572629812,1.0,1.4018847457442083e-05,1.4018847457442083e-05,0.9257142857142856,0.5342857142857143,0.7458,0.8927142857142858,-0.0217304757676286,0.1976028571428571,4.0,3.0,1.0,0.5983935742971888,-0.5795896608992377,-0.8149084764430339,-0.9599762679439228,0.2800813542249068,5.0,0.9130434782608695,24.0,0.0,0.0,1.0,0.0,0.0,0.0,0.0,0.0,0.0,0.0,0.0,0.0,0.0,0.0,1.0,1.0,0.0,0.0,0.0,0.0,0.0,1.0,0.0,1.0,0.0,1.0,0.0,0.6657863142857143,-3.285225473161321e-05,0.42263754415366706,-0.08117298106341536,-0.14445045894803332,-0.14445045894803332,0.5229324571428571,0.4611345714285715,-0.08117298106341536,h102_direct_move,r149_q_subjective_counter_h088,r149_q_subjective,q_subjective,"Q1,Q2,Q3",basis_q2_counter_a050__r149_q_subjective_counter_h088,basis_q2_counter_a050,-0.04058649053170768,-0.042615815058293066
h102_shadow_margin_conflict_c96_r34_amp105_008a60e1,1372,196,id08,2024-09-11,2024-09-10,Q1,0,0.4882210432658963,0.4914552980203778,2.0930443240918528e-05,0.3540228571428571,0.4665371428571429,0.0489138,0.8997142857142858,0.8354285714285714,0.3498260571428572,1.0,1.0,0,0.0,0.0,0.0,0.0,0.0,0.0,0.0,0.0,0.0,0.0,0.0,0.1782692747856165,0.0,0.8971428571428571,0.0777142857142857,0.1788571428571428,0.0,0.0,,-0.75626,0.4913993877565197,0.0127187032801039,1.8393801898830553e-05,0.0127187032801039,0.0,0.0,0.0,0.0430785142857143,0.5111605648331664,0,0.5111605648331664,3.610571893522563e-09,0.2521142857142857,-0.0071745605544646,0.0059461204084951,0.0005573665920388,0.9753915360679752,0.1674285714285714,0.4731065567580037,0.0345021714285714,0.0917742215092823,0.0010526383261484,0.4932668527561128,0.020190328732042,1.0,-1.323671713049368e-05,0.0,0.4542857142857143,0.5531428571428572,0.4917428571428572,0.94248,-0.0989487820637469,-0.0122389714285714,2.0,1.0,1.0,0.7871485943775101,-0.9728829847220697,0.23129785567159294,0.7646910926171744,-0.6443970304648774,7.0,0.7777777777777778,19.0,1.0,0.0,0.0,0.0,0.0,0.0,0.0,0.0,0.0,0.0,1.0,1.0,0.0,0.0,0.0,0.0,0.0,0.0,0.0,0.0,0.0,1.0,0.0,1.0,0.0,1.0,0.0,0.463457808,2.5154273804977494e-05,-0.33215063180423376,-0.09820844459805932,-0.5799463818447869,-0.5799463818447869,0.3645737074285714,0.4509399885714287,-0.09820844459805932,h102_direct_move,r196_q_subjective_counter_h088,r196_q_subjective,q_subjective,"Q1,Q2,Q3",basis_q2_counter_a050__r196_q_subjective_counter_h088,basis_q2_counter_a050,-0.04910422229902966,-0.05155943341398114
h102_shadow_margin_conflict_c96_r34_amp105_008a60e1,6,0,id01,2024-07-31,2024-07-30,S4,6,0.5084298008946088,0.5091151839410136,9.39781743536372e-07,0.1482914285714285,0.5036571428571429,0.3172508,0.4932142857142857,0.1785714285714285,0.2109301714285714,1.0,1.0,0,0.0,0.0,0.0,0.0,0.0,0.0,0.0,0.0,0.0,0.0,0.0,0.0,0.1856015952715258,0.1785714285714285,0.7337142857142858,0.736,0.0,0.0,,-0.5764400000000001,0.5091590368126224,0.0029178468760701,9.681413111195525e-07,0.0029178468760701,0.0,0.0,0.0,0.0957847428571428,0.5223625210687107,1,0.5223625210687107,1.4679869777242745e-07,0.45888,0.045010420029887,0.0019122187266242,0.000551777393772,0.9656104391011492,0.108,0.502682123038882,0.0688006857142857,0.0557874001969457,0.000388523838803,0.5114968799282992,0.0122732280433281,1.0,9.8721686667691e-06,9.8721686667691e-06,0.9217142857142856,0.5114285714285715,0.7346857142857143,0.8756571428571429,-0.0107769801670586,-0.0351718857142857,2.0,1.0,1.0,0.0,0.0,1.0,0.0,1.0,0.0,0.0,27.0,0.0,0.0,0.0,0.0,0.0,0.0,1.0,0.0,0.0,0.0,1.0,1.0,0.0,0.0,0.0,0.0,0.0,0.0,0.0,0.0,0.0,0.0,1.0,0.0,1.0,1.0,0.0,0.6433327934693878,2.0447627369697292e-05,-0.27350164828270496,-0.05982015307442786,-0.07201824949096935,-0.07201824949096935,0.45683021257142853,0.57472224,-0.07201824949096935,h102_direct_move,r000_recovery_route_hybrid_route,r000_recovery_route,recovery_route,"Q1,S2,S3,S4",basis_tail_hybrid_a044__r000_recovery_route_hybrid_route,basis_tail_hybrid_a044,-0.03168802977602651,-0.03327243126482784
h102_shadow_margin_conflict_c96_r34_amp105_008a60e1,430,61,id03,2024-08-19,2024-08-18,S1,3,0.604026200472991,0.6063203145082555,1.1009521791116583e-05,0.3882685714285714,0.3370171428571429,0.0654890857142856,0.7873714285714286,0.684,0.3785540571428571,1.0,1.0,0,2.0,3.6,1.0,1.0,0.0015362066480787,-1.5536985231547174e-08,-3.224407648327876e-06,0.0,0.0,0.0,1.0,0.1413535464138461,0.0,0.8622857142857143,0.0777142857142857,0.1788571428571428,1.0,1.0,episode_neighbor_q061,0.2920571428571428,0.6062772068060069,0.0094206983426381,9.646010099229052e-06,0.0094206983426381,0.0,0.0,1.0,0.1293242857142857,0.6074964413452014,0,0.6074964413452014,1.993561071952924e-07,0.5617257142857143,-0.0547320393639781,0.0057171149923169,0.0005577874228806,0.9761279900412012,0.1754285714285714,0.6818286787726655,0.0789510857142856,0.0145311845062691,2.520043883824652e-05,0.6055727655873674,0.0064705280329236,1.0,-9.560522133300609e-06,0.0,0.4542857142857143,0.4817142857142857,0.4683428571428571,0.9234285714285716,-0.0692632238702473,0.071728,0.0,6.0,1.0,0.24497991967871485,0.9995025893658627,0.03153686495097154,-0.995526272808559,-0.09448513188803126,2.0,0.1,21.0,0.0,0.0,0.0,1.0,0.0,0.0,0.0,1.0,0.0,0.0,0.0,0.0,0.0,0.0,0.0,0.0,0.0,0.0,0.0,0.0,1.0,0.0,1.0,0.0,1.0,1.0,0.0,0.43248117551020415,1.3481973213888438e-05,-0.18295733612000878,-0.03156479560760181,-0.43306345004195235,-0.43306345004195235,0.4015123657142857,0.4628745142857143,-0.43306345004195235,h102_direct_move,r061_s14_edge_hybrid_route,r061_s14_edge,s14_edge,"S1,S4",basis_tail_hybrid_a044__r061_s14_edge_hybrid_route,basis_tail_hybrid_a044,-0.19054791801845902,-0.200075313919382
h102_shadow_margin_conflict_c96_r34_amp105_008a60e1,709,101,id04,2024-10-24,2024-10-23,Q3,2,0.7836327157945403,0.7816403087409958,1.168048358135554e-05,0.2945942857142857,0.2851371428571428,-0.0389592857142857,0.8681142857142857,0.8714285714285714,0.3298454285714285,1.0,1.0,0,2.0,3.6,1.0,1.0,-0.0018739318165117,-2.0788438578953267e-09,-3.417201348221433e-06,0.0,0.0,0.0,1.0,0.112718299813475,0.0,0.832,0.0777142857142857,0.1788571428571428,1.0,1.0,episode_neighbor_q061,0.2406514285714286,0.7816747794316019,-0.0115100999444255,1.0263480041294848e-05,0.0115100999444255,0.0,0.0,1.0,0.1124250857142857,0.7718980136932254,1,0.7718980136932254,1.1513008166658741e-08,0.2556914285714285,0.0152658122683577,0.0015390106257885,0.0005705088303653,0.9983904531393746,0.6508571428571429,0.2558821948728312,0.3108536,-0.0679034849537958,0.0004009186480832,0.7766653504406011,-0.0406248364023611,1.0,6.144628333681901e-05,6.144628333681901e-05,0.9554285714285714,0.6377142857142857,0.8043142857142858,0.9279028571428573,0.0831692972221536,-0.0305217142857143,3.0,2.0,1.0,0.40562248995983935,0.5588441929376095,-0.8292726741066004,0.9784091409455726,0.2066774126849536,3.0,0.8076923076923077,27.0,0.0,0.0,1.0,0.0,0.0,0.0,0.0,0.0,0.0,0.0,0.0,0.0,1.0,1.0,0.0,0.0,0.0,0.0,0.0,0.0,0.0,1.0,0.0,1.0,0.0,1.0,0.0,0.7463255237551022,-1.7175824227346826e-05,0.23146706622775595,0.19568676269606256,0.5055628676337081,0.5055628676337081,0.4439353257142857,0.5417878857142857,0.5055628676337081,h102_direct_move,r101_q3_quality_hybrid_route,r101_q3_quality,q3_quality,Q3,basis_tail_hybrid_a044__r101_q3_quality_hybrid_route,basis_tail_hybrid_a044,0.22244766175883154,0.23357004484677313
h102_shadow_margin_conflict_c96_r34_amp105_008a60e1,1057,151,id06,2024-08-25,2024-08-24,Q1,0,0.2931200235617892,0.2940047415236316,1.8877009515527732e-06,0.3332628571428572,0.7080171428571429,0.4039888571428572,0.5654857142857144,0.4817142857142857,0.3501362285714285,1.0,1.0,0,1.0,0.98640079466928,1.0,1.0,0.0042660984396376,-1.0020730809332893e-08,-1.8877009515527732e-06,1.0,0.0,0.0,0.0,0.0069087191295727,0.1085813693048932,0.46,0.5908571428571429,0.5965714285714285,0.0,0.0,,0.4900228571428571,0.2940407945891951,0.0044397867305515,1.860541860465581e-06,0.0044397867305515,1.0,0.0,1.0,0.2779978285714286,0.3160480568474452,1,0.6839519431525547,3.543989487264716e-07,0.5622057142857144,0.0767078893727275,0.0004647756016188,0.000563572964942,0.9862526886486588,0.3011428571428571,0.2390823668590611,0.2716846857142857,0.1082853490810346,0.001250143867855,0.2941165191992924,0.0048045551477717,1.0,-2.0308272858926557e-06,0.0,0.4542857142857143,0.4708571428571428,0.4616571428571429,0.8998400000000001,-0.0315774597083073,0.2318356571428572,6.0,5.0,1.0,0.606425702811245,-0.6199605408122385,-0.7846329892604547,-0.9067516281939827,0.42166513345018397,5.0,1.0,24.0,1.0,0.0,0.0,0.0,0.0,0.0,0.0,0.0,0.0,0.0,0.0,0.0,0.0,0.0,0.0,0.0,0.0,0.0,1.0,1.0,0.0,1.0,0.0,1.0,0.0,1.0,0.0,0.4154175634285715,5.866731312910623e-06,-0.08034760082666736,-0.023441271858119145,-0.20829227426023572,-0.20829227426023572,0.5045695908571429,0.5168146514285716,-0.20829227426023572,h102_direct_move,r151_q1q3_subjective_hybrid_route,r151_q1q3_subjective,q1q3_subjective,"Q1,Q3",basis_tail_hybrid_a044__r151_q1q3_subjective_hybrid_route,basis_tail_hybrid_a044,-0.09164860067450371,-0.0962310307082289
h102_shadow_margin_conflict_c96_r34_amp105_008a60e1,1059,151,id06,2024-08-25,2024-08-24,Q3,2,0.8051517532471274,0.8030150111803502,1.4511156814778214e-05,0.3337085714285714,0.7080171428571429,0.1520932571428572,0.9230857142857144,0.956,0.3712925714285713,1.0,1.0,0,0.0,0.0,0.0,0.0,0.0,0.0,0.0,0.0,0.0,0.0,0.0,0.2271737521378298,0.006086278522037,0.9222857142857144,0.2165714285714285,0.1788571428571428,0.0,0.0,,-0.7007057142857144,0.8030744767017115,-0.0131878844070159,1.2479027673317766e-05,0.0131878844070159,0.0,0.0,0.0,0.0559329142857143,0.7951378735404838,1,0.7951378735404838,5.971452035624195e-08,0.3412114285714285,0.0361493346156307,0.0011125015620337,0.0005754150819827,1.0069763934697766,0.7565714285714286,0.4100387233611863,0.4062238857142857,-0.0626314127524751,0.0003155568519088,0.8043516859284782,-0.0050918768989105,1.0,-8.541367909509212e-06,0.0,0.4542857142857143,0.4731428571428571,0.4653428571428571,0.9348628571428572,0.0987807473681059,0.0054983999999999,6.0,5.0,1.0,0.606425702811245,-0.6199605408122385,-0.7846329892604547,-0.9067516281939827,0.42166513345018397,5.0,1.0,24.0,0.0,0.0,1.0,0.0,0.0,0.0,0.0,0.0,0.0,0.0,0.0,0.0,0.0,0.0,0.0,0.0,0.0,0.0,1.0,1.0,0.0,1.0,0.0,1.0,0.0,1.0,0.0,0.43503175297959185,-2.8971749483260638e-05,0.3779267154027928,0.02484254498759172,0.5791993703618314,0.5791993703618314,0.38407477257142864,0.4528153828571429,0.5791993703618314,h102_direct_move,r151_q1q3_subjective_hybrid_route,r151_q1q3_subjective,q1q3_subjective,"Q1,Q3",basis_tail_hybrid_a044__r151_q1q3_subjective_hybrid_route,basis_tail_hybrid_a044,0.2548477229592058,0.26759010910716613
h102_shadow_margin_conflict_c96_r34_amp105_008a60e1,1651,235,id10,2024-08-18,2024-08-17,S4,6,0.694453103168171,0.692519258745744,8.80199338038068e-06,0.3776571428571428,0.5461771428571429,0.3415236571428572,0.6363714285714286,0.4611428571428571,0.4020548571428571,1.0,1.0,0,2.0,1.93657810305736,1.0,1.0,-0.0090977656768795,-1.5153059639965843e-08,-8.80199338038068e-06,1.0,0.0,0.0,0.0,0.0110276853229074,0.0677063922836001,0.5062857142857143,0.4914285714285714,0.5017142857142857,0.0,0.0,,0.4595371428571428,0.6925099213035104,-0.0091416161705367,8.086645592486619e-06,0.0091416161705367,0.0,0.0,1.0,0.2121241714285714,0.6754200404553632,1,0.6754200404553632,1.202045296033204e-07,0.5109028571428571,-0.0441077522835295,0.0031533250328787,0.000571202273135,0.999603977986322,0.6685714285714286,0.3153677382338156,0.3956851428571428,-0.0882184933543172,0.0008441006167392,0.6903194737050469,-0.0194080685379496,1.0,2.349549555136221e-06,2.349549555136221e-06,0.9131428571428571,0.5491428571428572,0.7378571428571429,0.9048857142857144,0.0441107410707876,0.0760081142857142,6.0,5.0,1.0,0.9437751004016064,-0.3459690901728594,0.9382459105399628,-0.8722647273621952,0.4890339920698307,9.0,0.3333333333333333,22.0,0.0,0.0,0.0,0.0,0.0,0.0,1.0,0.0,0.0,0.0,0.0,0.0,0.0,0.0,0.0,0.0,0.0,0.0,1.0,1.0,0.0,0.0,1.0,0.0,1.0,1.0,0.0,0.6676763877551022,1.5597616829778983e-05,-0.2108665573741456,0.09442654091698835,0.28699245017925595,0.28699245017925595,0.3256062125714286,0.2888579542857143,0.28699245017925595,h102_direct_move,r235_recovery_route_hybrid_route,r235_recovery_route,recovery_route,"Q1,S2,S3,S4",basis_tail_hybrid_a044__r235_recovery_route_hybrid_route,basis_tail_hybrid_a044,0.12627667807887263,0.13259051198281627
h102_strict_null_conflict_c72_r28_amp100_624355db,72,10,id01,2024-08-13,2024-08-12,Q3,2,0.6540271650616462,0.6541952273622312,6.241744099355628e-08,0.1664742857142857,0.602737142857143,0.2302518285714286,0.5890000000000001,0.4491428571428571,0.230052,1.0,1.0,0,0.0,0.0,0.0,0.0,0.0,0.0,0.0,0.0,0.0,0.0,0.0,0.0100850770282789,0.0408244641423714,0.4988571428571428,0.4182857142857142,0.4394285714285714,0.0,0.0,,-0.6395342857142857,0.6541978720697573,0.0007545083536356,5.860198104556958e-08,0.0007545083536356,0.0,0.0,0.0,0.0462374857142857,0.660758935028728,1,0.660758935028728,2.6109075210230136e-08,0.2374057142857142,0.0203862121377524,0.001085971111288,0.0005706359268388,0.9986128719680278,0.6548571428571428,0.3147640732580876,0.2738849142857143,0.029889488025075,0.0001004468135936,0.6540928845184623,0.0002904528282908,1.0,-4.00379900344916e-08,0.0,0.4542857142857143,0.444,0.4495714285714286,0.8768742857142858,-0.0095032758873225,-0.0067589714285714,1.0,0.0,1.0,0.040160642570281124,0.2496673968626068,0.968331653383204,0.6867513112135011,0.7268924518431438,0.0,0.38461538461538464,27.0,0.0,0.0,1.0,0.0,0.0,0.0,0.0,0.0,1.0,1.0,0.0,0.0,0.0,0.0,0.0,0.0,0.0,0.0,0.0,0.0,0.0,1.0,0.0,1.0,0.0,1.0,0.0,0.39421762530612253,-3.109827135981011e-05,0.4026647540694522,-0.0014173688180983805,-0.06353104889240023,-0.06353104889240023,0.2875056502857143,0.27865553142857147,-0.06353104889240023,h102_direct_move,r010_q3_s_stage_conflict_invert,r010_q3_s_stage,q3_s_stage,"Q3,S1,S2,S3,S4",basis_conflict_a052__r010_q3_s_stage_conflict_invert,basis_conflict_a052,-0.03303614542404812,-0.03303614542404812
h102_strict_null_conflict_c72_r28_amp100_624355db,249,35,id02,2024-09-03,2024-09-02,S2,4,0.8823122084998396,0.881625272331127,2.2683932919820293e-06,0.3141771428571429,0.3170571428571428,0.3076631428571429,0.5137285714285714,0.1785714285714285,0.362382,1.0,1.0,0,0.0,0.0,0.0,0.0,0.0,0.0,0.0,0.0,0.0,0.0,0.0,0.0,0.2800586053484107,0.1785714285714285,0.8428571428571429,0.844,0.0,0.0,,-0.5605257142857143,0.8815578212908938,-0.0072449921663491,2.4887918590454916e-06,0.0072449921663491,0.0,0.0,0.0,0.1059947428571428,0.8728222570809246,1,0.8728222570809246,1.6048527488541938e-07,0.6375885714285714,-0.0718540747710767,0.0025778289398956,0.0005714536940665,1.000043964616444,0.6754285714285714,0.6785783715599005,0.3989555428571429,-0.0883644115187145,0.0004239501228325,0.8792503666371515,-0.0291602558011754,1.0,2.2478691047267407e-05,2.2478691047267407e-05,0.9377142857142856,0.5857142857142857,0.7718571428571429,0.8785085714285715,0.0165103367476378,-0.0347169142857142,1.0,0.0,1.0,0.14056224899598393,0.7727602671207603,0.6346980144599881,0.4724395684796713,-0.8813630660146488,1.0,0.25806451612903225,32.0,0.0,0.0,0.0,0.0,1.0,0.0,0.0,0.0,1.0,1.0,0.0,0.0,0.0,0.0,0.0,0.0,0.0,0.0,0.0,0.0,0.0,0.0,1.0,0.0,1.0,1.0,0.0,0.6780831159183675,1.4379599740051708e-05,-0.194837533741155,0.14134529349827102,0.1100754843074986,0.1100754843074986,0.24646872228571431,0.25910259428571436,0.1100754843074986,h102_direct_move,r035_recovery_route_conflict_invert,r035_recovery_route,recovery_route,"Q1,S2,S3,S4",basis_conflict_a052__r035_recovery_route_conflict_invert,basis_conflict_a052,0.05723925183989927,0.05723925183989927
h102_strict_null_conflict_c72_r28_amp100_624355db,394,56,id02,2024-10-14,2024-10-13,Q3,2,0.7069956394747284,0.7081894374029917,3.4426032856638145e-06,0.31964,0.5154171428571428,0.2213924571428571,0.6876285714285715,0.548,0.3332165714285713,1.0,1.0,0,0.0,0.0,0.0,0.0,0.0,0.0,0.0,0.0,0.0,0.0,0.0,0.0367803263739192,0.03934489390002,0.672,0.4131428571428571,0.368,0.0,0.0,,-0.6593971428571429,0.7081753336653023,0.0057015383038324,3.0593224843444844e-06,0.0057015383038324,0.0,0.0,0.0,0.0495174285714285,0.713629090774197,1,0.713629090774197,5.580608700907642e-09,0.1772114285714286,-0.0098848687141418,0.0005605431876912,0.0005714496738913,1.0000369293098734,0.6748571428571428,0.3780880327563019,0.3411499428571428,0.0322384836720165,0.0001066845409199,0.7091946127024747,0.0106386996117656,1.0,-8.446723652744126e-07,0.0,0.4542857142857143,0.5057142857142857,0.4693714285714285,0.9061828571428572,-0.0421233523861583,-0.0053579428571428,0.0,6.0,1.0,0.2248995983935743,0.9875894586558354,0.15705750905917895,-0.8901457403773966,-0.4556759384562417,1.0,0.9354838709677419,32.0,0.0,0.0,1.0,0.0,0.0,0.0,0.0,1.0,0.0,0.0,0.0,0.0,0.0,0.0,0.0,0.0,0.0,0.0,0.0,0.0,1.0,1.0,0.0,1.0,0.0,1.0,0.0,0.42533634220408156,-3.116150024757437e-05,0.40339161215918584,-0.05186879702491882,-0.27473820399168614,-0.27473820399168614,0.26199918628571434,0.25314420571428575,-0.27473820399168614,h102_direct_move,r056_q3_s_stage_conflict_invert,r056_q3_s_stage,q3_s_stage,"Q3,S1,S2,S3,S4",basis_conflict_a052__r056_q3_s_stage_conflict_invert,basis_conflict_a052,-0.1428638660756768,-0.1428638660756768
h102_strict_null_conflict_c72_r28_amp100_624355db,548,78,id03,2024-10-06,2024-10-05,Q3,2,0.7936544401585863,0.7937688832623561,3.999282749411749e-08,0.1934914285714286,0.5812571428571428,0.1726038857142857,0.64,0.6131428571428571,0.2588342857142857,1.0,1.0,0,0.0,0.0,0.0,0.0,0.0,0.0,0.0,0.0,0.0,0.0,0.0,0.0424170946698951,0.0477365793334812,0.6982857142857143,0.4417142857142857,0.3754285714285714,0.0,0.0,,-0.6733800000000001,0.7937590193930218,0.0006387050392127,3.039021689854593e-08,0.0006387050392127,0.0,0.0,0.0,0.0145573142857142,0.7933361205125407,0,0.7933361205125407,3.993836410772035e-09,0.2115428571428571,-0.0093434113037451,0.000990806439708,0.0005752921861245,1.0067613257180117,0.7542857142857143,0.4067481407263825,0.3583275428571429,-0.0019426259365227,3.0924676153176733e-07,0.7936832301967062,0.0001758077772848,1.0,-1.5855042945212006e-08,0.0,0.4542857142857143,0.4428571428571428,0.4491428571428572,0.8736342857142857,-0.0074007853672224,-0.0359851428571428,6.0,5.0,1.0,0.3132530120481928,0.9220586030376136,-0.38705029720221723,-0.36953183094075726,0.929218072317565,2.0,0.95,21.0,0.0,0.0,1.0,0.0,0.0,0.0,0.0,0.0,0.0,0.0,0.0,0.0,0.0,0.0,0.0,0.0,0.0,0.0,1.0,1.0,0.0,1.0,0.0,1.0,0.0,1.0,0.0,0.39238659918367347,-3.026614230353823e-05,0.39305174166301265,-0.0008579175100449788,-0.04950176775980782,-0.04950176775980782,0.25518066285714286,0.24309862857142855,-0.04950176775980782,h102_direct_move,r078_q_subjective_conflict_invert,r078_q_subjective,q_subjective,"Q1,Q2,Q3",basis_conflict_a052__r078_q_subjective_conflict_invert,basis_conflict_a052,-0.02574091923510007,-0.02574091923510007
h102_strict_null_conflict_c72_r28_amp100_624355db,951,135,id06,2024-07-14,2024-07-13,S4,6,0.8326790220313127,0.833879711711521,5.183653563278767e-06,0.2921257142857143,0.4153771428571429,-0.1112793428571428,0.8874,0.9285714285714286,0.3429414857142857,1.0,1.0,0,0.0,0.0,0.0,0.0,0.0,0.0,0.0,0.0,0.0,0.0,0.0,0.3617674279706701,0.0,0.9582857142857144,0.0777142857142857,0.1788571428571428,0.0,0.0,,-0.7936942857142857,0.8337650677901544,0.0078153785157646,3.859087214619361e-06,0.0078153785157646,0.0,0.0,0.0,-0.0153674857142856,0.8312358502886998,1,0.8312358502886998,3.840924880026521e-07,0.6961371428571429,-0.0989839981964375,0.0011361898931917,0.0005810148178281,1.016775931199321,0.8325714285714285,0.5783184363674189,0.3844385142857142,-0.010322855520866,7.457335124527731e-06,0.8329793279449548,0.0021569871909787,1.0,-2.0186312811865115e-06,0.0,0.4542857142857143,0.4594285714285714,0.4581428571428572,0.9290628571428572,-0.0886611426755714,-0.0597717714285714,6.0,5.0,1.0,0.5421686746987951,-0.2618644849608063,-0.9651046531419334,-0.7137661126871386,-0.7003841348713511,5.0,0.30434782608695654,24.0,0.0,0.0,0.0,0.0,0.0,0.0,1.0,0.0,0.0,0.0,0.0,0.0,0.0,0.0,0.0,0.0,0.0,0.0,1.0,1.0,0.0,0.0,1.0,0.0,1.0,1.0,0.0,0.42564351183673477,2.0450299232601817e-05,-0.2735355762516674,-0.010525411472474492,-0.5324185666889959,-0.5324185666889959,0.3290954308571429,0.4147663657142857,-0.5324185666889959,h102_direct_move,r135_s14_edge_conflict_invert,r135_s14_edge,s14_edge,"S1,S4",basis_conflict_a052__r135_s14_edge_conflict_invert,basis_conflict_a052,-0.2768576546782779,-0.2768576546782779
h102_strict_null_conflict_c72_r28_amp100_624355db,1001,143,id06,2024-08-13,2024-08-12,Q1,0,0.2092269005697418,0.2089219578518885,2.8112041883243677e-07,0.2036971428571428,0.7239771428571429,0.4493369714285714,0.4697285714285715,0.1785714285714285,0.2708112,1.0,1.0,0,11.0,8.46508252903368,2.0,1.0,-0.001844088639247,-2.5733492812731393e-10,-2.811204188324367e-07,1.0,1.0,0.0,0.0,0.0,0.2475444819520837,0.1785714285714285,0.8182857142857143,0.8182857142857143,0.0,0.0,,0.5362942857142857,0.2088731251040907,-0.0021395802130861,3.443420287796428e-07,0.0021395802130861,0.0,0.0,1.0,0.2474148,0.1954998359663392,0,0.8045001640336608,2.029760534566282e-07,0.5569485714285715,-0.0679898442374993,0.0026140759999864,0.0005749680522457,1.006194091430059,0.748,0.6201089184571771,0.5372242285714286,-0.0850698678716392,0.0005789513017284,0.2002522879358252,-0.0551265446534379,1.0,0.0002292094574748,0.0002292094574748,0.9862857142857144,0.6948571428571428,0.8541142857142858,0.8878,0.0170800236341399,0.0637723428571428,1.0,0.0,1.0,0.5742971887550201,-0.4500514963711879,-0.8930026039234458,-0.9855293386108991,-0.16950493425609692,5.0,0.6521739130434783,24.0,1.0,0.0,0.0,0.0,0.0,0.0,0.0,0.0,1.0,1.0,0.0,0.0,0.0,0.0,0.0,0.0,0.0,0.0,0.0,0.0,0.0,1.0,0.0,1.0,0.0,1.0,0.0,0.758282662857143,6.542138367364244e-05,-0.7152795166654436,0.2627033420299245,0.11384126947922175,0.11384126947922175,0.4854993462857143,0.46207152000000007,0.11384126947922175,h102_direct_move,r143_nonq2_full_conflict_invert,r143_nonq2_full,nonq2_full,"Q1,Q3,S1,S2,S3,S4",basis_conflict_a052__r143_nonq2_full_conflict_invert,basis_conflict_a052,0.059197460129195315,0.059197460129195315
h102_strict_null_conflict_c72_r28_amp100_624355db,1003,143,id06,2024-08-13,2024-08-12,Q3,2,0.7974211568605402,0.7976028404050293,1.0219184443105437e-07,0.1975142857142857,0.7239771428571429,0.3612903428571428,0.4418571428571428,0.428,0.2734751428571428,1.0,1.0,0,9.0,6.528504425976319,2.0,1.0,0.0011250688438861,-5.3973778056587786e-11,-1.0219184443105437e-07,1.0,1.0,0.0,0.0,0.0036869899416043,0.2033244741112442,0.4194285714285714,0.7645714285714286,0.7622857142857142,0.0,0.0,,0.4938285714285715,0.7976486346250319,0.0014087668147091,1.4579317042517914e-07,0.0014087668147091,0.0,0.0,1.0,0.2141395999999999,0.8042915887861274,0,0.8042915887861274,6.427869809191278e-08,0.4171542857142857,0.038301195431796,0.0034032669145295,0.000583616319535,1.02132855918633,0.8502857142857143,0.3996342215272672,0.5556594285714285,0.0430822151337688,0.0001473572723578,0.801907638378985,0.02800623506122,1.0,5.662968595832041e-05,5.662968595832041e-05,0.9542857142857144,0.5817142857142857,0.7860285714285715,0.8718800000000001,-0.0047810197019728,0.0492705142857143,1.0,0.0,1.0,0.5742971887550201,-0.4500514963711879,-0.8930026039234458,-0.9855293386108991,-0.16950493425609692,5.0,0.6521739130434783,24.0,0.0,0.0,1.0,0.0,0.0,0.0,0.0,0.0,1.0,1.0,0.0,0.0,0.0,0.0,0.0,0.0,0.0,0.0,0.0,0.0,0.0,1.0,0.0,1.0,0.0,1.0,0.0,0.685322590857143,-1.9948874544850952e-05,0.2671565189126078,-0.13582200142770975,-0.03199412921449077,-0.03199412921449077,0.3641333394285714,0.32353276571428574,-0.03199412921449077,h102_direct_move,r143_nonq2_full_conflict_invert,r143_nonq2_full,nonq2_full,"Q1,Q3,S1,S2,S3,S4",basis_conflict_a052__r143_nonq2_full_conflict_invert,basis_conflict_a052,-0.0166369471915352,-0.0166369471915352
h102_strict_null_conflict_c72_r28_amp100_624355db,1010,144,id06,2024-08-14,2024-08-13,Q3,2,0.7530964107373385,0.7533060688078742,1.1822187706567187e-07,0.1906514285714285,0.670817142857143,0.3328430285714286,0.4842571428571429,0.4268571428571429,0.2659077142857142,1.0,1.0,0,3.0,1.4815760139224,1.0,1.0,0.0011278662604456,-5.3211147464858437e-11,-1.1822187706567182e-07,0.0,1.0,0.0,0.0,0.00365308581125,0.156435418150198,0.4182857142857142,0.6862857142857143,0.688,0.0,0.0,,0.4532971428571428,0.7533312901862517,0.0012635893748875,1.350275770084508e-07,0.0012635893748875,1.0,0.0,1.0,0.2487823428571428,0.7611739450510254,1,0.7611739450510254,4.467222197900529e-08,0.3201142857142857,0.029716187931472,0.0017199612737889,0.000627826127369,1.0986957228958183,0.9451428571428572,0.3740817901993886,0.643182742857143,0.0439311011078744,0.0001767593750644,0.7637201240802629,0.0579890534623943,1.0,0.0002959477991754,0.0002959477991754,0.992,0.7085714285714285,0.8645428571428572,0.919554285714286,-0.0458518275004828,0.1008794285714285,2.0,1.0,1.0,0.5783132530120482,-0.47243956847967067,-0.881363066014649,-0.9955262728085589,-0.09448513188803238,5.0,0.6956521739130435,24.0,0.0,0.0,1.0,0.0,0.0,0.0,0.0,0.0,0.0,0.0,1.0,1.0,0.0,0.0,0.0,0.0,0.0,0.0,0.0,0.0,0.0,1.0,0.0,1.0,0.0,1.0,0.0,0.794994089469388,3.431319528069757e-05,-0.43896680839638214,-0.27565958444418215,-0.2976515027567479,-0.2976515027567479,0.6618220228571429,0.7304870285714288,-0.2976515027567479,h102_direct_move,r144_q_subjective_conflict_invert,r144_q_subjective,q_subjective,"Q1,Q2,Q3",basis_conflict_a052__r144_q_subjective_conflict_invert,basis_conflict_a052,-0.1547787814335089,-0.1547787814335089
h102_strict_null_conflict_c72_r28_amp100_624355db,1514,216,id09,2024-09-07,2024-09-06,Q3,2,0.561573107889705,0.562248903897868,9.275702976818678e-07,0.25832,0.7008571428571428,0.2927635428571428,0.5907428571428572,0.5051428571428571,0.3136194285714285,1.0,1.0,0,0.0,0.0,0.0,0.0,0.0,0.0,0.0,0.0,0.0,0.0,0.0,0.0151677844480334,0.0369358356834338,0.5434285714285715,0.4005714285714286,0.4154285714285714,0.0,0.0,,-0.6041628571428572,0.5622498281808038,0.0027490300676703,8.464062550839202e-07,0.0027490300676703,0.0,0.0,0.0,0.0773387428571428,0.5584891832055837,1,0.5584891832055837,5.1471516030221246e-08,0.3424457142857143,-0.0273122302451104,0.0040329429551092,0.0005749452512714,1.0061541897251,0.7474285714285714,0.254107815425712,0.4086269714285714,-0.0125161606129137,1.9304281964616088e-05,0.5618337337533557,0.0010586255517181,1.0,-5.784377883344405e-07,0.0,0.4542857142857143,0.452,0.4528285714285714,0.8854000000000001,-0.0147960696321967,0.0221749714285713,5.0,4.0,1.0,0.8674698795180723,-0.7397584510798205,0.6728725243729192,-0.599966101448695,-0.8000254227913349,8.0,0.5769230769230769,27.0,0.0,0.0,1.0,0.0,0.0,0.0,0.0,0.0,0.0,0.0,0.0,0.0,0.0,0.0,0.0,0.0,1.0,1.0,0.0,0.0,0.0,1.0,0.0,1.0,0.0,1.0,0.0,0.40093441714285716,-2.6228755098631548e-05,0.34520606131413945,-0.005165900821722029,-0.09872506143666655,-0.09872506143666655,0.2806737097142857,0.26142321142857144,-0.09872506143666655,h102_direct_move,r216_q_subjective_conflict_invert,r216_q_subjective,q_subjective,"Q1,Q2,Q3",basis_conflict_a052__r216_q_subjective_conflict_invert,basis_conflict_a052,-0.05133703194706661,-0.05133703194706661
h102_strict_null_conflict_c72_r28_amp100_624355db,1588,226,id09,2024-09-21,2024-09-20,S4,6,0.7104535414465696,0.7110198835302667,7.799049277501524e-07,0.2826114285714286,0.5007771428571429,0.3803166285714286,0.4467285714285715,0.1785714285714285,0.3474061714285714,1.0,1.0,0,2.0,1.93657810305736,1.0,1.0,0.0027547162616905,-1.664293927511782e-09,-7.799049277501525e-07,1.0,0.0,0.0,0.0,0.0,0.2177525377063177,0.1785714285714285,0.7822857142857143,0.7834285714285715,0.0,0.0,,0.50158,0.7110755884780996,0.0030258408548433,8.562511311094312e-07,0.0030258408548433,1.0,0.0,1.0,0.2848805142857142,0.7253842671965738,1,0.7253842671965738,2.206396430290567e-07,0.6813028571428571,0.0614132157370143,0.0049648432062501,0.0005549856304347,0.971224853260826,0.1394285714285714,0.8634167914483498,0.2099168,0.0737409588063007,0.0005475538557093,0.7158923589273024,0.0265888406197017,1.0,5.590302905544853e-05,5.590302905544853e-05,0.9537142857142856,0.5765714285714286,0.7840857142857143,0.8783542857142858,-0.0123277430692864,0.1520126857142857,5.0,4.0,1.0,0.9076305220883534,-0.5483371924577639,0.8362573308303713,-0.9855293386108988,-0.16950493425609892,8.0,0.9615384615384616,27.0,0.0,0.0,0.0,0.0,0.0,0.0,1.0,0.0,0.0,0.0,0.0,0.0,0.0,0.0,0.0,0.0,1.0,1.0,0.0,0.0,0.0,0.0,1.0,0.0,1.0,1.0,0.0,0.6887050475102041,2.9395634569415002e-05,-0.3829026077818813,-0.12902663288632812,-0.08233742194422898,-0.08233742194422898,0.6653106582857142,0.7385512114285714,-0.08233742194422898,h102_direct_move,r226_q3_s_stage_conflict_invert,r226_q3_s_stage,q3_s_stage,"Q3,S1,S2,S3,S4",basis_conflict_a052__r226_q3_s_stage_conflict_invert,basis_conflict_a052,-0.04281545941099907,-0.04281545941099907
h102_strict_null_conflict_c72_r28_amp100_624355db,23,3,id01,2024-08-03,2024-08-02,Q3,2,0.5825405612758282,0.5795370659761659,1.8534940263270627e-05,0.2811657142857143,0.6352171428571428,0.1250753999999999,0.8544285714285714,0.9097142857142856,0.3286348571428571,0.0,1.0,0,3.0,5.4,1.0,1.0,-0.0020563557839757,-1.3985871682512395e-09,-5.640630085346209e-06,0.0,0.0,0.0,1.0,0.127484423230084,0.0059622151491581,0.8485714285714285,0.2148571428571428,0.1788571428571428,1.0,1.0,episode_neighbor_q061,0.28076,0.5795635192393868,-0.0122295736452776,1.6570339673616097e-05,0.0122295736452776,1.0,0.0,1.0,0.1879783428571428,0.5577169744059128,0,0.5577169744059128,8.511330267661373e-11,0.1802285714285714,0.0011137372782469,0.0033986064699007,0.0005605465865673,0.9809565264928056,0.22,0.1387492598971923,0.2050615999999999,-0.1013098164667343,0.0012604154204444,0.5729004845201093,-0.0395164455506682,1.0,7.263366103893443e-05,7.263366103893443e-05,0.9571428571428572,0.6308571428571429,0.8040571428571429,0.9461771428571428,0.1024235537449813,0.0526738285714285,5.0,4.0,1.0,0.012048192771084338,0.0756287458844567,0.997136045279652,0.225155940522694,0.9743227403932134,0.0,0.11538461538461539,27.0,0.0,0.0,1.0,0.0,0.0,0.0,0.0,0.0,0.0,0.0,0.0,0.0,0.0,0.0,0.0,0.0,1.0,1.0,0.0,0.0,0.0,1.0,0.0,1.0,0.0,1.0,0.0,0.760780490122449,-1.461782808600078e-05,0.19798109253029106,0.1904796281519601,0.5951754951749221,0.5951754951749221,0.5332048411428572,0.5840420685714287,0.5951754951749221,h102_direct_move,r003_nonq2_full_positive_bridge,r003_nonq2_full,nonq2_full,"Q1,Q3,S1,S2,S3,S4",basis_nonq2_positive_a038__r003_nonq2_full_positive_bridge,basis_nonq2_positive_a038,0.1976,0.1976
h102_strict_null_conflict_c72_r28_amp100_624355db,24,3,id01,2024-08-03,2024-08-02,S1,3,0.8856649411247233,0.884269699592085,9.57829480535688e-06,0.3897885714285715,0.6352171428571428,0.0773217714285714,0.9170857142857144,0.872,0.3982313142857143,1.0,1.0,0,3.0,5.4,1.0,1.0,-0.0022843066139102,-1.023657469904827e-08,-2.9117981057794986e-06,0.0,0.0,0.0,1.0,0.2406994082492063,0.0,0.9257142857142856,0.0777142857142857,0.1788571428571428,1.0,1.0,episode_neighbor_q061,0.3248571428571428,0.8843445253579758,-0.0129744625034478,7.806096574636268e-06,0.0129744625034478,0.0,1.0,1.0,0.2032936,0.8820840042998885,1,0.8820840042998885,9.344356289733132e-08,0.4318628571428572,0.0561513585022945,0.0001448418096032,0.0005651349325084,0.9889861318897074,0.3668571428571429,0.7227631446137076,0.1976734857142857,-0.0348906338605639,6.274948159712412e-05,0.8838282129387657,-0.0180127622696133,1.0,-7.28027584134816e-06,0.0,0.4542857142857143,0.5417142857142857,0.4852285714285714,0.9233085714285716,0.0910419923628584,0.0897802285714285,5.0,4.0,1.0,0.012048192771084338,0.0756287458844567,0.997136045279652,0.225155940522694,0.9743227403932134,0.0,0.11538461538461539,27.0,0.0,0.0,0.0,1.0,0.0,0.0,0.0,0.0,0.0,0.0,0.0,0.0,0.0,0.0,0.0,0.0,1.0,1.0,0.0,0.0,0.0,0.0,1.0,0.0,1.0,1.0,0.0,0.44801569910204087,-1.0119879480059769e-05,0.1380094854029948,0.0876741122897773,0.5437414878833825,0.5437414878833825,0.3940981508571429,0.43306448000000003,0.5437414878833825,h102_direct_move,r003_nonq2_full_positive_bridge,r003_nonq2_full,nonq2_full,"Q1,Q3,S1,S2,S3,S4",basis_nonq2_positive_a038__r003_nonq2_full_positive_bridge,basis_nonq2_positive_a038,0.1976,0.1976
h102_strict_null_conflict_c72_r28_amp100_624355db,495,70,id03,2024-09-16,2024-09-15,S3,5,0.4339995467608516,0.432356369008125,5.497455235037307e-06,0.3251771428571428,0.6828971428571429,0.0974404857142856,0.8948,0.84,0.3792589714285714,1.0,1.0,0,3.0,5.4,1.0,1.0,-0.0011153743242252,-3.1667587096087123e-09,-1.6736124081780563e-06,0.0,0.0,0.0,1.0,0.1755262427634193,0.0,0.8954285714285715,0.0777142857142857,0.1788571428571428,1.0,1.0,episode_neighbor_q061,0.3184914285714285,0.4324045390961372,-0.006495975889984,4.713727674743318e-06,0.006495975889984,0.0,0.0,1.0,0.1380639428571428,0.4362151510812417,1,0.5637848489187582,2.42810440140853e-07,0.4231657142857142,0.0596993860989079,0.0007370478100822,0.0005856856978188,1.02494997118291,0.8657142857142858,0.4358312021880767,0.5033509714285717,0.0090142714560029,9.98797653928296e-06,0.4335600833741482,-0.0017892377075804,1.0,-2.460680098903545e-06,0.0,0.4542857142857143,0.4548571428571428,0.4573714285714285,0.9124171428571428,0.0506851146429049,0.081622857142857,0.0,6.0,1.0,0.28112449799196787,0.9809388143902331,-0.19431686088109762,-0.8327815731637613,0.553601708269484,2.0,0.55,21.0,0.0,0.0,0.0,0.0,0.0,1.0,0.0,1.0,0.0,0.0,0.0,0.0,0.0,0.0,0.0,0.0,0.0,0.0,0.0,0.0,1.0,0.0,1.0,0.0,1.0,1.0,0.0,0.4173135320816326,-6.01783520183376e-06,0.08240777424978175,0.008731011525022038,0.32684854215835973,0.32684854215835973,0.35884891428571425,0.38928577142857146,0.08240777424978175,h102_direct_move,r070_s23_core_frontier_descent,r070_s23_core,s23_core,"S2,S3",basis_objective_a042__r070_s23_core_frontier_descent,basis_objective_a042,0.034611265184908334,0.034611265184908334
h102_strict_null_conflict_c72_r28_amp100_624355db,773,110,id05,2024-10-02,2024-10-01,S1,3,0.3056001244245433,0.3110822546809208,7.057753952244283e-05,0.3760514285714286,0.2893571428571428,-0.1615444571428571,0.9791428571428572,0.976,0.4021014857142857,0.0,1.0,0,0.0,0.0,0.0,0.0,0.0,0.0,0.0,0.0,0.0,0.0,0.0,0.5338642750937583,0.0,0.9782857142857144,0.0777142857142857,0.1788571428571428,0.0,0.0,,-0.8408714285714286,0.3109228312939359,0.0249620044578845,6.0536909005648454e-05,0.0249620044578845,0.0,0.0,0.0,0.0106631142857142,0.3280865985574698,0,0.6719134014425301,7.07270156879589e-07,0.8127885714285715,-0.103914952574892,0.0046335205166585,0.0004988658735812,0.8730152787671973,0.0251428571428571,0.617569535666361,-0.0207438285714286,0.1039186479338416,0.0011757968820913,0.3104731064038094,0.0228621025454448,1.0,-6.606645263562694e-05,0.0,0.4542857142857143,0.5617142857142857,0.5061428571428572,0.9841714285714288,-0.207833600508734,-0.0541572571428571,2.0,1.0,1.0,0.44176706827309237,0.3577789366275641,-0.9338063142352645,0.8901457403773968,-0.45567593845624127,4.0,0.15,21.0,0.0,0.0,0.0,1.0,0.0,0.0,0.0,0.0,0.0,0.0,1.0,1.0,0.0,0.0,0.0,0.0,0.0,0.0,0.0,0.0,0.0,0.0,1.0,0.0,1.0,1.0,0.0,0.4981313387755104,1.6060172410964027e-05,-0.21692467541082458,-0.111103341767302,-0.8834516417206303,-0.8834516417206303,0.30853769600000003,0.4053762742857143,-0.21692467541082458,h102_direct_move,r110_s_stage_frontier_descent,r110_s_stage,s_stage,"S1,S2,S3,S4",basis_objective_a042__r110_s_stage_frontier_descent,basis_objective_a042,-0.09110836367254632,-0.09110836367254632
h102_strict_null_conflict_c72_r28_amp100_624355db,776,110,id05,2024-10-02,2024-10-01,S4,6,0.4438495786612846,0.4451675276483861,3.517651817719347e-06,0.2391714285714286,0.2893571428571428,-0.0912718571428571,0.8011428571428572,0.8748571428571429,0.3034004571428571,0.0,1.0,0,0.0,0.0,0.0,0.0,0.0,0.0,0.0,0.0,0.0,0.0,0.0,0.1517560969078651,0.0055488407941821,0.8748571428571429,0.2114285714285714,0.1788571428571428,0.0,0.0,,-0.8335457142857143,0.4451219697262338,0.0051530909657626,2.983565084324624e-06,0.0051530909657626,0.0,0.0,0.0,-0.068577,0.4632074008694939,0,0.536792599130506,7.647812904665928e-08,0.2794971428571428,0.0331756448528687,0.0011639351142216,0.0005573933773258,0.975438410320314,0.168,0.5618931275998716,-0.0022037142857142,0.0781161866856486,0.0007569947114121,0.4480957780680643,0.0171855610708425,1.0,1.46086126527889e-05,1.46086126527889e-05,0.9274285714285714,0.5394285714285715,0.7487999999999999,0.9094228571428572,-0.04494054183278,-0.1995107428571428,2.0,1.0,1.0,0.44176706827309237,0.3577789366275641,-0.9338063142352645,0.8901457403773968,-0.45567593845624127,4.0,0.15,21.0,0.0,0.0,0.0,0.0,0.0,0.0,1.0,0.0,0.0,0.0,1.0,1.0,0.0,0.0,0.0,0.0,0.0,0.0,0.0,0.0,0.0,0.0,1.0,0.0,1.0,1.0,0.0,0.6809758354285714,2.3908606913751862e-05,-0.3168546135305518,-0.08366711666358208,-0.2920816055350949,-0.2920816055350949,0.34890999542857143,0.47316624,-0.3168546135305518,h102_direct_move,r110_s_stage_frontier_descent,r110_s_stage,s_stage,"S1,S2,S3,S4",basis_objective_a042__r110_s_stage_frontier_descent,basis_objective_a042,-0.13307893768283174,-0.13307893768283174
h102_strict_null_conflict_c72_r28_amp100_624355db,958,136,id06,2024-07-16,2024-07-15,S4,6,0.8793211893789878,0.8800493904202091,2.5029338155957426e-06,0.3645828571428571,0.5588971428571429,0.1084819428571429,0.7967428571428572,0.7268571428571429,0.3787347428571428,1.0,1.0,0,0.0,0.0,0.0,0.0,0.0,0.0,0.0,0.0,0.0,0.0,0.0,0.1594115670323823,0.0,0.8822857142857143,0.0777142857142857,0.1788571428571428,0.0,0.0,,-0.7095342857142858,0.8799999511198453,0.0064120263061722,1.9788838113155016e-06,0.0064120263061722,0.0,0.0,0.0,0.0212581142857142,0.8834973597348148,1,0.8834973597348148,8.471331549768475e-09,0.3511542857142857,-0.0171551486596812,0.0031343608795367,0.0005683629451615,0.9946351540327674,0.5531428571428572,0.5888697722476787,0.1944567999999999,0.039956691866398,8.300913775149965e-05,0.8807134130136618,0.0131857083159114,1.0,2.441039736456041e-07,2.441039736456041e-07,0.9085714285714286,0.5165714285714286,0.7216285714285715,0.9087942857142858,-0.0571118405260793,-0.0966108571428571,1.0,0.0,1.0,0.5461847389558233,-0.2861316735085688,-0.9581903075147368,-0.7646910926171749,-0.6443970304648767,5.0,0.34782608695652173,24.0,0.0,0.0,0.0,0.0,0.0,0.0,1.0,0.0,1.0,1.0,0.0,0.0,0.0,0.0,0.0,0.0,0.0,0.0,0.0,0.0,0.0,0.0,1.0,0.0,1.0,1.0,0.0,0.6558119221224491,2.419542879919579e-05,-0.3203916011619167,-0.06425578616901453,-0.3647183835581913,-0.3647183835581913,0.37831752,0.47814422857142863,-0.3203916011619167,h102_direct_move,r136_s_stage_frontier_descent,r136_s_stage,s_stage,"S1,S2,S3,S4",basis_objective_a042__r136_s_stage_frontier_descent,basis_objective_a042,-0.134564472488005,-0.134564472488005
h102_strict_null_conflict_c72_r28_amp100_624355db,979,139,id06,2024-07-19,2024-07-18,S4,6,0.8268174475003207,0.8280647752584297,5.443071396993293e-06,0.2987828571428571,0.5280971428571429,-0.0621637714285713,0.8908857142857144,0.8897142857142857,0.3496909714285714,1.0,1.0,0,0.0,0.0,0.0,0.0,0.0,0.0,0.0,0.0,0.0,0.0,0.0,0.3410531498239687,0.0,0.9548571428571428,0.0777142857142857,0.1788571428571428,0.0,0.0,,-0.7669400000000001,0.8279578930664663,0.0079853695822413,4.14051900110568e-06,0.0079853695822413,0.0,0.0,0.0,0.0013515428571428,0.8320067417020486,0,0.8320067417020486,8.242813150596908e-08,0.4974857142857143,-0.0463207552654163,0.0051338467753729,0.0005824135970977,1.0192237949209952,0.8422857142857143,0.7491083425639209,0.3983379428571428,0.0366790192570158,9.478581098798512e-05,0.8300902641257938,0.0230294411245872,1.0,1.1516764712005134e-05,1.1516764712005134e-05,0.9228571428571428,0.5622857142857143,0.7513428571428572,0.9256342857142856,-0.0829997745224322,-0.1207928,4.0,3.0,1.0,0.5582329317269076,-0.3577789366275639,-0.9338063142352645,-0.8901457403773956,-0.4556759384562435,5.0,0.4782608695652174,24.0,0.0,0.0,0.0,0.0,0.0,0.0,1.0,0.0,0.0,0.0,0.0,0.0,0.0,0.0,1.0,1.0,0.0,0.0,0.0,0.0,0.0,0.0,1.0,0.0,1.0,1.0,0.0,0.6954687088979592,3.104464685390306e-05,-0.40204790646756566,-0.11190977768611925,-0.5047176181878962,-0.5047176181878962,0.3851301234285714,0.4912916914285715,-0.40204790646756566,h102_direct_move,r139_s14_edge_frontier_descent,r139_s14_edge,s14_edge,"S1,S4",basis_objective_a042__r139_s14_edge_frontier_descent,basis_objective_a042,-0.16886012071637757,-0.16886012071637757
h102_strict_null_conflict_c72_r28_amp100_624355db,1025,146,id06,2024-08-20,2024-08-19,S1,3,0.8954549884000682,0.8959698352864354,1.417783483670387e-06,0.3377485714285714,0.7720971428571428,0.5372021142857144,0.4566714285714286,0.1785714285714285,0.3825,1.0,1.0,0,2.0,1.93657810305736,1.0,1.0,0.0055115996762786,-7.210063458333783e-09,-1.417783483614876e-06,1.0,0.0,0.0,0.0,0.0,0.1814867640869667,0.1785714285714285,0.7262857142857143,0.7297142857142858,0.0,0.0,,0.5688714285714286,0.8960266401379597,0.0061211893265373,1.5910230796167824e-06,0.0061211893265373,0.0,0.0,1.0,0.2748399428571428,0.9013371564884484,1,0.9013371564884484,9.526538141963833e-08,0.5840571428571429,0.0605883148573789,0.0025008685591644,0.0005691878083733,0.996078664653354,0.5982857142857143,0.5025209256459693,0.4072595428571429,0.0644567290925564,0.0001879499485854,0.8960564726868825,0.006441449137962,1.0,-1.7434042313135834e-06,0.0,0.4542857142857143,0.4811428571428571,0.4641428571428571,0.6506171428571429,-0.0038684142351774,0.1833594285714285,1.0,0.0,1.0,0.5863453815261044,-0.51629923627004,-0.8564082546466804,-0.9983886888289513,0.05674527309307293,5.0,0.782608695652174,24.0,0.0,0.0,0.0,1.0,0.0,0.0,0.0,0.0,1.0,1.0,0.0,0.0,0.0,0.0,0.0,0.0,0.0,0.0,0.0,0.0,0.0,0.0,1.0,0.0,1.0,1.0,0.0,0.3019792995918367,2.311259854675144e-06,-0.03171151838474567,-0.031423035355420986,-0.025890111491514354,-0.025890111491514354,0.4066379085714286,0.4251408571428571,-0.03171151838474567,h102_direct_move,r146_s_stage_frontier_descent,r146_s_stage,s_stage,"S1,S2,S3,S4",basis_objective_a042__r146_s_stage_frontier_descent,basis_objective_a042,-0.01331883772159318,-0.01331883772159318
h102_strict_null_conflict_c72_r28_amp100_624355db,1151,164,id07,2024-07-26,2024-07-25,S1,3,0.9223507042282848,0.9216005296464892,3.917279624177095e-06,0.2585542857142857,0.5277371428571428,-0.1077577142857144,0.9476857142857142,0.9794285714285714,0.3269070857142857,1.0,1.0,0,4.0,7.150759261260218,1.0,1.0,-0.0046557360965975,-2.455648310831864e-09,-2.6763739925174846e-06,0.0,0.0,0.0,1.0,0.580049688553327,0.0,0.9822857142857144,0.0777142857142857,0.1788571428571428,1.0,1.0,seed_q061_companion,0.24256,0.9217729289840444,-0.0080398963166077,2.11564951174692e-06,0.0080398963166077,0.0,1.0,1.0,0.1396150285714285,0.934273302796362,1,0.934273302796362,1.2071833231409308e-06,0.8719085714285715,0.2506320694487556,0.0026125534551015,0.0005915360823307,1.035188144078876,0.8891428571428571,0.8372818556296139,0.4899545142857143,0.1795407734626453,0.0010428642033394,0.9220945637329848,-0.0035709979341165,1.0,-1.6061254654586854e-06,0.0,0.4542857142857143,0.4657142857142857,0.4590857142857142,0.9133771428571428,0.0710912959861103,0.0364342857142856,4.0,3.0,1.0,0.6586345381526104,-0.839699808785118,-0.5430508550092121,-0.15082429716137438,0.9885605855918884,6.0,0.41379310344827586,30.0,0.0,0.0,0.0,1.0,0.0,0.0,0.0,0.0,0.0,0.0,0.0,0.0,0.0,0.0,1.0,1.0,0.0,0.0,0.0,0.0,0.0,0.0,1.0,0.0,1.0,1.0,0.0,0.4193183980408162,-8.005438920559612e-06,0.10943500973277603,0.017424214036254278,0.44295294558679593,0.44295294558679593,0.3501708571428572,0.3923701142857143,0.10943500973277603,h102_direct_move,r164_s14_edge_frontier_descent,r164_s14_edge,s14_edge,"S1,S4",basis_objective_a042__r164_s14_edge_frontier_descent,basis_objective_a042,0.04596270408776593,0.04596270408776593
h102_strict_null_conflict_c72_r28_amp100_624355db,1154,164,id07,2024-07-26,2024-07-25,S4,6,0.3773264958983826,0.3806992444389726,2.417989854019975e-05,0.3498857142857143,0.5277371428571428,-0.0450253714285713,0.9542,0.92,0.3851811428571428,1.0,1.0,0,4.0,7.150759261260218,1.0,1.0,0.006397676751739,-1.1884740666293036e-08,-1.652587185190865e-05,0.0,0.0,0.0,1.0,0.3149601376641728,0.0,0.9497142857142856,0.0777142857142857,0.1788571428571428,1.0,1.0,seed_q061_companion,0.2868685714285713,0.3806108503006162,0.0139551743480836,2.086447315363671e-05,0.0139551743480836,0.0,1.0,1.0,0.2017081142857142,0.3827457929282127,0,0.6172542070717872,4.143843838059222e-07,0.6303542857142858,-0.0798121694974146,0.0046721907240113,0.0005578411478312,0.9762220087046362,0.1765714285714285,0.6369021237462911,0.1225257142857142,0.0230015601792245,6.238347097342611e-05,0.3820022291534626,0.0198530550945121,1.0,-1.8827635697604705e-05,0.0,0.4542857142857143,0.5508571428571428,0.4944,0.9444742857142856,-0.1028137296766391,0.088597257142857,4.0,3.0,1.0,0.6586345381526104,-0.839699808785118,-0.5430508550092121,-0.15082429716137438,0.9885605855918884,6.0,0.41379310344827586,30.0,0.0,0.0,0.0,0.0,0.0,0.0,1.0,0.0,0.0,0.0,0.0,0.0,0.0,0.0,1.0,1.0,0.0,0.0,0.0,0.0,0.0,0.0,1.0,0.0,1.0,1.0,0.0,0.4669480868571428,5.850902323660922e-06,-0.0801317459417611,-0.09657820774732631,-0.5968595574914758,-0.5968595574914758,0.349705504,0.39203521142857145,-0.0801317459417611,h102_direct_move,r164_s14_edge_frontier_descent,r164_s14_edge,s14_edge,"S1,S4",basis_objective_a042__r164_s14_edge_frontier_descent,basis_objective_a042,-0.033655333295539665,-0.033655333295539665
h102_strict_null_conflict_c72_r28_amp100_624355db,689,98,id04,2024-10-19,2024-10-18,S1,3,0.6371260254955748,0.6405330343175071,2.51376604938347e-05,0.2224685714285713,0.4586171428571429,0.0413004,0.7652857142857143,0.6982857142857143,0.3247446857142857,1.0,1.0,0,0.0,0.0,0.0,0.0,0.0,0.0,0.0,0.0,0.0,0.0,0.0,0.0999969057319737,0.0,0.8154285714285714,0.0777142857142857,0.1788571428571428,0.0,0.0,,-0.7547914285714286,0.6405000114407822,0.0146231119468513,2.2435790286601257e-05,0.0146231119468513,0.0,0.0,0.0,0.0546097142857142,0.6458406625928385,0,0.6458406625928385,2.652752376425061e-07,0.6229485714285715,-0.0646258238737329,0.0076759256074498,0.0005509684978578,0.9641948712512676,0.1045714285714285,-0.0194807088009702,-0.0150077714285714,0.037894021574039,0.0001648212272662,0.6414968295448158,0.0189548562062582,1.0,-2.2492975142118787e-05,0.0,0.4542857142857143,0.5468571428571428,0.4944,0.9422057142857144,-0.102519845447772,-0.0024486857142857,5.0,4.0,1.0,0.39357429718875503,0.6199605408122387,-0.7846329892604544,0.9067516281939827,0.4216651334501838,3.0,0.6923076923076923,27.0,0.0,0.0,0.0,1.0,0.0,0.0,0.0,0.0,0.0,0.0,0.0,0.0,0.0,0.0,0.0,0.0,1.0,1.0,0.0,0.0,0.0,0.0,1.0,0.0,1.0,1.0,0.0,0.46582650514285723,2.194044366159535e-05,-0.2923497273116655,-0.09223419251227838,-0.5955915930492218,-0.5955915930492218,0.368164096,0.4561278171428572,-0.09223419251227838,h102_direct_move,r098_full_state_counter_h088,r098_full_state,full_state,"Q1,Q2,Q3,S1,S2,S3,S4",basis_q2_counter_a050__r098_full_state_counter_h088,basis_q2_counter_a050,-0.04611709625613919,-0.04611709625613919
h102_strict_null_conflict_c72_r28_amp100_624355db,692,98,id04,2024-10-19,2024-10-18,S4,6,0.5214942199375637,0.5220806282002836,6.890459806063731e-07,0.1991714285714285,0.4586171428571429,0.1756905714285715,0.6144571428571429,0.6337142857142857,0.2882345142857143,1.0,1.0,0,0.0,0.0,0.0,0.0,0.0,0.0,0.0,0.0,0.0,0.0,0.0,0.0166549901710211,0.0640435912665656,0.56,0.4845714285714286,0.4805714285714286,0.0,0.0,,-0.6675114285714286,0.5220939306128404,0.0024034092933237,6.55804488269851e-07,0.0024034092933237,0.0,0.0,0.0,0.0311753714285714,0.5317358803323887,0,0.5317358803323887,1.616032067237963e-08,0.2549485714285714,0.0153557474784382,0.005842441771129,0.0005639505118782,0.9869133957869688,0.3177142857142857,0.3199408510132027,0.0963508571428571,0.041084505048586,0.0002103100861962,0.525141978301795,0.0146229027435558,1.0,1.7903928382079215e-05,1.7903928382079215e-05,0.932,0.5251428571428571,0.7487428571428572,0.8981142857142858,-0.0257287575701478,-0.0963236571428572,5.0,4.0,1.0,0.39357429718875503,0.6199605408122387,-0.7846329892604544,0.9067516281939827,0.4216651334501838,3.0,0.6923076923076923,27.0,0.0,0.0,0.0,0.0,0.0,0.0,1.0,0.0,0.0,0.0,0.0,0.0,0.0,0.0,0.0,0.0,1.0,1.0,0.0,0.0,0.0,0.0,1.0,0.0,1.0,1.0,0.0,0.6724566563265306,3.12372375914435e-05,-0.40426159357591074,-0.0712368798205084,-0.17055009356096082,-0.17055009356096082,0.42993552914285715,0.5486207771428572,-0.0712368798205084,h102_direct_move,r098_full_state_counter_h088,r098_full_state,full_state,"Q1,Q2,Q3,S1,S2,S3,S4",basis_q2_counter_a050__r098_full_state_counter_h088,basis_q2_counter_a050,-0.0356184399102542,-0.0356184399102542
h102_strict_null_conflict_c72_r28_amp100_624355db,1372,196,id08,2024-09-11,2024-09-10,Q1,0,0.4882210432658963,0.4914552980203778,2.0930443240918528e-05,0.3540228571428571,0.4665371428571429,0.0489138,0.8997142857142858,0.8354285714285714,0.3498260571428572,1.0,1.0,0,0.0,0.0,0.0,0.0,0.0,0.0,0.0,0.0,0.0,0.0,0.0,0.1782692747856165,0.0,0.8971428571428571,0.0777142857142857,0.1788571428571428,0.0,0.0,,-0.75626,0.4913993877565197,0.0127187032801039,1.8393801898830553e-05,0.0127187032801039,0.0,0.0,0.0,0.0430785142857143,0.5111605648331664,0,0.5111605648331664,3.610571893522563e-09,0.2521142857142857,-0.0071745605544646,0.0059461204084951,0.0005573665920388,0.9753915360679752,0.1674285714285714,0.4731065567580037,0.0345021714285714,0.0917742215092823,0.0010526383261484,0.4932668527561128,0.020190328732042,1.0,-1.323671713049368e-05,0.0,0.4542857142857143,0.5531428571428572,0.4917428571428572,0.94248,-0.0989487820637469,-0.0122389714285714,2.0,1.0,1.0,0.7871485943775101,-0.9728829847220697,0.23129785567159294,0.7646910926171744,-0.6443970304648774,7.0,0.7777777777777778,19.0,1.0,0.0,0.0,0.0,0.0,0.0,0.0,0.0,0.0,0.0,1.0,1.0,0.0,0.0,0.0,0.0,0.0,0.0,0.0,0.0,0.0,1.0,0.0,1.0,0.0,1.0,0.0,0.463457808,2.5154273804977494e-05,-0.33215063180423376,-0.09820844459805932,-0.5799463818447869,-0.5799463818447869,0.3645737074285714,0.4509399885714287,-0.09820844459805932,h102_direct_move,r196_q_subjective_counter_h088,r196_q_subjective,q_subjective,"Q1,Q2,Q3",basis_q2_counter_a050__r196_q_subjective_counter_h088,basis_q2_counter_a050,-0.04910422229902966,-0.04910422229902966
h102_strict_null_conflict_c72_r28_amp100_624355db,6,0,id01,2024-07-31,2024-07-30,S4,6,0.5084298008946088,0.5091151839410136,9.39781743536372e-07,0.1482914285714285,0.5036571428571429,0.3172508,0.4932142857142857,0.1785714285714285,0.2109301714285714,1.0,1.0,0,0.0,0.0,0.0,0.0,0.0,0.0,0.0,0.0,0.0,0.0,0.0,0.0,0.1856015952715258,0.1785714285714285,0.7337142857142858,0.736,0.0,0.0,,-0.5764400000000001,0.5091590368126224,0.0029178468760701,9.681413111195525e-07,0.0029178468760701,0.0,0.0,0.0,0.0957847428571428,0.5223625210687107,1,0.5223625210687107,1.4679869777242745e-07,0.45888,0.045010420029887,0.0019122187266242,0.000551777393772,0.9656104391011492,0.108,0.502682123038882,0.0688006857142857,0.0557874001969457,0.000388523838803,0.5114968799282992,0.0122732280433281,1.0,9.8721686667691e-06,9.8721686667691e-06,0.9217142857142856,0.5114285714285715,0.7346857142857143,0.8756571428571429,-0.0107769801670586,-0.0351718857142857,2.0,1.0,1.0,0.0,0.0,1.0,0.0,1.0,0.0,0.0,27.0,0.0,0.0,0.0,0.0,0.0,0.0,1.0,0.0,0.0,0.0,1.0,1.0,0.0,0.0,0.0,0.0,0.0,0.0,0.0,0.0,0.0,0.0,1.0,0.0,1.0,1.0,0.0,0.6433327934693878,2.0447627369697292e-05,-0.27350164828270496,-0.05982015307442786,-0.07201824949096935,-0.07201824949096935,0.45683021257142853,0.57472224,-0.07201824949096935,h102_direct_move,r000_recovery_route_hybrid_route,r000_recovery_route,recovery_route,"Q1,S2,S3,S4",basis_tail_hybrid_a044__r000_recovery_route_hybrid_route,basis_tail_hybrid_a044,-0.03168802977602651,-0.03168802977602651
h102_strict_null_conflict_c72_r28_amp100_624355db,430,61,id03,2024-08-19,2024-08-18,S1,3,0.604026200472991,0.6063203145082555,1.1009521791116583e-05,0.3882685714285714,0.3370171428571429,0.0654890857142856,0.7873714285714286,0.684,0.3785540571428571,1.0,1.0,0,2.0,3.6,1.0,1.0,0.0015362066480787,-1.5536985231547174e-08,-3.224407648327876e-06,0.0,0.0,0.0,1.0,0.1413535464138461,0.0,0.8622857142857143,0.0777142857142857,0.1788571428571428,1.0,1.0,episode_neighbor_q061,0.2920571428571428,0.6062772068060069,0.0094206983426381,9.646010099229052e-06,0.0094206983426381,0.0,0.0,1.0,0.1293242857142857,0.6074964413452014,0,0.6074964413452014,1.993561071952924e-07,0.5617257142857143,-0.0547320393639781,0.0057171149923169,0.0005577874228806,0.9761279900412012,0.1754285714285714,0.6818286787726655,0.0789510857142856,0.0145311845062691,2.520043883824652e-05,0.6055727655873674,0.0064705280329236,1.0,-9.560522133300609e-06,0.0,0.4542857142857143,0.4817142857142857,0.4683428571428571,0.9234285714285716,-0.0692632238702473,0.071728,0.0,6.0,1.0,0.24497991967871485,0.9995025893658627,0.03153686495097154,-0.995526272808559,-0.09448513188803126,2.0,0.1,21.0,0.0,0.0,0.0,1.0,0.0,0.0,0.0,1.0,0.0,0.0,0.0,0.0,0.0,0.0,0.0,0.0,0.0,0.0,0.0,0.0,1.0,0.0,1.0,0.0,1.0,1.0,0.0,0.43248117551020415,1.3481973213888438e-05,-0.18295733612000878,-0.03156479560760181,-0.43306345004195235,-0.43306345004195235,0.4015123657142857,0.4628745142857143,-0.43306345004195235,h102_direct_move,r061_s14_edge_hybrid_route,r061_s14_edge,s14_edge,"S1,S4",basis_tail_hybrid_a044__r061_s14_edge_hybrid_route,basis_tail_hybrid_a044,-0.19054791801845902,-0.19054791801845902
h102_strict_null_conflict_c72_r28_amp100_624355db,709,101,id04,2024-10-24,2024-10-23,Q3,2,0.7836327157945403,0.7816403087409958,1.168048358135554e-05,0.2945942857142857,0.2851371428571428,-0.0389592857142857,0.8681142857142857,0.8714285714285714,0.3298454285714285,1.0,1.0,0,2.0,3.6,1.0,1.0,-0.0018739318165117,-2.0788438578953267e-09,-3.417201348221433e-06,0.0,0.0,0.0,1.0,0.112718299813475,0.0,0.832,0.0777142857142857,0.1788571428571428,1.0,1.0,episode_neighbor_q061,0.2406514285714286,0.7816747794316019,-0.0115100999444255,1.0263480041294848e-05,0.0115100999444255,0.0,0.0,1.0,0.1124250857142857,0.7718980136932254,1,0.7718980136932254,1.1513008166658741e-08,0.2556914285714285,0.0152658122683577,0.0015390106257885,0.0005705088303653,0.9983904531393746,0.6508571428571429,0.2558821948728312,0.3108536,-0.0679034849537958,0.0004009186480832,0.7766653504406011,-0.0406248364023611,1.0,6.144628333681901e-05,6.144628333681901e-05,0.9554285714285714,0.6377142857142857,0.8043142857142858,0.9279028571428573,0.0831692972221536,-0.0305217142857143,3.0,2.0,1.0,0.40562248995983935,0.5588441929376095,-0.8292726741066004,0.9784091409455726,0.2066774126849536,3.0,0.8076923076923077,27.0,0.0,0.0,1.0,0.0,0.0,0.0,0.0,0.0,0.0,0.0,0.0,0.0,1.0,1.0,0.0,0.0,0.0,0.0,0.0,0.0,0.0,1.0,0.0,1.0,0.0,1.0,0.0,0.7463255237551022,-1.7175824227346826e-05,0.23146706622775595,0.19568676269606256,0.5055628676337081,0.5055628676337081,0.4439353257142857,0.5417878857142857,0.5055628676337081,h102_direct_move,r101_q3_quality_hybrid_route,r101_q3_quality,q3_quality,Q3,basis_tail_hybrid_a044__r101_q3_quality_hybrid_route,basis_tail_hybrid_a044,0.22244766175883154,0.22244766175883154
h102_strict_null_conflict_c72_r28_amp100_624355db,1057,151,id06,2024-08-25,2024-08-24,Q1,0,0.2931200235617892,0.2940047415236316,1.8877009515527732e-06,0.3332628571428572,0.7080171428571429,0.4039888571428572,0.5654857142857144,0.4817142857142857,0.3501362285714285,1.0,1.0,0,1.0,0.98640079466928,1.0,1.0,0.0042660984396376,-1.0020730809332893e-08,-1.8877009515527732e-06,1.0,0.0,0.0,0.0,0.0069087191295727,0.1085813693048932,0.46,0.5908571428571429,0.5965714285714285,0.0,0.0,,0.4900228571428571,0.2940407945891951,0.0044397867305515,1.860541860465581e-06,0.0044397867305515,1.0,0.0,1.0,0.2779978285714286,0.3160480568474452,1,0.6839519431525547,3.543989487264716e-07,0.5622057142857144,0.0767078893727275,0.0004647756016188,0.000563572964942,0.9862526886486588,0.3011428571428571,0.2390823668590611,0.2716846857142857,0.1082853490810346,0.001250143867855,0.2941165191992924,0.0048045551477717,1.0,-2.0308272858926557e-06,0.0,0.4542857142857143,0.4708571428571428,0.4616571428571429,0.8998400000000001,-0.0315774597083073,0.2318356571428572,6.0,5.0,1.0,0.606425702811245,-0.6199605408122385,-0.7846329892604547,-0.9067516281939827,0.42166513345018397,5.0,1.0,24.0,1.0,0.0,0.0,0.0,0.0,0.0,0.0,0.0,0.0,0.0,0.0,0.0,0.0,0.0,0.0,0.0,0.0,0.0,1.0,1.0,0.0,1.0,0.0,1.0,0.0,1.0,0.0,0.4154175634285715,5.866731312910623e-06,-0.08034760082666736,-0.023441271858119145,-0.20829227426023572,-0.20829227426023572,0.5045695908571429,0.5168146514285716,-0.20829227426023572,h102_direct_move,r151_q1q3_subjective_hybrid_route,r151_q1q3_subjective,q1q3_subjective,"Q1,Q3",basis_tail_hybrid_a044__r151_q1q3_subjective_hybrid_route,basis_tail_hybrid_a044,-0.09164860067450371,-0.09164860067450371
h102_strict_null_conflict_c72_r28_amp100_624355db,1059,151,id06,2024-08-25,2024-08-24,Q3,2,0.8051517532471274,0.8030150111803502,1.4511156814778214e-05,0.3337085714285714,0.7080171428571429,0.1520932571428572,0.9230857142857144,0.956,0.3712925714285713,1.0,1.0,0,0.0,0.0,0.0,0.0,0.0,0.0,0.0,0.0,0.0,0.0,0.0,0.2271737521378298,0.006086278522037,0.9222857142857144,0.2165714285714285,0.1788571428571428,0.0,0.0,,-0.7007057142857144,0.8030744767017115,-0.0131878844070159,1.2479027673317766e-05,0.0131878844070159,0.0,0.0,0.0,0.0559329142857143,0.7951378735404838,1,0.7951378735404838,5.971452035624195e-08,0.3412114285714285,0.0361493346156307,0.0011125015620337,0.0005754150819827,1.0069763934697766,0.7565714285714286,0.4100387233611863,0.4062238857142857,-0.0626314127524751,0.0003155568519088,0.8043516859284782,-0.0050918768989105,1.0,-8.541367909509212e-06,0.0,0.4542857142857143,0.4731428571428571,0.4653428571428571,0.9348628571428572,0.0987807473681059,0.0054983999999999,6.0,5.0,1.0,0.606425702811245,-0.6199605408122385,-0.7846329892604547,-0.9067516281939827,0.42166513345018397,5.0,1.0,24.0,0.0,0.0,1.0,0.0,0.0,0.0,0.0,0.0,0.0,0.0,0.0,0.0,0.0,0.0,0.0,0.0,0.0,0.0,1.0,1.0,0.0,1.0,0.0,1.0,0.0,1.0,0.0,0.43503175297959185,-2.8971749483260638e-05,0.3779267154027928,0.02484254498759172,0.5791993703618314,0.5791993703618314,0.38407477257142864,0.4528153828571429,0.5791993703618314,h102_direct_move,r151_q1q3_subjective_hybrid_route,r151_q1q3_subjective,q1q3_subjective,"Q1,Q3",basis_tail_hybrid_a044__r151_q1q3_subjective_hybrid_route,basis_tail_hybrid_a044,0.2548477229592058,0.2548477229592058
h102_strict_null_conflict_c72_r28_amp100_624355db,1651,235,id10,2024-08-18,2024-08-17,S4,6,0.694453103168171,0.692519258745744,8.80199338038068e-06,0.3776571428571428,0.5461771428571429,0.3415236571428572,0.6363714285714286,0.4611428571428571,0.4020548571428571,1.0,1.0,0,2.0,1.93657810305736,1.0,1.0,-0.0090977656768795,-1.5153059639965843e-08,-8.80199338038068e-06,1.0,0.0,0.0,0.0,0.0110276853229074,0.0677063922836001,0.5062857142857143,0.4914285714285714,0.5017142857142857,0.0,0.0,,0.4595371428571428,0.6925099213035104,-0.0091416161705367,8.086645592486619e-06,0.0091416161705367,0.0,0.0,1.0,0.2121241714285714,0.6754200404553632,1,0.6754200404553632,1.202045296033204e-07,0.5109028571428571,-0.0441077522835295,0.0031533250328787,0.000571202273135,0.999603977986322,0.6685714285714286,0.3153677382338156,0.3956851428571428,-0.0882184933543172,0.0008441006167392,0.6903194737050469,-0.0194080685379496,1.0,2.349549555136221e-06,2.349549555136221e-06,0.9131428571428571,0.5491428571428572,0.7378571428571429,0.9048857142857144,0.0441107410707876,0.0760081142857142,6.0,5.0,1.0,0.9437751004016064,-0.3459690901728594,0.9382459105399628,-0.8722647273621952,0.4890339920698307,9.0,0.3333333333333333,22.0,0.0,0.0,0.0,0.0,0.0,0.0,1.0,0.0,0.0,0.0,0.0,0.0,0.0,0.0,0.0,0.0,0.0,0.0,1.0,1.0,0.0,0.0,1.0,0.0,1.0,1.0,0.0,0.6676763877551022,1.5597616829778983e-05,-0.2108665573741456,0.09442654091698835,0.28699245017925595,0.28699245017925595,0.3256062125714286,0.2888579542857143,0.28699245017925595,h102_direct_move,r235_recovery_route_hybrid_route,r235_recovery_route,recovery_route,"Q1,S2,S3,S4",basis_tail_hybrid_a044__r235_recovery_route_hybrid_route,basis_tail_hybrid_a044,0.12627667807887263,0.12627667807887263
h102_anchor_shadow_bridge_c128_r42_amp090_e14d75a2,72,10,id01,2024-08-13,2024-08-12,Q3,2,0.6540271650616462,0.6541952273622312,6.241744099355628e-08,0.1664742857142857,0.602737142857143,0.2302518285714286,0.5890000000000001,0.4491428571428571,0.230052,1.0,1.0,0,0.0,0.0,0.0,0.0,0.0,0.0,0.0,0.0,0.0,0.0,0.0,0.0100850770282789,0.0408244641423714,0.4988571428571428,0.4182857142857142,0.4394285714285714,0.0,0.0,,-0.6395342857142857,0.6541978720697573,0.0007545083536356,5.860198104556958e-08,0.0007545083536356,0.0,0.0,0.0,0.0462374857142857,0.660758935028728,1,0.660758935028728,2.6109075210230136e-08,0.2374057142857142,0.0203862121377524,0.001085971111288,0.0005706359268388,0.9986128719680278,0.6548571428571428,0.3147640732580876,0.2738849142857143,0.029889488025075,0.0001004468135936,0.6540928845184623,0.0002904528282908,1.0,-4.00379900344916e-08,0.0,0.4542857142857143,0.444,0.4495714285714286,0.8768742857142858,-0.0095032758873225,-0.0067589714285714,1.0,0.0,1.0,0.040160642570281124,0.2496673968626068,0.968331653383204,0.6867513112135011,0.7268924518431438,0.0,0.38461538461538464,27.0,0.0,0.0,1.0,0.0,0.0,0.0,0.0,0.0,1.0,1.0,0.0,0.0,0.0,0.0,0.0,0.0,0.0,0.0,0.0,0.0,0.0,1.0,0.0,1.0,0.0,1.0,0.0,0.39421762530612253,-3.109827135981011e-05,0.4026647540694522,-0.0014173688180983805,-0.06353104889240023,-0.06353104889240023,0.2875056502857143,0.27865553142857147,-0.06353104889240023,h102_direct_move,r010_q3_s_stage_conflict_invert,r010_q3_s_stage,q3_s_stage,"Q3,S1,S2,S3,S4",basis_conflict_a052__r010_q3_s_stage_conflict_invert,basis_conflict_a052,-0.03303614542404812,-0.029732530881643307
