kbsooo/etri/hitl/h100_route_action_basis_equation_hsjepa/h100_selected_cells.csv
candidate_id,flat_index,row,subject_id,sleep_date,lifelog_date,target,target_index,h057_prob,q061,cell_q061_gain,public_score,invariant_score,private_safe_score,latent_shortcut_energy,bad_pressure_rank,h068_cell_health,outside_h069_cell,outside_h070_cell,is_h050_null,source_count,source_weight,source_family_count,source_consensus,source_mean_move,source_action_delta,source_posterior_delta,hit_h071,hit_h074,hit_h076,hit_h079,h080_bad_same_raw,h080_bad_opp_raw,h080_bad_same_rank,h080_bad_opp_rank,h080_bad_margin_rank,h079_cell,h079_row,h079_role,h080_cell_score,h085_q,h085_q_move,h085_q_gain,h085_abs_q_move,h082_cell,h084_dark_cell,source_agrees_h085,h085_cell_score,q_hard,best_world_y,confidence,hard_gain,combined_score,hard_logit_delta,binary_shock,h086_resp_weight,h086_resp_lift,h086_resp_rank,h086_equation_alignment,h086_resp_action_score,hard_logit_move,hard_diag_gain,h088_prob,h088_logit_move,h088_active,h088_q_delta,h088_q_bad,h088_bad_rank,h088_move_abs_rank,h088_toxicity,h057_positive_weight,h057_positive_logit_move,h095_safe_cell_score,sleep_dow,lifelog_dow,date_gap_days,row_norm,row_sin1,row_cos1,row_sin3,row_cos3,subject_idx,within_subject_norm,subject_block_size,target_Q1,target_Q2,target_Q3,target_S1,target_S2,target_S3,target_S4,sleep_dow_0,lifelog_dow_0,sleep_dow_1,lifelog_dow_1,sleep_dow_2,lifelog_dow_2,sleep_dow_3,lifelog_dow_3,sleep_dow_4,lifelog_dow_4,sleep_dow_5,lifelog_dow_5,sleep_dow_6,lifelog_dow_6,is_q,is_s,is_subjective_quality,is_objective_stage,h057_h088_anti_conflict,h057_h088_same_conflict,conflict_strength,h097_gradient,h097_descent_logit_move,h097_counter_h088_move,h097_conflict_move,h097_positive_move,h097_cell_score,h098_frontier_cell_score,h099_route_move,h097_move_col,h099_action_id,h099_route_id,h099_route_name,h099_route_targets,basis_id,basis_spec,h100_direct_move
h100_routebasis_conflict_c80_r30_amp100_6c8e0c6b,6,0,id01,2024-07-31,2024-07-30,S4,6,0.5084298008946088,0.5091151839410136,9.39781743536372e-07,0.1482914285714285,0.5036571428571429,0.3172508,0.4932142857142857,0.1785714285714285,0.2109301714285714,1.0,1.0,0,0.0,0.0,0.0,0.0,0.0,0.0,0.0,0.0,0.0,0.0,0.0,0.0,0.1856015952715258,0.1785714285714285,0.7337142857142858,0.736,0.0,0.0,,-0.5764400000000001,0.5091590368126224,0.0029178468760701,9.681413111195525e-07,0.0029178468760701,0.0,0.0,0.0,0.0957847428571428,0.5223625210687107,1,0.5223625210687107,1.4679869777242745e-07,0.45888,0.045010420029887,0.0019122187266242,0.000551777393772,0.9656104391011492,0.108,0.502682123038882,0.0688006857142857,0.0557874001969457,0.000388523838803,0.5114968799282992,0.0122732280433281,1.0,9.8721686667691e-06,9.8721686667691e-06,0.9217142857142856,0.5114285714285715,0.7346857142857143,0.8756571428571429,-0.0107769801670586,-0.0351718857142857,2.0,1.0,1.0,0.0,0.0,1.0,0.0,1.0,0.0,0.0,27.0,0.0,0.0,0.0,0.0,0.0,0.0,1.0,0.0,0.0,0.0,1.0,1.0,0.0,0.0,0.0,0.0,0.0,0.0,0.0,0.0,0.0,0.0,1.0,0.0,1.0,1.0,0.0,0.6433327934693878,2.0447627369697292e-05,-0.27350164828270496,-0.05982015307442786,-0.07201824949096935,-0.07201824949096935,0.45683021257142853,0.57472224,-0.07201824949096935,h100_direct_move,r000_recovery_route_conflict_invert,r000_recovery_route,recovery_route,"Q1,S2,S3,S4",basis_conflict_a052__r000_recovery_route_conflict_invert,basis_conflict_a052,-0.03744948973530406
h100_routebasis_conflict_c80_r30_amp100_6c8e0c6b,72,10,id01,2024-08-13,2024-08-12,Q3,2,0.6540271650616462,0.6541952273622312,6.241744099355628e-08,0.1664742857142857,0.602737142857143,0.2302518285714286,0.5890000000000001,0.4491428571428571,0.230052,1.0,1.0,0,0.0,0.0,0.0,0.0,0.0,0.0,0.0,0.0,0.0,0.0,0.0,0.0100850770282789,0.0408244641423714,0.4988571428571428,0.4182857142857142,0.4394285714285714,0.0,0.0,,-0.6395342857142857,0.6541978720697573,0.0007545083536356,5.860198104556958e-08,0.0007545083536356,0.0,0.0,0.0,0.0462374857142857,0.660758935028728,1,0.660758935028728,2.6109075210230136e-08,0.2374057142857142,0.0203862121377524,0.001085971111288,0.0005706359268388,0.9986128719680278,0.6548571428571428,0.3147640732580876,0.2738849142857143,0.029889488025075,0.0001004468135936,0.6540928845184623,0.0002904528282908,1.0,-4.00379900344916e-08,0.0,0.4542857142857143,0.444,0.4495714285714286,0.8768742857142858,-0.0095032758873225,-0.0067589714285714,1.0,0.0,1.0,0.040160642570281124,0.2496673968626068,0.968331653383204,0.6867513112135011,0.7268924518431438,0.0,0.38461538461538464,27.0,0.0,0.0,1.0,0.0,0.0,0.0,0.0,0.0,1.0,1.0,0.0,0.0,0.0,0.0,0.0,0.0,0.0,0.0,0.0,0.0,0.0,1.0,0.0,1.0,0.0,1.0,0.0,0.39421762530612253,-3.109827135981011e-05,0.4026647540694522,-0.0014173688180983805,-0.06353104889240023,-0.06353104889240023,0.2875056502857143,0.27865553142857147,-0.06353104889240023,h100_direct_move,r010_q3_s_stage_conflict_invert,r010_q3_s_stage,q3_s_stage,"Q3,S1,S2,S3,S4",basis_conflict_a052__r010_q3_s_stage_conflict_invert,basis_conflict_a052,-0.03303614542404812
h100_routebasis_conflict_c80_r30_amp100_6c8e0c6b,249,35,id02,2024-09-03,2024-09-02,S2,4,0.8823122084998396,0.881625272331127,2.2683932919820293e-06,0.3141771428571429,0.3170571428571428,0.3076631428571429,0.5137285714285714,0.1785714285714285,0.362382,1.0,1.0,0,0.0,0.0,0.0,0.0,0.0,0.0,0.0,0.0,0.0,0.0,0.0,0.0,0.2800586053484107,0.1785714285714285,0.8428571428571429,0.844,0.0,0.0,,-0.5605257142857143,0.8815578212908938,-0.0072449921663491,2.4887918590454916e-06,0.0072449921663491,0.0,0.0,0.0,0.1059947428571428,0.8728222570809246,1,0.8728222570809246,1.6048527488541938e-07,0.6375885714285714,-0.0718540747710767,0.0025778289398956,0.0005714536940665,1.000043964616444,0.6754285714285714,0.6785783715599005,0.3989555428571429,-0.0883644115187145,0.0004239501228325,0.8792503666371515,-0.0291602558011754,1.0,2.2478691047267407e-05,2.2478691047267407e-05,0.9377142857142856,0.5857142857142857,0.7718571428571429,0.8785085714285715,0.0165103367476378,-0.0347169142857142,1.0,0.0,1.0,0.14056224899598393,0.7727602671207603,0.6346980144599881,0.4724395684796713,-0.8813630660146488,1.0,0.25806451612903225,32.0,0.0,0.0,0.0,0.0,1.0,0.0,0.0,0.0,1.0,1.0,0.0,0.0,0.0,0.0,0.0,0.0,0.0,0.0,0.0,0.0,0.0,0.0,1.0,0.0,1.0,1.0,0.0,0.6780831159183675,1.4379599740051708e-05,-0.194837533741155,0.14134529349827102,0.1100754843074986,0.1100754843074986,0.24646872228571431,0.25910259428571436,0.1100754843074986,h100_direct_move,r035_s23_core_conflict_invert,r035_s23_core,s23_core,"S2,S3",basis_conflict_a052__r035_s23_core_conflict_invert,basis_conflict_a052,0.05723925183989927
h100_routebasis_conflict_c80_r30_amp100_6c8e0c6b,394,56,id02,2024-10-14,2024-10-13,Q3,2,0.7069956394747284,0.7081894374029917,3.4426032856638145e-06,0.31964,0.5154171428571428,0.2213924571428571,0.6876285714285715,0.548,0.3332165714285713,1.0,1.0,0,0.0,0.0,0.0,0.0,0.0,0.0,0.0,0.0,0.0,0.0,0.0,0.0367803263739192,0.03934489390002,0.672,0.4131428571428571,0.368,0.0,0.0,,-0.6593971428571429,0.7081753336653023,0.0057015383038324,3.0593224843444844e-06,0.0057015383038324,0.0,0.0,0.0,0.0495174285714285,0.713629090774197,1,0.713629090774197,5.580608700907642e-09,0.1772114285714286,-0.0098848687141418,0.0005605431876912,0.0005714496738913,1.0000369293098734,0.6748571428571428,0.3780880327563019,0.3411499428571428,0.0322384836720165,0.0001066845409199,0.7091946127024747,0.0106386996117656,1.0,-8.446723652744126e-07,0.0,0.4542857142857143,0.5057142857142857,0.4693714285714285,0.9061828571428572,-0.0421233523861583,-0.0053579428571428,0.0,6.0,1.0,0.2248995983935743,0.9875894586558354,0.15705750905917895,-0.8901457403773966,-0.4556759384562417,1.0,0.9354838709677419,32.0,0.0,0.0,1.0,0.0,0.0,0.0,0.0,1.0,0.0,0.0,0.0,0.0,0.0,0.0,0.0,0.0,0.0,0.0,0.0,0.0,1.0,1.0,0.0,1.0,0.0,1.0,0.0,0.42533634220408156,-3.116150024757437e-05,0.40339161215918584,-0.05186879702491882,-0.27473820399168614,-0.27473820399168614,0.26199918628571434,0.25314420571428575,-0.27473820399168614,h100_direct_move,r056_full_state_conflict_invert,r056_full_state,full_state,"Q1,Q2,Q3,S1,S2,S3,S4",basis_conflict_a052__r056_full_state_conflict_invert,basis_conflict_a052,-0.1428638660756768
h100_routebasis_conflict_c80_r30_amp100_6c8e0c6b,1001,143,id06,2024-08-13,2024-08-12,Q1,0,0.2092269005697418,0.2089219578518885,2.8112041883243677e-07,0.2036971428571428,0.7239771428571429,0.4493369714285714,0.4697285714285715,0.1785714285714285,0.2708112,1.0,1.0,0,11.0,8.46508252903368,2.0,1.0,-0.001844088639247,-2.5733492812731393e-10,-2.811204188324367e-07,1.0,1.0,0.0,0.0,0.0,0.2475444819520837,0.1785714285714285,0.8182857142857143,0.8182857142857143,0.0,0.0,,0.5362942857142857,0.2088731251040907,-0.0021395802130861,3.443420287796428e-07,0.0021395802130861,0.0,0.0,1.0,0.2474148,0.1954998359663392,0,0.8045001640336608,2.029760534566282e-07,0.5569485714285715,-0.0679898442374993,0.0026140759999864,0.0005749680522457,1.006194091430059,0.748,0.6201089184571771,0.5372242285714286,-0.0850698678716392,0.0005789513017284,0.2002522879358252,-0.0551265446534379,1.0,0.0002292094574748,0.0002292094574748,0.9862857142857144,0.6948571428571428,0.8541142857142858,0.8878,0.0170800236341399,0.0637723428571428,1.0,0.0,1.0,0.5742971887550201,-0.4500514963711879,-0.8930026039234458,-0.9855293386108991,-0.16950493425609692,5.0,0.6521739130434783,24.0,1.0,0.0,0.0,0.0,0.0,0.0,0.0,0.0,1.0,1.0,0.0,0.0,0.0,0.0,0.0,0.0,0.0,0.0,0.0,0.0,0.0,1.0,0.0,1.0,0.0,1.0,0.0,0.758282662857143,6.542138367364244e-05,-0.7152795166654436,0.2627033420299245,0.11384126947922175,0.11384126947922175,0.4854993462857143,0.46207152000000007,0.11384126947922175,h100_direct_move,r143_recovery_route_conflict_invert,r143_recovery_route,recovery_route,"Q1,S2,S3,S4",basis_conflict_a052__r143_recovery_route_conflict_invert,basis_conflict_a052,0.059197460129195315
h100_routebasis_conflict_c80_r30_amp100_6c8e0c6b,1010,144,id06,2024-08-14,2024-08-13,Q3,2,0.7530964107373385,0.7533060688078742,1.1822187706567187e-07,0.1906514285714285,0.670817142857143,0.3328430285714286,0.4842571428571429,0.4268571428571429,0.2659077142857142,1.0,1.0,0,3.0,1.4815760139224,1.0,1.0,0.0011278662604456,-5.3211147464858437e-11,-1.1822187706567182e-07,0.0,1.0,0.0,0.0,0.00365308581125,0.156435418150198,0.4182857142857142,0.6862857142857143,0.688,0.0,0.0,,0.4532971428571428,0.7533312901862517,0.0012635893748875,1.350275770084508e-07,0.0012635893748875,1.0,0.0,1.0,0.2487823428571428,0.7611739450510254,1,0.7611739450510254,4.467222197900529e-08,0.3201142857142857,0.029716187931472,0.0017199612737889,0.000627826127369,1.0986957228958183,0.9451428571428572,0.3740817901993886,0.643182742857143,0.0439311011078744,0.0001767593750644,0.7637201240802629,0.0579890534623943,1.0,0.0002959477991754,0.0002959477991754,0.992,0.7085714285714285,0.8645428571428572,0.919554285714286,-0.0458518275004828,0.1008794285714285,2.0,1.0,1.0,0.5783132530120482,-0.47243956847967067,-0.881363066014649,-0.9955262728085589,-0.09448513188803238,5.0,0.6956521739130435,24.0,0.0,0.0,1.0,0.0,0.0,0.0,0.0,0.0,0.0,0.0,1.0,1.0,0.0,0.0,0.0,0.0,0.0,0.0,0.0,0.0,0.0,1.0,0.0,1.0,0.0,1.0,0.0,0.794994089469388,3.431319528069757e-05,-0.43896680839638214,-0.27565958444418215,-0.2976515027567479,-0.2976515027567479,0.6618220228571429,0.7304870285714288,-0.2976515027567479,h100_direct_move,r144_q_subjective_conflict_invert,r144_q_subjective,q_subjective,"Q1,Q2,Q3",basis_conflict_a052__r144_q_subjective_conflict_invert,basis_conflict_a052,-0.1547787814335089
h100_routebasis_conflict_c80_r30_amp100_6c8e0c6b,1057,151,id06,2024-08-25,2024-08-24,Q1,0,0.2931200235617892,0.2940047415236316,1.8877009515527732e-06,0.3332628571428572,0.7080171428571429,0.4039888571428572,0.5654857142857144,0.4817142857142857,0.3501362285714285,1.0,1.0,0,1.0,0.98640079466928,1.0,1.0,0.0042660984396376,-1.0020730809332893e-08,-1.8877009515527732e-06,1.0,0.0,0.0,0.0,0.0069087191295727,0.1085813693048932,0.46,0.5908571428571429,0.5965714285714285,0.0,0.0,,0.4900228571428571,0.2940407945891951,0.0044397867305515,1.860541860465581e-06,0.0044397867305515,1.0,0.0,1.0,0.2779978285714286,0.3160480568474452,1,0.6839519431525547,3.543989487264716e-07,0.5622057142857144,0.0767078893727275,0.0004647756016188,0.000563572964942,0.9862526886486588,0.3011428571428571,0.2390823668590611,0.2716846857142857,0.1082853490810346,0.001250143867855,0.2941165191992924,0.0048045551477717,1.0,-2.0308272858926557e-06,0.0,0.4542857142857143,0.4708571428571428,0.4616571428571429,0.8998400000000001,-0.0315774597083073,0.2318356571428572,6.0,5.0,1.0,0.606425702811245,-0.6199605408122385,-0.7846329892604547,-0.9067516281939827,0.42166513345018397,5.0,1.0,24.0,1.0,0.0,0.0,0.0,0.0,0.0,0.0,0.0,0.0,0.0,0.0,0.0,0.0,0.0,0.0,0.0,0.0,0.0,1.0,1.0,0.0,1.0,0.0,1.0,0.0,1.0,0.0,0.4154175634285715,5.866731312910623e-06,-0.08034760082666736,-0.023441271858119145,-0.20829227426023572,-0.20829227426023572,0.5045695908571429,0.5168146514285716,-0.20829227426023572,h100_direct_move,r151_full_state_conflict_invert,r151_full_state,full_state,"Q1,Q2,Q3,S1,S2,S3,S4",basis_conflict_a052__r151_full_state_conflict_invert,basis_conflict_a052,-0.10831198261532259
h100_routebasis_conflict_c80_r30_amp100_6c8e0c6b,1059,151,id06,2024-08-25,2024-08-24,Q3,2,0.8051517532471274,0.8030150111803502,1.4511156814778214e-05,0.3337085714285714,0.7080171428571429,0.1520932571428572,0.9230857142857144,0.956,0.3712925714285713,1.0,1.0,0,0.0,0.0,0.0,0.0,0.0,0.0,0.0,0.0,0.0,0.0,0.0,0.2271737521378298,0.006086278522037,0.9222857142857144,0.2165714285714285,0.1788571428571428,0.0,0.0,,-0.7007057142857144,0.8030744767017115,-0.0131878844070159,1.2479027673317766e-05,0.0131878844070159,0.0,0.0,0.0,0.0559329142857143,0.7951378735404838,1,0.7951378735404838,5.971452035624195e-08,0.3412114285714285,0.0361493346156307,0.0011125015620337,0.0005754150819827,1.0069763934697766,0.7565714285714286,0.4100387233611863,0.4062238857142857,-0.0626314127524751,0.0003155568519088,0.8043516859284782,-0.0050918768989105,1.0,-8.541367909509212e-06,0.0,0.4542857142857143,0.4731428571428571,0.4653428571428571,0.9348628571428572,0.0987807473681059,0.0054983999999999,6.0,5.0,1.0,0.606425702811245,-0.6199605408122385,-0.7846329892604547,-0.9067516281939827,0.42166513345018397,5.0,1.0,24.0,0.0,0.0,1.0,0.0,0.0,0.0,0.0,0.0,0.0,0.0,0.0,0.0,0.0,0.0,0.0,0.0,0.0,0.0,1.0,1.0,0.0,1.0,0.0,1.0,0.0,1.0,0.0,0.43503175297959185,-2.8971749483260638e-05,0.3779267154027928,0.02484254498759172,0.5791993703618314,0.5791993703618314,0.38407477257142864,0.4528153828571429,0.5791993703618314,h100_direct_move,r151_full_state_conflict_invert,r151_full_state,full_state,"Q1,Q2,Q3,S1,S2,S3,S4",basis_conflict_a052__r151_full_state_conflict_invert,basis_conflict_a052,0.3011836725881524
h100_routebasis_conflict_c80_r30_amp100_6c8e0c6b,1148,164,id07,2024-07-26,2024-07-25,Q1,0,0.5726236359257583,0.5785182382955152,7.107495999258973e-05,0.3531828571428571,0.5277371428571428,-0.0308976285714285,0.9647428571428572,0.9491428571428572,0.3696770285714286,1.0,1.0,0,4.0,7.150759261260218,1.0,1.0,0.0107728068932244,-1.2662505403575502e-08,-4.8598608335352806e-05,0.0,0.0,0.0,1.0,0.2847313265208278,0.0,0.9405714285714286,0.0777142857142857,0.1788571428571428,1.0,1.0,seed_q061_companion,0.2934971428571428,0.5784324143683724,0.023777970260246,6.281269137575762e-05,0.023777970260246,0.0,1.0,1.0,0.2427167428571428,0.6057356549616199,0,0.6057356549616199,2.395791371501162e-07,0.5222971428571428,-0.0601479714388651,0.0028665154478622,0.0005256559126248,0.919897847093514,0.0462857142857142,0.2934742653132805,0.0831499428571428,0.1368584367882453,0.0022566059611043,0.5926098562501864,0.082201326412172,1.0,0.0003458175576152,0.0003458175576152,0.9942857142857144,0.7868571428571428,0.8911714285714286,0.9825542857142858,-0.1970064082271105,0.0275415999999998,4.0,3.0,1.0,0.6586345381526104,-0.839699808785118,-0.5430508550092121,-0.15082429716137438,0.9885605855918884,6.0,0.41379310344827586,30.0,1.0,0.0,0.0,0.0,0.0,0.0,0.0,0.0,0.0,0.0,0.0,0.0,0.0,0.0,1.0,1.0,0.0,0.0,0.0,0.0,0.0,1.0,0.0,1.0,0.0,1.0,0.0,0.8756243064489797,8.068176175542019e-05,-0.8031276134706257,-0.38091639554191503,-0.8664847613858135,-0.8664847613858135,0.5753437417142857,0.6744735314285715,-0.8664847613858135,h100_direct_move,r164_q_subjective_conflict_invert,r164_q_subjective,q_subjective,"Q1,Q2,Q3",basis_conflict_a052__r164_q_subjective_conflict_invert,basis_conflict_a052,-0.3536
h100_routebasis_conflict_c80_r30_amp100_6c8e0c6b,1150,164,id07,2024-07-26,2024-07-25,Q3,2,0.4259565486750093,0.4269931880734391,2.196973457047058e-06,0.2573485714285714,0.5277371428571428,0.3815033714285714,0.4755571428571428,0.1785714285714285,0.3029848571428571,1.0,1.0,0,4.0,7.150759261260218,1.0,1.0,0.0018921461975348,-3.1386519561959727e-09,-1.501803454773649e-06,0.0,0.0,0.0,1.0,0.0,0.1449356177140495,0.1785714285714285,0.6674285714285715,0.6782857142857143,1.0,1.0,seed_q061_companion,0.4895571428571429,0.4270190049503677,0.0043437215818961,2.100024117157595e-06,0.0043437215818961,1.0,0.0,1.0,0.2906211428571428,0.4461046069309509,0,0.5538953930690491,3.0615352131698396e-07,0.5612685714285714,0.0658539470598237,0.0014462362567198,0.0005931515106564,1.0380151436487377,0.8931428571428571,0.3058667154411794,0.6421355428571428,0.0819453714389487,0.0008269628319164,0.4365566105950964,0.043218942955514,1.0,0.0001829166359995,0.0001829166359995,0.9805714285714284,0.6462857142857142,0.8331428571428572,0.8843714285714287,-0.0160914243791249,0.1454114285714285,4.0,3.0,1.0,0.6586345381526104,-0.839699808785118,-0.5430508550092121,-0.15082429716137438,0.9885605855918884,6.0,0.41379310344827586,30.0,0.0,0.0,1.0,0.0,0.0,0.0,0.0,0.0,0.0,0.0,0.0,0.0,0.0,0.0,1.0,1.0,0.0,0.0,0.0,0.0,0.0,1.0,0.0,1.0,0.0,1.0,0.0,0.7368077387755103,4.294498596136279e-06,-0.058874039642547775,-0.20783016463455964,-0.10730433568688295,-0.10730433568688295,0.5375843428571428,0.5973442857142858,-0.10730433568688295,h100_direct_move,r164_q_subjective_conflict_invert,r164_q_subjective,q_subjective,"Q1,Q2,Q3",basis_conflict_a052__r164_q_subjective_conflict_invert,basis_conflict_a052,-0.055798254557179135
h100_routebasis_conflict_c80_r30_amp100_6c8e0c6b,1514,216,id09,2024-09-07,2024-09-06,Q3,2,0.561573107889705,0.562248903897868,9.275702976818678e-07,0.25832,0.7008571428571428,0.2927635428571428,0.5907428571428572,0.5051428571428571,0.3136194285714285,1.0,1.0,0,0.0,0.0,0.0,0.0,0.0,0.0,0.0,0.0,0.0,0.0,0.0,0.0151677844480334,0.0369358356834338,0.5434285714285715,0.4005714285714286,0.4154285714285714,0.0,0.0,,-0.6041628571428572,0.5622498281808038,0.0027490300676703,8.464062550839202e-07,0.0027490300676703,0.0,0.0,0.0,0.0773387428571428,0.5584891832055837,1,0.5584891832055837,5.1471516030221246e-08,0.3424457142857143,-0.0273122302451104,0.0040329429551092,0.0005749452512714,1.0061541897251,0.7474285714285714,0.254107815425712,0.4086269714285714,-0.0125161606129137,1.9304281964616088e-05,0.5618337337533557,0.0010586255517181,1.0,-5.784377883344405e-07,0.0,0.4542857142857143,0.452,0.4528285714285714,0.8854000000000001,-0.0147960696321967,0.0221749714285713,5.0,4.0,1.0,0.8674698795180723,-0.7397584510798205,0.6728725243729192,-0.599966101448695,-0.8000254227913349,8.0,0.5769230769230769,27.0,0.0,0.0,1.0,0.0,0.0,0.0,0.0,0.0,0.0,0.0,0.0,0.0,0.0,0.0,0.0,0.0,1.0,1.0,0.0,0.0,0.0,1.0,0.0,1.0,0.0,1.0,0.0,0.40093441714285716,-2.6228755098631548e-05,0.34520606131413945,-0.005165900821722029,-0.09872506143666655,-0.09872506143666655,0.2806737097142857,0.26142321142857144,-0.09872506143666655,h100_direct_move,r216_full_state_conflict_invert,r216_full_state,full_state,"Q1,Q2,Q3,S1,S2,S3,S4",basis_conflict_a052__r216_full_state_conflict_invert,basis_conflict_a052,-0.05133703194706661
h100_routebasis_conflict_c80_r30_amp100_6c8e0c6b,23,3,id01,2024-08-03,2024-08-02,Q3,2,0.5825405612758282,0.5795370659761659,1.8534940263270627e-05,0.2811657142857143,0.6352171428571428,0.1250753999999999,0.8544285714285714,0.9097142857142856,0.3286348571428571,0.0,1.0,0,3.0,5.4,1.0,1.0,-0.0020563557839757,-1.3985871682512395e-09,-5.640630085346209e-06,0.0,0.0,0.0,1.0,0.127484423230084,0.0059622151491581,0.8485714285714285,0.2148571428571428,0.1788571428571428,1.0,1.0,episode_neighbor_q061,0.28076,0.5795635192393868,-0.0122295736452776,1.6570339673616097e-05,0.0122295736452776,1.0,0.0,1.0,0.1879783428571428,0.5577169744059128,0,0.5577169744059128,8.511330267661373e-11,0.1802285714285714,0.0011137372782469,0.0033986064699007,0.0005605465865673,0.9809565264928056,0.22,0.1387492598971923,0.2050615999999999,-0.1013098164667343,0.0012604154204444,0.5729004845201093,-0.0395164455506682,1.0,7.263366103893443e-05,7.263366103893443e-05,0.9571428571428572,0.6308571428571429,0.8040571428571429,0.9461771428571428,0.1024235537449813,0.0526738285714285,5.0,4.0,1.0,0.012048192771084338,0.0756287458844567,0.997136045279652,0.225155940522694,0.9743227403932134,0.0,0.11538461538461539,27.0,0.0,0.0,1.0,0.0,0.0,0.0,0.0,0.0,0.0,0.0,0.0,0.0,0.0,0.0,0.0,0.0,1.0,1.0,0.0,0.0,0.0,1.0,0.0,1.0,0.0,1.0,0.0,0.760780490122449,-1.461782808600078e-05,0.19798109253029106,0.1904796281519601,0.5951754951749221,0.5951754951749221,0.5332048411428572,0.5840420685714287,0.19798109253029106,h100_direct_move,r003_q3_quality_frontier_descent,r003_q3_quality,q3_quality,Q3,basis_objective_a042__r003_q3_quality_frontier_descent,basis_objective_a042,0.08315205886272224
h100_routebasis_conflict_c80_r30_amp100_6c8e0c6b,709,101,id04,2024-10-24,2024-10-23,Q3,2,0.7836327157945403,0.7816403087409958,1.168048358135554e-05,0.2945942857142857,0.2851371428571428,-0.0389592857142857,0.8681142857142857,0.8714285714285714,0.3298454285714285,1.0,1.0,0,2.0,3.6,1.0,1.0,-0.0018739318165117,-2.0788438578953267e-09,-3.417201348221433e-06,0.0,0.0,0.0,1.0,0.112718299813475,0.0,0.832,0.0777142857142857,0.1788571428571428,1.0,1.0,episode_neighbor_q061,0.2406514285714286,0.7816747794316019,-0.0115100999444255,1.0263480041294848e-05,0.0115100999444255,0.0,0.0,1.0,0.1124250857142857,0.7718980136932254,1,0.7718980136932254,1.1513008166658741e-08,0.2556914285714285,0.0152658122683577,0.0015390106257885,0.0005705088303653,0.9983904531393746,0.6508571428571429,0.2558821948728312,0.3108536,-0.0679034849537958,0.0004009186480832,0.7766653504406011,-0.0406248364023611,1.0,6.144628333681901e-05,6.144628333681901e-05,0.9554285714285714,0.6377142857142857,0.8043142857142858,0.9279028571428573,0.0831692972221536,-0.0305217142857143,3.0,2.0,1.0,0.40562248995983935,0.5588441929376095,-0.8292726741066004,0.9784091409455726,0.2066774126849536,3.0,0.8076923076923077,27.0,0.0,0.0,1.0,0.0,0.0,0.0,0.0,0.0,0.0,0.0,0.0,0.0,1.0,1.0,0.0,0.0,0.0,0.0,0.0,0.0,0.0,1.0,0.0,1.0,0.0,1.0,0.0,0.7463255237551022,-1.7175824227346826e-05,0.23146706622775595,0.19568676269606256,0.5055628676337081,0.5055628676337081,0.4439353257142857,0.5417878857142857,0.23146706622775595,h100_direct_move,r101_q3_quality_frontier_descent,r101_q3_quality,q3_quality,Q3,basis_objective_a042__r101_q3_quality_frontier_descent,basis_objective_a042,0.09721616781565749
h100_routebasis_conflict_c80_r30_amp100_6c8e0c6b,429,61,id03,2024-08-19,2024-08-18,Q3,2,0.769391940972039,0.7691873343964346,1.1794978560519809e-07,0.1801828571428571,0.3370171428571429,0.0740792571428571,0.6702571428571429,0.7508571428571429,0.2411588571428571,1.0,1.0,0,2.0,3.6,1.0,1.0,-0.000184451677063,-5.6483338269916636e-11,-3.4533000903280715e-08,0.0,0.0,0.0,1.0,0.0259545843659137,0.1152267987939449,0.6217142857142857,0.6057142857142858,0.572,1.0,1.0,episode_neighbor_q061,0.3079257142857142,0.769159963715853,-0.0013069844411823,1.3796569509061385e-07,0.0013069844411823,0.0,0.0,1.0,0.0993245714285714,0.7570030321951982,0,0.7570030321951982,9.349604647858497e-08,0.3282628571428571,-0.0431694753420197,0.0002337820502099,0.000570936680997,0.9991391917449192,0.6605714285714286,0.4307766506520007,0.3147865142857143,-0.0685626666458385,0.0004272632394869,0.7692349173091595,-0.0008847885427687,1.0,-1.357899670484386e-07,0.0,0.4542857142857143,0.4502857142857143,0.4517142857142857,0.8968457142857144,0.0253931913038187,0.0444745142857143,0.0,6.0,1.0,0.24497991967871485,0.9995025893658627,0.03153686495097154,-0.995526272808559,-0.09448513188803126,2.0,0.1,21.0,0.0,0.0,1.0,0.0,0.0,0.0,0.0,1.0,0.0,0.0,0.0,0.0,0.0,0.0,0.0,0.0,0.0,0.0,0.0,0.0,1.0,1.0,0.0,1.0,0.0,1.0,0.0,0.4051180212244898,-3.75723322305093e-05,0.4743605781628997,0.004317619303338317,0.16836825727885685,0.16836825727885685,0.498675808,0.5751226514285716,0.004317619303338317,h100_direct_move,r061_q_subjective_counter_h088,r061_q_subjective,q_subjective,"Q1,Q2,Q3",basis_q2_counter_a050__r061_q_subjective_counter_h088,basis_q2_counter_a050,0.0021588096516691586
h100_routebasis_conflict_c80_r30_amp100_6c8e0c6b,495,70,id03,2024-09-16,2024-09-15,S3,5,0.4339995467608516,0.432356369008125,5.497455235037307e-06,0.3251771428571428,0.6828971428571429,0.0974404857142856,0.8948,0.84,0.3792589714285714,1.0,1.0,0,3.0,5.4,1.0,1.0,-0.0011153743242252,-3.1667587096087123e-09,-1.6736124081780563e-06,0.0,0.0,0.0,1.0,0.1755262427634193,0.0,0.8954285714285715,0.0777142857142857,0.1788571428571428,1.0,1.0,episode_neighbor_q061,0.3184914285714285,0.4324045390961372,-0.006495975889984,4.713727674743318e-06,0.006495975889984,0.0,0.0,1.0,0.1380639428571428,0.4362151510812417,1,0.5637848489187582,2.42810440140853e-07,0.4231657142857142,0.0596993860989079,0.0007370478100822,0.0005856856978188,1.02494997118291,0.8657142857142858,0.4358312021880767,0.5033509714285717,0.0090142714560029,9.98797653928296e-06,0.4335600833741482,-0.0017892377075804,1.0,-2.460680098903545e-06,0.0,0.4542857142857143,0.4548571428571428,0.4573714285714285,0.9124171428571428,0.0506851146429049,0.081622857142857,0.0,6.0,1.0,0.28112449799196787,0.9809388143902331,-0.19431686088109762,-0.8327815731637613,0.553601708269484,2.0,0.55,21.0,0.0,0.0,0.0,0.0,0.0,1.0,0.0,1.0,0.0,0.0,0.0,0.0,0.0,0.0,0.0,0.0,0.0,0.0,0.0,0.0,1.0,0.0,1.0,0.0,1.0,1.0,0.0,0.4173135320816326,-6.01783520183376e-06,0.08240777424978175,0.008731011525022038,0.32684854215835973,0.32684854215835973,0.35884891428571425,0.38928577142857146,0.008731011525022038,h100_direct_move,r070_q2_s3_tail_counter_h088,r070_q2_s3_tail,q2_s3_tail,"Q2,S3",basis_q2_counter_a050__r070_q2_s3_tail_counter_h088,basis_q2_counter_a050,0.004365505762511019
h100_routebasis_conflict_c80_r30_amp100_6c8e0c6b,550,78,id03,2024-10-06,2024-10-05,S2,4,0.5571285319115074,0.5589719632904865,6.888354101231009e-06,0.2467942857142857,0.5812571428571428,0.197464057142857,0.6712571428571429,0.576,0.323616,1.0,1.0,0,0.0,0.0,0.0,0.0,0.0,0.0,0.0,0.0,0.0,0.0,0.0,0.0551501937178191,0.0178002650844443,0.7331428571428571,0.3062857142857143,0.1788571428571428,0.0,0.0,,-0.6727,0.5589553514614753,0.0074071010428411,6.15604433584771e-06,0.0074071010428411,0.0,0.0,0.0,0.0522009714285714,0.5604924930897159,1,0.5604924930897159,1.626562896218322e-07,0.4884,-0.0484751610126691,0.0030189615236513,0.0005592800674707,0.9787401180738664,0.196,0.3289995002097053,0.0390667428571428,0.0136446690481986,2.2943929685714792e-05,0.5590444425260178,0.0077684973668663,1.0,-6.748650210774976e-06,0.0,0.4542857142857143,0.4914285714285714,0.4697142857142857,0.9194342857142858,-0.0621198300608678,-0.0016505142857142,6.0,5.0,1.0,0.3132530120481928,0.9220586030376136,-0.38705029720221723,-0.36953183094075726,0.929218072317565,2.0,0.95,21.0,0.0,0.0,0.0,0.0,1.0,0.0,0.0,0.0,0.0,0.0,0.0,0.0,0.0,0.0,0.0,0.0,0.0,0.0,1.0,1.0,0.0,0.0,1.0,0.0,1.0,1.0,0.0,0.4318714187755102,1.1848444937215143e-05,-0.1612019680775232,-0.03789104694620615,-0.3934217049921188,-0.3934217049921188,0.32810334628571425,0.4015159200000001,-0.03789104694620615,h100_direct_move,r078_full_state_counter_h088,r078_full_state,full_state,"Q1,Q2,Q3,S1,S2,S3,S4",basis_q2_counter_a050__r078_full_state_counter_h088,basis_q2_counter_a050,-0.018945523473103076
h100_routebasis_conflict_c80_r30_amp100_6c8e0c6b,689,98,id04,2024-10-19,2024-10-18,S1,3,0.6371260254955748,0.6405330343175071,2.51376604938347e-05,0.2224685714285713,0.4586171428571429,0.0413004,0.7652857142857143,0.6982857142857143,0.3247446857142857,1.0,1.0,0,0.0,0.0,0.0,0.0,0.0,0.0,0.0,0.0,0.0,0.0,0.0,0.0999969057319737,0.0,0.8154285714285714,0.0777142857142857,0.1788571428571428,0.0,0.0,,-0.7547914285714286,0.6405000114407822,0.0146231119468513,2.2435790286601257e-05,0.0146231119468513,0.0,0.0,0.0,0.0546097142857142,0.6458406625928385,0,0.6458406625928385,2.652752376425061e-07,0.6229485714285715,-0.0646258238737329,0.0076759256074498,0.0005509684978578,0.9641948712512676,0.1045714285714285,-0.0194807088009702,-0.0150077714285714,0.037894021574039,0.0001648212272662,0.6414968295448158,0.0189548562062582,1.0,-2.2492975142118787e-05,0.0,0.4542857142857143,0.5468571428571428,0.4944,0.9422057142857144,-0.102519845447772,-0.0024486857142857,5.0,4.0,1.0,0.39357429718875503,0.6199605408122387,-0.7846329892604544,0.9067516281939827,0.4216651334501838,3.0,0.6923076923076923,27.0,0.0,0.0,0.0,1.0,0.0,0.0,0.0,0.0,0.0,0.0,0.0,0.0,0.0,0.0,0.0,0.0,1.0,1.0,0.0,0.0,0.0,0.0,1.0,0.0,1.0,1.0,0.0,0.46582650514285723,2.194044366159535e-05,-0.2923497273116655,-0.09223419251227838,-0.5955915930492218,-0.5955915930492218,0.368164096,0.4561278171428572,-0.09223419251227838,h100_direct_move,r098_full_state_counter_h088,r098_full_state,full_state,"Q1,Q2,Q3,S1,S2,S3,S4",basis_q2_counter_a050__r098_full_state_counter_h088,basis_q2_counter_a050,-0.04611709625613919
h100_routebasis_conflict_c80_r30_amp100_6c8e0c6b,692,98,id04,2024-10-19,2024-10-18,S4,6,0.5214942199375637,0.5220806282002836,6.890459806063731e-07,0.1991714285714285,0.4586171428571429,0.1756905714285715,0.6144571428571429,0.6337142857142857,0.2882345142857143,1.0,1.0,0,0.0,0.0,0.0,0.0,0.0,0.0,0.0,0.0,0.0,0.0,0.0,0.0166549901710211,0.0640435912665656,0.56,0.4845714285714286,0.4805714285714286,0.0,0.0,,-0.6675114285714286,0.5220939306128404,0.0024034092933237,6.55804488269851e-07,0.0024034092933237,0.0,0.0,0.0,0.0311753714285714,0.5317358803323887,0,0.5317358803323887,1.616032067237963e-08,0.2549485714285714,0.0153557474784382,0.005842441771129,0.0005639505118782,0.9869133957869688,0.3177142857142857,0.3199408510132027,0.0963508571428571,0.041084505048586,0.0002103100861962,0.525141978301795,0.0146229027435558,1.0,1.7903928382079215e-05,1.7903928382079215e-05,0.932,0.5251428571428571,0.7487428571428572,0.8981142857142858,-0.0257287575701478,-0.0963236571428572,5.0,4.0,1.0,0.39357429718875503,0.6199605408122387,-0.7846329892604544,0.9067516281939827,0.4216651334501838,3.0,0.6923076923076923,27.0,0.0,0.0,0.0,0.0,0.0,0.0,1.0,0.0,0.0,0.0,0.0,0.0,0.0,0.0,0.0,0.0,1.0,1.0,0.0,0.0,0.0,0.0,1.0,0.0,1.0,1.0,0.0,0.6724566563265306,3.12372375914435e-05,-0.40426159357591074,-0.0712368798205084,-0.17055009356096082,-0.17055009356096082,0.42993552914285715,0.5486207771428572,-0.0712368798205084,h100_direct_move,r098_full_state_counter_h088,r098_full_state,full_state,"Q1,Q2,Q3,S1,S2,S3,S4",basis_q2_counter_a050__r098_full_state_counter_h088,basis_q2_counter_a050,-0.0356184399102542
h100_routebasis_conflict_c80_r30_amp100_6c8e0c6b,770,110,id05,2024-10-02,2024-10-01,Q1,0,0.4457613572912907,0.4446197321658457,2.638097124085803e-06,0.2371828571428571,0.2893571428571428,0.2574944571428571,0.4836714285714286,0.1785714285714285,0.2760210285714286,1.0,1.0,0,0.0,0.0,0.0,0.0,0.0,0.0,0.0,0.0,0.0,0.0,0.0,0.0,0.1055051425367162,0.1785714285714285,0.5851428571428572,0.6034285714285714,0.0,0.0,,-0.606377142857143,0.4446010323705447,-0.0046977710067961,2.479994732684787e-06,0.0046977710067961,0.0,0.0,0.0,0.0907273428571428,0.4292185546786456,1,0.5707814453213543,6.006279015544573e-08,0.2898971428571428,-0.0295269485120191,0.0011591776230444,0.0005626725428305,0.984676949953438,0.2708571428571428,0.4847610851958686,0.1221519428571428,-0.0672285164342494,0.0005552949648749,0.442110294817913,-0.0147902736155348,1.0,9.846046346573267e-06,9.846046346573267e-06,0.9205714285714286,0.5262857142857142,0.7383428571428572,0.90416,0.0377015679222298,-0.0382115428571428,2.0,1.0,1.0,0.44176706827309237,0.3577789366275641,-0.9338063142352645,0.8901457403773968,-0.45567593845624127,4.0,0.15,21.0,1.0,0.0,0.0,0.0,0.0,0.0,0.0,0.0,0.0,0.0,1.0,1.0,0.0,0.0,0.0,0.0,0.0,0.0,0.0,0.0,0.0,1.0,0.0,1.0,0.0,1.0,0.0,0.6675800777142857,1.846107817829538e-05,-0.248092523871653,0.07204943440968861,0.2471559474566961,0.2471559474566961,0.2658190102857143,0.28291313142857144,0.07204943440968861,h100_direct_move,r110_q_subjective_counter_h088,r110_q_subjective,q_subjective,"Q1,Q2,Q3",basis_q2_counter_a050__r110_q_subjective_counter_h088,basis_q2_counter_a050,0.036024717204844306
h100_routebasis_conflict_c80_r30_amp100_6c8e0c6b,945,135,id06,2024-07-14,2024-07-13,Q1,0,0.3265168623517541,0.332467224835243,8.025667657762803e-05,0.3744571428571428,0.4153771428571429,-0.0994901714285714,0.9742571428571428,0.9685714285714284,0.3800493714285714,0.0,1.0,0,0.0,0.0,0.0,0.0,0.0,0.0,0.0,0.0,0.0,0.0,0.0,0.5725434492673942,0.0,0.9817142857142858,0.0777142857142857,0.1788571428571428,0.0,0.0,,-0.8262657142857144,0.3323169909206154,0.0262571471809444,6.938334396489054e-05,0.0262571471809444,0.0,0.0,0.0,0.0315527428571428,0.344659554634995,1,0.655340445365005,9.866239582278026e-07,0.6901028571428571,-0.123946419174583,0.0014640261314393,0.0003771091657354,0.6599410400369783,0.0062857142857142,0.7984103847618609,-0.0157502857142857,0.081383632605916,0.0007415524517681,0.335027405247487,0.0384478717404617,1.0,-5.975131469893036e-05,0.0,0.4542857142857143,0.6268571428571429,0.5252571428571429,0.9829828571428572,-0.1743681471515381,-0.0398052571428571,6.0,5.0,1.0,0.5421686746987951,-0.2618644849608063,-0.9651046531419334,-0.7137661126871386,-0.7003841348713511,5.0,0.30434782608695654,24.0,1.0,0.0,0.0,0.0,0.0,0.0,0.0,0.0,0.0,0.0,0.0,0.0,0.0,0.0,0.0,0.0,0.0,0.0,1.0,1.0,0.0,1.0,0.0,1.0,0.0,1.0,0.0,0.5163187670204081,1.9433887252826953e-05,-0.2605804625931922,-0.18544937930027952,-0.8233896967933166,-0.8233896967933166,0.33796750171428575,0.42969570285714287,-0.18544937930027952,h100_direct_move,r135_q_subjective_counter_h088,r135_q_subjective,q_subjective,"Q1,Q2,Q3",basis_q2_counter_a050__r135_q_subjective_counter_h088,basis_q2_counter_a050,-0.09272468965013976
h100_routebasis_conflict_c80_r30_amp100_6c8e0c6b,947,135,id06,2024-07-14,2024-07-13,Q3,2,0.8233562803446187,0.8211995281478749,1.5940535035174896e-05,0.2876571428571428,0.4153771428571429,-0.0838771142857143,0.9258,0.964,0.3306977142857142,1.0,1.0,0,0.0,0.0,0.0,0.0,0.0,0.0,0.0,0.0,0.0,0.0,0.0,0.2445756176535394,0.0,0.9285714285714286,0.0777142857142857,0.1788571428571428,0.0,0.0,,-0.7948314285714286,0.8212701536208874,-0.0142775087436182,1.3569943485169931e-05,0.0142775087436182,0.0,0.0,0.0,0.0141144571428571,0.8135768926925118,0,0.8135768926925118,6.984182582356931e-08,0.3558057142857143,0.0404020375392994,0.0006730519548812,0.0005742784329964,1.0049872577438463,0.7342857142857143,0.3838669842879127,0.360628,-0.0658326085220084,0.0003241510323629,0.8192405880794565,-0.0280433228436189,1.0,-9.664076740523164e-07,0.0,0.4542857142857143,0.5822857142857143,0.4927714285714286,0.93888,0.1062346460613079,-0.0398117714285714,6.0,5.0,1.0,0.5421686746987951,-0.2618644849608063,-0.9651046531419334,-0.7137661126871386,-0.7003841348713511,5.0,0.30434782608695654,24.0,0.0,0.0,1.0,0.0,0.0,0.0,0.0,0.0,0.0,0.0,0.0,0.0,0.0,0.0,0.0,0.0,0.0,0.0,1.0,1.0,0.0,1.0,0.0,1.0,0.0,1.0,0.0,0.4626532388571429,-2.8782376936957118e-05,0.3756966149518632,0.13599964161537711,0.6114005093275046,0.6114005093275046,0.36150274514285724,0.4524815657142857,0.13599964161537711,h100_direct_move,r135_q_subjective_counter_h088,r135_q_subjective,q_subjective,"Q1,Q2,Q3",basis_q2_counter_a050__r135_q_subjective_counter_h088,basis_q2_counter_a050,0.06799982080768856
h100_routebasis_conflict_c80_r30_amp100_6c8e0c6b,958,136,id06,2024-07-16,2024-07-15,S4,6,0.8793211893789878,0.8800493904202091,2.5029338155957426e-06,0.3645828571428571,0.5588971428571429,0.1084819428571429,0.7967428571428572,0.7268571428571429,0.3787347428571428,1.0,1.0,0,0.0,0.0,0.0,0.0,0.0,0.0,0.0,0.0,0.0,0.0,0.0,0.1594115670323823,0.0,0.8822857142857143,0.0777142857142857,0.1788571428571428,0.0,0.0,,-0.7095342857142858,0.8799999511198453,0.0064120263061722,1.9788838113155016e-06,0.0064120263061722,0.0,0.0,0.0,0.0212581142857142,0.8834973597348148,1,0.8834973597348148,8.471331549768475e-09,0.3511542857142857,-0.0171551486596812,0.0031343608795367,0.0005683629451615,0.9946351540327674,0.5531428571428572,0.5888697722476787,0.1944567999999999,0.039956691866398,8.300913775149965e-05,0.8807134130136618,0.0131857083159114,1.0,2.441039736456041e-07,2.441039736456041e-07,0.9085714285714286,0.5165714285714286,0.7216285714285715,0.9087942857142858,-0.0571118405260793,-0.0966108571428571,1.0,0.0,1.0,0.5461847389558233,-0.2861316735085688,-0.9581903075147368,-0.7646910926171749,-0.6443970304648767,5.0,0.34782608695652173,24.0,0.0,0.0,0.0,0.0,0.0,0.0,1.0,0.0,1.0,1.0,0.0,0.0,0.0,0.0,0.0,0.0,0.0,0.0,0.0,0.0,0.0,0.0,1.0,0.0,1.0,1.0,0.0,0.6558119221224491,2.419542879919579e-05,-0.3203916011619167,-0.06425578616901453,-0.3647183835581913,-0.3647183835581913,0.37831752,0.47814422857142863,-0.06425578616901453,h100_direct_move,r136_full_state_counter_h088,r136_full_state,full_state,"Q1,Q2,Q3,S1,S2,S3,S4",basis_q2_counter_a050__r136_full_state_counter_h088,basis_q2_counter_a050,-0.03212789308450727
h100_routebasis_conflict_c80_r30_amp100_6c8e0c6b,975,139,id06,2024-07-19,2024-07-18,Q3,2,0.7439595438752091,0.7399677023608381,4.16859280448767e-05,0.3280228571428571,0.5280971428571429,-0.0332376571428571,0.9586285714285714,0.9811428571428572,0.3647565714285714,0.0,1.0,0,0.0,0.0,0.0,0.0,0.0,0.0,0.0,0.0,0.0,0.0,0.0,0.3736466735880533,0.0,0.9617142857142856,0.0777142857142857,0.1788571428571428,0.0,0.0,,-0.8055971428571429,0.7400840689307989,-0.020245643390468,3.5750219449570686e-05,0.020245643390468,0.0,0.0,0.0,0.0240670285714286,0.7314817680775492,1,0.7314817680775492,5.469611738723606e-07,0.7339085714285715,0.0994963433248757,0.0056064356772304,0.0005687243082713,0.9952675394748086,0.5782857142857143,0.415144879432044,0.2598524571428571,-0.0644977115049467,0.0004044507406137,0.7354432689956294,-0.0442335008621266,1.0,1.6260783992305683e-05,1.6260783992305683e-05,0.9297142857142856,0.6497142857142857,0.784,0.973,0.1639940548298225,-0.1154598857142857,4.0,3.0,1.0,0.5582329317269076,-0.3577789366275639,-0.9338063142352645,-0.8901457403773956,-0.4556759384562435,5.0,0.4782608695652174,24.0,0.0,0.0,1.0,0.0,0.0,0.0,0.0,0.0,0.0,0.0,0.0,0.0,0.0,0.0,1.0,1.0,0.0,0.0,0.0,0.0,0.0,1.0,0.0,1.0,0.0,1.0,0.0,0.7628320000000001,-1.4849126100732473e-05,0.20102931071632024,0.21256231337228595,0.7997100187079332,0.7997100187079332,0.3383465325714286,0.44296686857142864,0.21256231337228595,h100_direct_move,r139_q_subjective_counter_h088,r139_q_subjective,q_subjective,"Q1,Q2,Q3",basis_q2_counter_a050__r139_q_subjective_counter_h088,basis_q2_counter_a050,0.10628115668614298
h100_routebasis_conflict_c80_r30_amp100_6c8e0c6b,1025,146,id06,2024-08-20,2024-08-19,S1,3,0.8954549884000682,0.8959698352864354,1.417783483670387e-06,0.3377485714285714,0.7720971428571428,0.5372021142857144,0.4566714285714286,0.1785714285714285,0.3825,1.0,1.0,0,2.0,1.93657810305736,1.0,1.0,0.0055115996762786,-7.210063458333783e-09,-1.417783483614876e-06,1.0,0.0,0.0,0.0,0.0,0.1814867640869667,0.1785714285714285,0.7262857142857143,0.7297142857142858,0.0,0.0,,0.5688714285714286,0.8960266401379597,0.0061211893265373,1.5910230796167824e-06,0.0061211893265373,0.0,0.0,1.0,0.2748399428571428,0.9013371564884484,1,0.9013371564884484,9.526538141963833e-08,0.5840571428571429,0.0605883148573789,0.0025008685591644,0.0005691878083733,0.996078664653354,0.5982857142857143,0.5025209256459693,0.4072595428571429,0.0644567290925564,0.0001879499485854,0.8960564726868825,0.006441449137962,1.0,-1.7434042313135834e-06,0.0,0.4542857142857143,0.4811428571428571,0.4641428571428571,0.6506171428571429,-0.0038684142351774,0.1833594285714285,1.0,0.0,1.0,0.5863453815261044,-0.51629923627004,-0.8564082546466804,-0.9983886888289513,0.05674527309307293,5.0,0.782608695652174,24.0,0.0,0.0,0.0,1.0,0.0,0.0,0.0,0.0,1.0,1.0,0.0,0.0,0.0,0.0,0.0,0.0,0.0,0.0,0.0,0.0,0.0,0.0,1.0,0.0,1.0,1.0,0.0,0.3019792995918367,2.311259854675144e-06,-0.03171151838474567,-0.031423035355420986,-0.025890111491514354,-0.025890111491514354,0.4066379085714286,0.4251408571428571,-0.031423035355420986,h100_direct_move,r146_full_state_counter_h088,r146_full_state,full_state,"Q1,Q2,Q3,S1,S2,S3,S4",basis_q2_counter_a050__r146_full_state_counter_h088,basis_q2_counter_a050,-0.015711517677710493
h100_routebasis_conflict_c80_r30_amp100_6c8e0c6b,1045,149,id06,2024-08-23,2024-08-22,Q3,2,0.777022604386795,0.7775838198432127,9.094835523582034e-07,0.2452285714285714,0.7814571428571429,0.4971077142857142,0.4000428571428572,0.1785714285714285,0.3107259999999999,1.0,1.0,0,3.0,2.92297889772664,1.0,1.0,0.0032420924210658,-3.0912470261600027e-10,-9.094835523582034e-07,1.0,0.0,0.0,0.0,0.0,0.1858537712571854,0.1785714285714285,0.7365714285714285,0.7382857142857143,0.0,0.0,,0.5425857142857142,0.777621434684161,0.0034595987301866,9.42369486445216e-07,0.0034595987301866,1.0,0.0,1.0,0.3223777142857142,0.7843226988551862,1,0.7843226988551862,2.080929065056975e-08,0.3280685714285714,0.0209077107112019,0.0025222814853955,0.0005842227835737,1.0223898712541133,0.8554285714285714,0.4169258789693721,0.6592931428571428,0.0426381864788305,0.0001550105418142,0.7798976448569017,0.0166709572629812,1.0,1.4018847457442083e-05,1.4018847457442083e-05,0.9257142857142856,0.5342857142857143,0.7458,0.8927142857142858,-0.0217304757676286,0.1976028571428571,4.0,3.0,1.0,0.5983935742971888,-0.5795896608992377,-0.8149084764430339,-0.9599762679439228,0.2800813542249068,5.0,0.9130434782608695,24.0,0.0,0.0,1.0,0.0,0.0,0.0,0.0,0.0,0.0,0.0,0.0,0.0,0.0,0.0,1.0,1.0,0.0,0.0,0.0,0.0,0.0,1.0,0.0,1.0,0.0,1.0,0.0,0.6657863142857143,-3.285225473161321e-05,0.42263754415366706,-0.08117298106341536,-0.14445045894803332,-0.14445045894803332,0.5229324571428571,0.4611345714285715,-0.08117298106341536,h100_direct_move,r149_full_state_counter_h088,r149_full_state,full_state,"Q1,Q2,Q3,S1,S2,S3,S4",basis_q2_counter_a050__r149_full_state_counter_h088,basis_q2_counter_a050,-0.04058649053170768
h100_routebasis_conflict_c80_r30_amp100_6c8e0c6b,1372,196,id08,2024-09-11,2024-09-10,Q1,0,0.4882210432658963,0.4914552980203778,2.0930443240918528e-05,0.3540228571428571,0.4665371428571429,0.0489138,0.8997142857142858,0.8354285714285714,0.3498260571428572,1.0,1.0,0,0.0,0.0,0.0,0.0,0.0,0.0,0.0,0.0,0.0,0.0,0.0,0.1782692747856165,0.0,0.8971428571428571,0.0777142857142857,0.1788571428571428,0.0,0.0,,-0.75626,0.4913993877565197,0.0127187032801039,1.8393801898830553e-05,0.0127187032801039,0.0,0.0,0.0,0.0430785142857143,0.5111605648331664,0,0.5111605648331664,3.610571893522563e-09,0.2521142857142857,-0.0071745605544646,0.0059461204084951,0.0005573665920388,0.9753915360679752,0.1674285714285714,0.4731065567580037,0.0345021714285714,0.0917742215092823,0.0010526383261484,0.4932668527561128,0.020190328732042,1.0,-1.323671713049368e-05,0.0,0.4542857142857143,0.5531428571428572,0.4917428571428572,0.94248,-0.0989487820637469,-0.0122389714285714,2.0,1.0,1.0,0.7871485943775101,-0.9728829847220697,0.23129785567159294,0.7646910926171744,-0.6443970304648774,7.0,0.7777777777777778,19.0,1.0,0.0,0.0,0.0,0.0,0.0,0.0,0.0,0.0,0.0,1.0,1.0,0.0,0.0,0.0,0.0,0.0,0.0,0.0,0.0,0.0,1.0,0.0,1.0,0.0,1.0,0.0,0.463457808,2.5154273804977494e-05,-0.33215063180423376,-0.09820844459805932,-0.5799463818447869,-0.5799463818447869,0.3645737074285714,0.4509399885714287,-0.09820844459805932,h100_direct_move,r196_q_subjective_counter_h088,r196_q_subjective,q_subjective,"Q1,Q2,Q3",basis_q2_counter_a050__r196_q_subjective_counter_h088,basis_q2_counter_a050,-0.04910422229902966
h100_routebasis_conflict_c80_r30_amp100_6c8e0c6b,1588,226,id09,2024-09-21,2024-09-20,S4,6,0.7104535414465696,0.7110198835302667,7.799049277501524e-07,0.2826114285714286,0.5007771428571429,0.3803166285714286,0.4467285714285715,0.1785714285714285,0.3474061714285714,1.0,1.0,0,2.0,1.93657810305736,1.0,1.0,0.0027547162616905,-1.664293927511782e-09,-7.799049277501525e-07,1.0,0.0,0.0,0.0,0.0,0.2177525377063177,0.1785714285714285,0.7822857142857143,0.7834285714285715,0.0,0.0,,0.50158,0.7110755884780996,0.0030258408548433,8.562511311094312e-07,0.0030258408548433,1.0,0.0,1.0,0.2848805142857142,0.7253842671965738,1,0.7253842671965738,2.206396430290567e-07,0.6813028571428571,0.0614132157370143,0.0049648432062501,0.0005549856304347,0.971224853260826,0.1394285714285714,0.8634167914483498,0.2099168,0.0737409588063007,0.0005475538557093,0.7158923589273024,0.0265888406197017,1.0,5.590302905544853e-05,5.590302905544853e-05,0.9537142857142856,0.5765714285714286,0.7840857142857143,0.8783542857142858,-0.0123277430692864,0.1520126857142857,5.0,4.0,1.0,0.9076305220883534,-0.5483371924577639,0.8362573308303713,-0.9855293386108988,-0.16950493425609892,8.0,0.9615384615384616,27.0,0.0,0.0,0.0,0.0,0.0,0.0,1.0,0.0,0.0,0.0,0.0,0.0,0.0,0.0,0.0,0.0,1.0,1.0,0.0,0.0,0.0,0.0,1.0,0.0,1.0,1.0,0.0,0.6887050475102041,2.9395634569415002e-05,-0.3829026077818813,-0.12902663288632812,-0.08233742194422898,-0.08233742194422898,0.6653106582857142,0.7385512114285714,-0.12902663288632812,h100_direct_move,r226_full_state_counter_h088,r226_full_state,full_state,"Q1,Q2,Q3,S1,S2,S3,S4",basis_q2_counter_a050__r226_full_state_counter_h088,basis_q2_counter_a050,-0.06451331644316406
h100_routebasis_conflict_c80_r30_amp100_6c8e0c6b,1651,235,id10,2024-08-18,2024-08-17,S4,6,0.694453103168171,0.692519258745744,8.80199338038068e-06,0.3776571428571428,0.5461771428571429,0.3415236571428572,0.6363714285714286,0.4611428571428571,0.4020548571428571,1.0,1.0,0,2.0,1.93657810305736,1.0,1.0,-0.0090977656768795,-1.5153059639965843e-08,-8.80199338038068e-06,1.0,0.0,0.0,0.0,0.0110276853229074,0.0677063922836001,0.5062857142857143,0.4914285714285714,0.5017142857142857,0.0,0.0,,0.4595371428571428,0.6925099213035104,-0.0091416161705367,8.086645592486619e-06,0.0091416161705367,0.0,0.0,1.0,0.2121241714285714,0.6754200404553632,1,0.6754200404553632,1.202045296033204e-07,0.5109028571428571,-0.0441077522835295,0.0031533250328787,0.000571202273135,0.999603977986322,0.6685714285714286,0.3153677382338156,0.3956851428571428,-0.0882184933543172,0.0008441006167392,0.6903194737050469,-0.0194080685379496,1.0,2.349549555136221e-06,2.349549555136221e-06,0.9131428571428571,0.5491428571428572,0.7378571428571429,0.9048857142857144,0.0441107410707876,0.0760081142857142,6.0,5.0,1.0,0.9437751004016064,-0.3459690901728594,0.9382459105399628,-0.8722647273621952,0.4890339920698307,9.0,0.3333333333333333,22.0,0.0,0.0,0.0,0.0,0.0,0.0,1.0,0.0,0.0,0.0,0.0,0.0,0.0,0.0,0.0,0.0,0.0,0.0,1.0,1.0,0.0,0.0,1.0,0.0,1.0,1.0,0.0,0.6676763877551022,1.5597616829778983e-05,-0.2108665573741456,0.09442654091698835,0.28699245017925595,0.28699245017925595,0.3256062125714286,0.2888579542857143,0.09442654091698835,h100_direct_move,r235_full_state_counter_h088,r235_full_state,full_state,"Q1,Q2,Q3,S1,S2,S3,S4",basis_q2_counter_a050__r235_full_state_counter_h088,basis_q2_counter_a050,0.047213270458494175
h100_routebasis_mixed_c150_r52_amp085_aa7a8207,6,0,id01,2024-07-31,2024-07-30,S4,6,0.5084298008946088,0.5091151839410136,9.39781743536372e-07,0.1482914285714285,0.5036571428571429,0.3172508,0.4932142857142857,0.1785714285714285,0.2109301714285714,1.0,1.0,0,0.0,0.0,0.0,0.0,0.0,0.0,0.0,0.0,0.0,0.0,0.0,0.0,0.1856015952715258,0.1785714285714285,0.7337142857142858,0.736,0.0,0.0,,-0.5764400000000001,0.5091590368126224,0.0029178468760701,9.681413111195525e-07,0.0029178468760701,0.0,0.0,0.0,0.0957847428571428,0.5223625210687107,1,0.5223625210687107,1.4679869777242745e-07,0.45888,0.045010420029887,0.0019122187266242,0.000551777393772,0.9656104391011492,0.108,0.502682123038882,0.0688006857142857,0.0557874001969457,0.000388523838803,0.5114968799282992,0.0122732280433281,1.0,9.8721686667691e-06,9.8721686667691e-06,0.9217142857142856,0.5114285714285715,0.7346857142857143,0.8756571428571429,-0.0107769801670586,-0.0351718857142857,2.0,1.0,1.0,0.0,0.0,1.0,0.0,1.0,0.0,0.0,27.0,0.0,0.0,0.0,0.0,0.0,0.0,1.0,0.0,0.0,0.0,1.0,1.0,0.0,0.0,0.0,0.0,0.0,0.0,0.0,0.0,0.0,0.0,1.0,0.0,1.0,1.0,0.0,0.6433327934693878,2.0447627369697292e-05,-0.27350164828270496,-0.05982015307442786,-0.07201824949096935,-0.07201824949096935,0.45683021257142853,0.57472224,-0.07201824949096935,h100_direct_move,r000_recovery_route_conflict_invert,r000_recovery_route,recovery_route,"Q1,S2,S3,S4",basis_conflict_a052__r000_recovery_route_conflict_invert,basis_conflict_a052,-0.03183206627500845
h100_routebasis_mixed_c150_r52_amp085_aa7a8207,72,10,id01,2024-08-13,2024-08-12,Q3,2,0.6540271650616462,0.6541952273622312,6.241744099355628e-08,0.1664742857142857,0.602737142857143,0.2302518285714286,0.5890000000000001,0.4491428571428571,0.230052,1.0,1.0,0,0.0,0.0,0.0,0.0,0.0,0.0,0.0,0.0,0.0,0.0,0.0,0.0100850770282789,0.0408244641423714,0.4988571428571428,0.4182857142857142,0.4394285714285714,0.0,0.0,,-0.6395342857142857,0.6541978720697573,0.0007545083536356,5.860198104556958e-08,0.0007545083536356,0.0,0.0,0.0,0.0462374857142857,0.660758935028728,1,0.660758935028728,2.6109075210230136e-08,0.2374057142857142,0.0203862121377524,0.001085971111288,0.0005706359268388,0.9986128719680278,0.6548571428571428,0.3147640732580876,0.2738849142857143,0.029889488025075,0.0001004468135936,0.6540928845184623,0.0002904528282908,1.0,-4.00379900344916e-08,0.0,0.4542857142857143,0.444,0.4495714285714286,0.8768742857142858,-0.0095032758873225,-0.0067589714285714,1.0,0.0,1.0,0.040160642570281124,0.2496673968626068,0.968331653383204,0.6867513112135011,0.7268924518431438,0.0,0.38461538461538464,27.0,0.0,0.0,1.0,0.0,0.0,0.0,0.0,0.0,1.0,1.0,0.0,0.0,0.0,0.0,0.0,0.0,0.0,0.0,0.0,0.0,0.0,1.0,0.0,1.0,0.0,1.0,0.0,0.39421762530612253,-3.109827135981011e-05,0.4026647540694522,-0.0014173688180983805,-0.06353104889240023,-0.06353104889240023,0.2875056502857143,0.27865553142857147,-0.06353104889240023,h100_direct_move,r010_q3_s_stage_conflict_invert,r010_q3_s_stage,q3_s_stage,"Q3,S1,S2,S3,S4",basis_conflict_a052__r010_q3_s_stage_conflict_invert,basis_conflict_a052,-0.0280807236104409
h100_routebasis_mixed_c150_r52_amp085_aa7a8207,249,35,id02,2024-09-03,2024-09-02,S2,4,0.8823122084998396,0.881625272331127,2.2683932919820293e-06,0.3141771428571429,0.3170571428571428,0.3076631428571429,0.5137285714285714,0.1785714285714285,0.362382,1.0,1.0,0,0.0,0.0,0.0,0.0,0.0,0.0,0.0,0.0,0.0,0.0,0.0,0.0,0.2800586053484107,0.1785714285714285,0.8428571428571429,0.844,0.0,0.0,,-0.5605257142857143,0.8815578212908938,-0.0072449921663491,2.4887918590454916e-06,0.0072449921663491,0.0,0.0,0.0,0.1059947428571428,0.8728222570809246,1,0.8728222570809246,1.6048527488541938e-07,0.6375885714285714,-0.0718540747710767,0.0025778289398956,0.0005714536940665,1.000043964616444,0.6754285714285714,0.6785783715599005,0.3989555428571429,-0.0883644115187145,0.0004239501228325,0.8792503666371515,-0.0291602558011754,1.0,2.2478691047267407e-05,2.2478691047267407e-05,0.9377142857142856,0.5857142857142857,0.7718571428571429,0.8785085714285715,0.0165103367476378,-0.0347169142857142,1.0,0.0,1.0,0.14056224899598393,0.7727602671207603,0.6346980144599881,0.4724395684796713,-0.8813630660146488,1.0,0.25806451612903225,32.0,0.0,0.0,0.0,0.0,1.0,0.0,0.0,0.0,1.0,1.0,0.0,0.0,0.0,0.0,0.0,0.0,0.0,0.0,0.0,0.0,0.0,0.0,1.0,0.0,1.0,1.0,0.0,0.6780831159183675,1.4379599740051708e-05,-0.194837533741155,0.14134529349827102,0.1100754843074986,0.1100754843074986,0.24646872228571431,0.25910259428571436,0.1100754843074986,h100_direct_move,r035_s23_core_conflict_invert,r035_s23_core,s23_core,"S2,S3",basis_conflict_a052__r035_s23_core_conflict_invert,basis_conflict_a052,0.04865336406391438
h100_routebasis_mixed_c150_r52_amp085_aa7a8207,394,56,id02,2024-10-14,2024-10-13,Q3,2,0.7069956394747284,0.7081894374029917,3.4426032856638145e-06,0.31964,0.5154171428571428,0.2213924571428571,0.6876285714285715,0.548,0.3332165714285713,1.0,1.0,0,0.0,0.0,0.0,0.0,0.0,0.0,0.0,0.0,0.0,0.0,0.0,0.0367803263739192,0.03934489390002,0.672,0.4131428571428571,0.368,0.0,0.0,,-0.6593971428571429,0.7081753336653023,0.0057015383038324,3.0593224843444844e-06,0.0057015383038324,0.0,0.0,0.0,0.0495174285714285,0.713629090774197,1,0.713629090774197,5.580608700907642e-09,0.1772114285714286,-0.0098848687141418,0.0005605431876912,0.0005714496738913,1.0000369293098734,0.6748571428571428,0.3780880327563019,0.3411499428571428,0.0322384836720165,0.0001066845409199,0.7091946127024747,0.0106386996117656,1.0,-8.446723652744126e-07,0.0,0.4542857142857143,0.5057142857142857,0.4693714285714285,0.9061828571428572,-0.0421233523861583,-0.0053579428571428,0.0,6.0,1.0,0.2248995983935743,0.9875894586558354,0.15705750905917895,-0.8901457403773966,-0.4556759384562417,1.0,0.9354838709677419,32.0,0.0,0.0,1.0,0.0,0.0,0.0,0.0,1.0,0.0,0.0,0.0,0.0,0.0,0.0,0.0,0.0,0.0,0.0,0.0,0.0,1.0,1.0,0.0,1.0,0.0,1.0,0.0,0.42533634220408156,-3.116150024757437e-05,0.40339161215918584,-0.05186879702491882,-0.27473820399168614,-0.27473820399168614,0.26199918628571434,0.25314420571428575,-0.27473820399168614,h100_direct_move,r056_full_state_conflict_invert,r056_full_state,full_state,"Q1,Q2,Q3,S1,S2,S3,S4",basis_conflict_a052__r056_full_state_conflict_invert,basis_conflict_a052,-0.12143428616432528
h100_routebasis_mixed_c150_r52_amp085_aa7a8207,1001,143,id06,2024-08-13,2024-08-12,Q1,0,0.2092269005697418,0.2089219578518885,2.8112041883243677e-07,0.2036971428571428,0.7239771428571429,0.4493369714285714,0.4697285714285715,0.1785714285714285,0.2708112,1.0,1.0,0,11.0,8.46508252903368,2.0,1.0,-0.001844088639247,-2.5733492812731393e-10,-2.811204188324367e-07,1.0,1.0,0.0,0.0,0.0,0.2475444819520837,0.1785714285714285,0.8182857142857143,0.8182857142857143,0.0,0.0,,0.5362942857142857,0.2088731251040907,-0.0021395802130861,3.443420287796428e-07,0.0021395802130861,0.0,0.0,1.0,0.2474148,0.1954998359663392,0,0.8045001640336608,2.029760534566282e-07,0.5569485714285715,-0.0679898442374993,0.0026140759999864,0.0005749680522457,1.006194091430059,0.748,0.6201089184571771,0.5372242285714286,-0.0850698678716392,0.0005789513017284,0.2002522879358252,-0.0551265446534379,1.0,0.0002292094574748,0.0002292094574748,0.9862857142857144,0.6948571428571428,0.8541142857142858,0.8878,0.0170800236341399,0.0637723428571428,1.0,0.0,1.0,0.5742971887550201,-0.4500514963711879,-0.8930026039234458,-0.9855293386108991,-0.16950493425609692,5.0,0.6521739130434783,24.0,1.0,0.0,0.0,0.0,0.0,0.0,0.0,0.0,1.0,1.0,0.0,0.0,0.0,0.0,0.0,0.0,0.0,0.0,0.0,0.0,0.0,1.0,0.0,1.0,0.0,1.0,0.0,0.758282662857143,6.542138367364244e-05,-0.7152795166654436,0.2627033420299245,0.11384126947922175,0.11384126947922175,0.4854993462857143,0.46207152000000007,0.11384126947922175,h100_direct_move,r143_recovery_route_conflict_invert,r143_recovery_route,recovery_route,"Q1,S2,S3,S4",basis_conflict_a052__r143_recovery_route_conflict_invert,basis_conflict_a052,0.05031784110981602
h100_routebasis_mixed_c150_r52_amp085_aa7a8207,1010,144,id06,2024-08-14,2024-08-13,Q3,2,0.7530964107373385,0.7533060688078742,1.1822187706567187e-07,0.1906514285714285,0.670817142857143,0.3328430285714286,0.4842571428571429,0.4268571428571429,0.2659077142857142,1.0,1.0,0,3.0,1.4815760139224,1.0,1.0,0.0011278662604456,-5.3211147464858437e-11,-1.1822187706567182e-07,0.0,1.0,0.0,0.0,0.00365308581125,0.156435418150198,0.4182857142857142,0.6862857142857143,0.688,0.0,0.0,,0.4532971428571428,0.7533312901862517,0.0012635893748875,1.350275770084508e-07,0.0012635893748875,1.0,0.0,1.0,0.2487823428571428,0.7611739450510254,1,0.7611739450510254,4.467222197900529e-08,0.3201142857142857,0.029716187931472,0.0017199612737889,0.000627826127369,1.0986957228958183,0.9451428571428572,0.3740817901993886,0.643182742857143,0.0439311011078744,0.0001767593750644,0.7637201240802629,0.0579890534623943,1.0,0.0002959477991754,0.0002959477991754,0.992,0.7085714285714285,0.8645428571428572,0.919554285714286,-0.0458518275004828,0.1008794285714285,2.0,1.0,1.0,0.5783132530120482,-0.47243956847967067,-0.881363066014649,-0.9955262728085589,-0.09448513188803238,5.0,0.6956521739130435,24.0,0.0,0.0,1.0,0.0,0.0,0.0,0.0,0.0,0.0,0.0,1.0,1.0,0.0,0.0,0.0,0.0,0.0,0.0,0.0,0.0,0.0,1.0,0.0,1.0,0.0,1.0,0.0,0.794994089469388,3.431319528069757e-05,-0.43896680839638214,-0.27565958444418215,-0.2976515027567479,-0.2976515027567479,0.6618220228571429,0.7304870285714288,-0.2976515027567479,h100_direct_move,r144_q_subjective_conflict_invert,r144_q_subjective,q_subjective,"Q1,Q2,Q3",basis_conflict_a052__r144_q_subjective_conflict_invert,basis_conflict_a052,-0.13156196421848257
h100_routebasis_mixed_c150_r52_amp085_aa7a8207,1057,151,id06,2024-08-25,2024-08-24,Q1,0,0.2931200235617892,0.2940047415236316,1.8877009515527732e-06,0.3332628571428572,0.7080171428571429,0.4039888571428572,0.5654857142857144,0.4817142857142857,0.3501362285714285,1.0,1.0,0,1.0,0.98640079466928,1.0,1.0,0.0042660984396376,-1.0020730809332893e-08,-1.8877009515527732e-06,1.0,0.0,0.0,0.0,0.0069087191295727,0.1085813693048932,0.46,0.5908571428571429,0.5965714285714285,0.0,0.0,,0.4900228571428571,0.2940407945891951,0.0044397867305515,1.860541860465581e-06,0.0044397867305515,1.0,0.0,1.0,0.2779978285714286,0.3160480568474452,1,0.6839519431525547,3.543989487264716e-07,0.5622057142857144,0.0767078893727275,0.0004647756016188,0.000563572964942,0.9862526886486588,0.3011428571428571,0.2390823668590611,0.2716846857142857,0.1082853490810346,0.001250143867855,0.2941165191992924,0.0048045551477717,1.0,-2.0308272858926557e-06,0.0,0.4542857142857143,0.4708571428571428,0.4616571428571429,0.8998400000000001,-0.0315774597083073,0.2318356571428572,6.0,5.0,1.0,0.606425702811245,-0.6199605408122385,-0.7846329892604547,-0.9067516281939827,0.42166513345018397,5.0,1.0,24.0,1.0,0.0,0.0,0.0,0.0,0.0,0.0,0.0,0.0,0.0,0.0,0.0,0.0,0.0,0.0,0.0,0.0,0.0,1.0,1.0,0.0,1.0,0.0,1.0,0.0,1.0,0.0,0.4154175634285715,5.866731312910623e-06,-0.08034760082666736,-0.023441271858119145,-0.20829227426023572,-0.20829227426023572,0.5045695908571429,0.5168146514285716,-0.20829227426023572,h100_direct_move,r151_full_state_conflict_invert,r151_full_state,full_state,"Q1,Q2,Q3,S1,S2,S3,S4",basis_conflict_a052__r151_full_state_conflict_invert,basis_conflict_a052,-0.09206518522302419
h100_routebasis_mixed_c150_r52_amp085_aa7a8207,1059,151,id06,2024-08-25,2024-08-24,Q3,2,0.8051517532471274,0.8030150111803502,1.4511156814778214e-05,0.3337085714285714,0.7080171428571429,0.1520932571428572,0.9230857142857144,0.956,0.3712925714285713,1.0,1.0,0,0.0,0.0,0.0,0.0,0.0,0.0,0.0,0.0,0.0,0.0,0.0,0.2271737521378298,0.006086278522037,0.9222857142857144,0.2165714285714285,0.1788571428571428,0.0,0.0,,-0.7007057142857144,0.8030744767017115,-0.0131878844070159,1.2479027673317766e-05,0.0131878844070159,0.0,0.0,0.0,0.0559329142857143,0.7951378735404838,1,0.7951378735404838,5.971452035624195e-08,0.3412114285714285,0.0361493346156307,0.0011125015620337,0.0005754150819827,1.0069763934697766,0.7565714285714286,0.4100387233611863,0.4062238857142857,-0.0626314127524751,0.0003155568519088,0.8043516859284782,-0.0050918768989105,1.0,-8.541367909509212e-06,0.0,0.4542857142857143,0.4731428571428571,0.4653428571428571,0.9348628571428572,0.0987807473681059,0.0054983999999999,6.0,5.0,1.0,0.606425702811245,-0.6199605408122385,-0.7846329892604547,-0.9067516281939827,0.42166513345018397,5.0,1.0,24.0,0.0,0.0,1.0,0.0,0.0,0.0,0.0,0.0,0.0,0.0,0.0,0.0,0.0,0.0,0.0,0.0,0.0,0.0,1.0,1.0,0.0,1.0,0.0,1.0,0.0,1.0,0.0,0.43503175297959185,-2.8971749483260638e-05,0.3779267154027928,0.02484254498759172,0.5791993703618314,0.5791993703618314,0.38407477257142864,0.4528153828571429,0.5791993703618314,h100_direct_move,r151_full_state_conflict_invert,r151_full_state,full_state,"Q1,Q2,Q3,S1,S2,S3,S4",basis_conflict_a052__r151_full_state_conflict_invert,basis_conflict_a052,0.25600612169992953
h100_routebasis_mixed_c150_r52_amp085_aa7a8207,1148,164,id07,2024-07-26,2024-07-25,Q1,0,0.5726236359257583,0.5785182382955152,7.107495999258973e-05,0.3531828571428571,0.5277371428571428,-0.0308976285714285,0.9647428571428572,0.9491428571428572,0.3696770285714286,1.0,1.0,0,4.0,7.150759261260218,1.0,1.0,0.0107728068932244,-1.2662505403575502e-08,-4.8598608335352806e-05,0.0,0.0,0.0,1.0,0.2847313265208278,0.0,0.9405714285714286,0.0777142857142857,0.1788571428571428,1.0,1.0,seed_q061_companion,0.2934971428571428,0.5784324143683724,0.023777970260246,6.281269137575762e-05,0.023777970260246,0.0,1.0,1.0,0.2427167428571428,0.6057356549616199,0,0.6057356549616199,2.395791371501162e-07,0.5222971428571428,-0.0601479714388651,0.0028665154478622,0.0005256559126248,0.919897847093514,0.0462857142857142,0.2934742653132805,0.0831499428571428,0.1368584367882453,0.0022566059611043,0.5926098562501864,0.082201326412172,1.0,0.0003458175576152,0.0003458175576152,0.9942857142857144,0.7868571428571428,0.8911714285714286,0.9825542857142858,-0.1970064082271105,0.0275415999999998,4.0,3.0,1.0,0.6586345381526104,-0.839699808785118,-0.5430508550092121,-0.15082429716137438,0.9885605855918884,6.0,0.41379310344827586,30.0,1.0,0.0,0.0,0.0,0.0,0.0,0.0,0.0,0.0,0.0,0.0,0.0,0.0,0.0,1.0,1.0,0.0,0.0,0.0,0.0,0.0,1.0,0.0,1.0,0.0,1.0,0.0,0.8756243064489797,8.068176175542019e-05,-0.8031276134706257,-0.38091639554191503,-0.8664847613858135,-0.8664847613858135,0.5753437417142857,0.6744735314285715,-0.8664847613858135,h100_direct_move,r164_q_subjective_conflict_invert,r164_q_subjective,q_subjective,"Q1,Q2,Q3",basis_conflict_a052__r164_q_subjective_conflict_invert,basis_conflict_a052,-0.30056
h100_routebasis_mixed_c150_r52_amp085_aa7a8207,1150,164,id07,2024-07-26,2024-07-25,Q3,2,0.4259565486750093,0.4269931880734391,2.196973457047058e-06,0.2573485714285714,0.5277371428571428,0.3815033714285714,0.4755571428571428,0.1785714285714285,0.3029848571428571,1.0,1.0,0,4.0,7.150759261260218,1.0,1.0,0.0018921461975348,-3.1386519561959727e-09,-1.501803454773649e-06,0.0,0.0,0.0,1.0,0.0,0.1449356177140495,0.1785714285714285,0.6674285714285715,0.6782857142857143,1.0,1.0,seed_q061_companion,0.4895571428571429,0.4270190049503677,0.0043437215818961,2.100024117157595e-06,0.0043437215818961,1.0,0.0,1.0,0.2906211428571428,0.4461046069309509,0,0.5538953930690491,3.0615352131698396e-07,0.5612685714285714,0.0658539470598237,0.0014462362567198,0.0005931515106564,1.0380151436487377,0.8931428571428571,0.3058667154411794,0.6421355428571428,0.0819453714389487,0.0008269628319164,0.4365566105950964,0.043218942955514,1.0,0.0001829166359995,0.0001829166359995,0.9805714285714284,0.6462857142857142,0.8331428571428572,0.8843714285714287,-0.0160914243791249,0.1454114285714285,4.0,3.0,1.0,0.6586345381526104,-0.839699808785118,-0.5430508550092121,-0.15082429716137438,0.9885605855918884,6.0,0.41379310344827586,30.0,0.0,0.0,1.0,0.0,0.0,0.0,0.0,0.0,0.0,0.0,0.0,0.0,0.0,0.0,1.0,1.0,0.0,0.0,0.0,0.0,0.0,1.0,0.0,1.0,0.0,1.0,0.0,0.7368077387755103,4.294498596136279e-06,-0.058874039642547775,-0.20783016463455964,-0.10730433568688295,-0.10730433568688295,0.5375843428571428,0.5973442857142858,-0.10730433568688295,h100_direct_move,r164_q_subjective_conflict_invert,r164_q_subjective,q_subjective,"Q1,Q2,Q3",basis_conflict_a052__r164_q_subjective_conflict_invert,basis_conflict_a052,-0.047428516373602264
h100_routebasis_mixed_c150_r52_amp085_aa7a8207,1514,216,id09,2024-09-07,2024-09-06,Q3,2,0.561573107889705,0.562248903897868,9.275702976818678e-07,0.25832,0.7008571428571428,0.2927635428571428,0.5907428571428572,0.5051428571428571,0.3136194285714285,1.0,1.0,0,0.0,0.0,0.0,0.0,0.0,0.0,0.0,0.0,0.0,0.0,0.0,0.0151677844480334,0.0369358356834338,0.5434285714285715,0.4005714285714286,0.4154285714285714,0.0,0.0,,-0.6041628571428572,0.5622498281808038,0.0027490300676703,8.464062550839202e-07,0.0027490300676703,0.0,0.0,0.0,0.0773387428571428,0.5584891832055837,1,0.5584891832055837,5.1471516030221246e-08,0.3424457142857143,-0.0273122302451104,0.0040329429551092,0.0005749452512714,1.0061541897251,0.7474285714285714,0.254107815425712,0.4086269714285714,-0.0125161606129137,1.9304281964616088e-05,0.5618337337533557,0.0010586255517181,1.0,-5.784377883344405e-07,0.0,0.4542857142857143,0.452,0.4528285714285714,0.8854000000000001,-0.0147960696321967,0.0221749714285713,5.0,4.0,1.0,0.8674698795180723,-0.7397584510798205,0.6728725243729192,-0.599966101448695,-0.8000254227913349,8.0,0.5769230769230769,27.0,0.0,0.0,1.0,0.0,0.0,0.0,0.0,0.0,0.0,0.0,0.0,0.0,0.0,0.0,0.0,0.0,1.0,1.0,0.0,0.0,0.0,1.0,0.0,1.0,0.0,1.0,0.0,0.40093441714285716,-2.6228755098631548e-05,0.34520606131413945,-0.005165900821722029,-0.09872506143666655,-0.09872506143666655,0.2806737097142857,0.26142321142857144,-0.09872506143666655,h100_direct_move,r216_full_state_conflict_invert,r216_full_state,full_state,"Q1,Q2,Q3,S1,S2,S3,S4",basis_conflict_a052__r216_full_state_conflict_invert,basis_conflict_a052,-0.04363647715500662
h100_routebasis_mixed_c150_r52_amp085_aa7a8207,23,3,id01,2024-08-03,2024-08-02,Q3,2,0.5825405612758282,0.5795370659761659,1.8534940263270627e-05,0.2811657142857143,0.6352171428571428,0.1250753999999999,0.8544285714285714,0.9097142857142856,0.3286348571428571,0.0,1.0,0,3.0,5.4,1.0,1.0,-0.0020563557839757,-1.3985871682512395e-09,-5.640630085346209e-06,0.0,0.0,0.0,1.0,0.127484423230084,0.0059622151491581,0.8485714285714285,0.2148571428571428,0.1788571428571428,1.0,1.0,episode_neighbor_q061,0.28076,0.5795635192393868,-0.0122295736452776,1.6570339673616097e-05,0.0122295736452776,1.0,0.0,1.0,0.1879783428571428,0.5577169744059128,0,0.5577169744059128,8.511330267661373e-11,0.1802285714285714,0.0011137372782469,0.0033986064699007,0.0005605465865673,0.9809565264928056,0.22,0.1387492598971923,0.2050615999999999,-0.1013098164667343,0.0012604154204444,0.5729004845201093,-0.0395164455506682,1.0,7.263366103893443e-05,7.263366103893443e-05,0.9571428571428572,0.6308571428571429,0.8040571428571429,0.9461771428571428,0.1024235537449813,0.0526738285714285,5.0,4.0,1.0,0.012048192771084338,0.0756287458844567,0.997136045279652,0.225155940522694,0.9743227403932134,0.0,0.11538461538461539,27.0,0.0,0.0,1.0,0.0,0.0,0.0,0.0,0.0,0.0,0.0,0.0,0.0,0.0,0.0,0.0,0.0,1.0,1.0,0.0,0.0,0.0,1.0,0.0,1.0,0.0,1.0,0.0,0.760780490122449,-1.461782808600078e-05,0.19798109253029106,0.1904796281519601,0.5951754951749221,0.5951754951749221,0.5332048411428572,0.5840420685714287,0.19798109253029106,h100_direct_move,r003_q3_quality_frontier_descent,r003_q3_quality,q3_quality,Q3,basis_objective_a042__r003_q3_quality_frontier_descent,basis_objective_a042,0.0706792500333139
h100_routebasis_mixed_c150_r52_amp085_aa7a8207,46,6,id01,2024-08-07,2024-08-06,S2,4,0.5542707137333157,0.5079000114409025,0.0043286808494996,0.8142285714285714,0.6720971428571428,0.7310633714285715,0.0538428571428571,0.1785714285714285,0.76602,1.0,0.0,0,17.0,15.930570287203524,3.0,1.0,-0.187477432001766,-2.322773919911558e-06,-0.0043027997627339,1.0,1.0,1.0,0.0,0.0,0.2438201576419227,0.1785714285714285,0.8154285714285714,0.8154285714285714,0.0,0.0,,0.9092485714285714,0.5078700021527768,-0.1864588253782299,0.0039434095516447,0.1864588253782299,1.0,0.0,1.0,0.806968057142857,0.5275718430031864,0,0.5275718430031864,8.375597254674218e-07,0.6705257142857143,-0.1075420694221698,0.0011618584939225,0.000552308101579,0.966539177763344,0.1114285714285714,0.7008373609332922,0.4346314285714285,-0.1075420694221698,0.0014377326563966,0.512946389349208,-0.1661442990545822,1.0,-0.0042827087097742,0.0,0.4542857142857143,0.9348571428571428,0.6768857142857143,0.0,0.0,0.5745287999999998,2.0,1.0,1.0,0.024096385542168676,0.15082429716137383,0.9885605855918885,0.43874910597176514,0.8986096048946822,0.0,0.23076923076923078,27.0,0.0,0.0,0.0,0.0,1.0,0.0,0.0,0.0,0.0,0.0,1.0,1.0,0.0,0.0,0.0,0.0,0.0,0.0,0.0,0.0,0.0,0.0,1.0,0.0,1.0,0.0,0.0,0.0,-1.7748467570789236e-05,0.23889187230558717,0.6700100041414723,0.0,0.0,0.4787078651428572,0.42314659428571433,0.23889187230558717,h100_direct_move,r006_q3_s_stage_frontier_descent,r006_q3_s_stage,q3_s_stage,"Q3,S1,S2,S3,S4",basis_objective_a042__r006_q3_s_stage_frontier_descent,basis_objective_a042,0.08528439841309461
h100_routebasis_mixed_c150_r52_amp085_aa7a8207,285,40,id02,2024-09-08,2024-09-07,S3,5,0.8672633146619955,0.8521920693319253,0.0009566708211147,0.7079885714285715,0.5563771428571428,0.6206661142857144,0.1017571428571428,0.1785714285714285,0.7053264000000001,1.0,0.0,0,17.0,15.930570287203524,3.0,1.0,-0.1273467530872639,-6.733634943723286e-07,-0.0009491769281432,1.0,1.0,1.0,0.0,0.0,0.0790828431095567,0.1785714285714285,0.5205714285714286,0.5445714285714286,0.0,0.0,,0.7961971428571429,0.8522072325949783,-0.1249566264548365,0.0008670543695002,0.1249566264548365,1.0,0.0,1.0,0.6848618285714285,0.8586468947211434,1,0.8586468947211434,1.7888506300370642e-07,0.5644114285714286,-0.0728785628136219,0.0008169693177279,0.0005641658802985,0.987290290522462,0.3234285714285714,0.2936286814985905,0.4472991999999999,-0.0728785628136219,0.0003167446489514,0.8546620688481723,-0.1053307230014071,1.0,-0.0009306302703387,0.0,0.4542857142857143,0.8485714285714285,0.6285428571428572,0.0,0.0,0.4716227428571429,6.0,5.0,1.0,0.1606425702811245,0.8464843789012082,0.5324135575623856,0.11330767760127002,-0.9935599479631849,1.0,0.41935483870967744,32.0,0.0,0.0,0.0,0.0,0.0,1.0,0.0,0.0,0.0,0.0,0.0,0.0,0.0,0.0,0.0,0.0,0.0,0.0,1.0,1.0,0.0,0.0,1.0,0.0,1.0,0.0,0.0,0.0,-1.9826663402709014e-05,0.2655981852667448,0.47305548281704585,0.0,0.0,0.4591248388571429,0.4143942742857143,0.2655981852667448,h100_direct_move,r040_s_stage_frontier_descent,r040_s_stage,s_stage,"S1,S2,S3,S4",basis_objective_a042__r040_s_stage_frontier_descent,basis_objective_a042,0.09481855214022787
h100_routebasis_mixed_c150_r52_amp085_aa7a8207,696,99,id04,2024-10-20,2024-10-19,S1,3,0.8934898455052352,0.8587259520627866,0.0058257971844545,0.9298857142857142,0.850937142857143,0.8727941142857143,0.0350714285714285,0.1785714285714285,0.8796946285714287,1.0,0.0,0,23.0,21.62115831398056,4.0,1.0,-0.2813973391071742,-2.7377805693174696e-06,-0.0050959595142602,1.0,1.0,1.0,1.0,0.0,0.5366966914999547,0.1785714285714285,0.9411428571428572,0.9411428571428572,1.0,1.0,episode_neighbor_q061,0.97028,0.8586419675376304,-0.322838517365682,0.0052966735371283,0.322838517365682,1.0,0.0,1.0,0.8794441142857142,0.8707320377805283,1,0.8707320377805283,1.6239376909568245e-06,0.9122971428571428,-0.2194478375405908,0.0038746844726688,0.000684000863104,1.197001510432082,0.9771428571428572,0.7508383003819002,0.9505657142857143,-0.2194478375405908,0.0025668856760896,0.8571548186257751,-0.3350374836304692,1.0,-0.0058438239245996,0.0,0.4542857142857143,0.9708571428571428,0.6895714285714285,0.0,0.0,0.6262330285714286,6.0,5.0,1.0,0.39759036144578314,0.5999661014486956,-0.8000254227913345,0.9360447378142726,0.35188101513183373,3.0,0.7307692307692307,27.0,0.0,0.0,0.0,1.0,0.0,0.0,0.0,0.0,0.0,0.0,0.0,0.0,0.0,0.0,0.0,0.0,0.0,0.0,1.0,1.0,0.0,0.0,1.0,0.0,1.0,0.0,0.0,0.0,-1.8433303505176525e-05,0.247734744663472,0.9267614171379251,0.0,0.0,0.5015349417142857,0.43332044571428574,0.247734744663472,h100_direct_move,r099_s_stage_frontier_descent,r099_s_stage,s_stage,"S1,S2,S3,S4",basis_objective_a042__r099_s_stage_frontier_descent,basis_objective_a042,0.0884413038448595
h100_routebasis_mixed_c150_r52_amp085_aa7a8207,709,101,id04,2024-10-24,2024-10-23,Q3,2,0.7836327157945403,0.7816403087409958,1.168048358135554e-05,0.2945942857142857,0.2851371428571428,-0.0389592857142857,0.8681142857142857,0.8714285714285714,0.3298454285714285,1.0,1.0,0,2.0,3.6,1.0,1.0,-0.0018739318165117,-2.0788438578953267e-09,-3.417201348221433e-06,0.0,0.0,0.0,1.0,0.112718299813475,0.0,0.832,0.0777142857142857,0.1788571428571428,1.0,1.0,episode_neighbor_q061,0.2406514285714286,0.7816747794316019,-0.0115100999444255,1.0263480041294848e-05,0.0115100999444255,0.0,0.0,1.0,0.1124250857142857,0.7718980136932254,1,0.7718980136932254,1.1513008166658741e-08,0.2556914285714285,0.0152658122683577,0.0015390106257885,0.0005705088303653,0.9983904531393746,0.6508571428571429,0.2558821948728312,0.3108536,-0.0679034849537958,0.0004009186480832,0.7766653504406011,-0.0406248364023611,1.0,6.144628333681901e-05,6.144628333681901e-05,0.9554285714285714,0.6377142857142857,0.8043142857142858,0.9279028571428573,0.0831692972221536,-0.0305217142857143,3.0,2.0,1.0,0.40562248995983935,0.5588441929376095,-0.8292726741066004,0.9784091409455726,0.2066774126849536,3.0,0.8076923076923077,27.0,0.0,0.0,1.0,0.0,0.0,0.0,0.0,0.0,0.0,0.0,0.0,0.0,1.0,1.0,0.0,0.0,0.0,0.0,0.0,0.0,0.0,1.0,0.0,1.0,0.0,1.0,0.0,0.7463255237551022,-1.7175824227346826e-05,0.23146706622775595,0.19568676269606256,0.5055628676337081,0.5055628676337081,0.4439353257142857,0.5417878857142857,0.23146706622775595,h100_direct_move,r101_q3_quality_frontier_descent,r101_q3_quality,q3_quality,Q3,basis_objective_a042__r101_q3_quality_frontier_descent,basis_objective_a042,0.08263374264330886
h100_routebasis_mixed_c150_r52_amp085_aa7a8207,921,131,id06,2024-07-10,2024-07-09,S2,4,0.8829916701436188,0.8543097895781325,0.0037298200377897,0.86828,0.6308571428571428,0.7370014285714286,0.0366999999999999,0.1785714285714285,0.816018,1.0,0.0,0,20.0,17.52959496159584,3.0,1.0,-0.2599301853930716,-2.8767822634616726e-06,-0.0036950639691605,1.0,1.0,1.0,0.0,0.0,0.2958628776992405,0.1785714285714285,0.852,0.8537142857142858,0.0,0.0,,0.9172371428571428,0.8542791247044027,-0.2525056338707956,0.0033867345068676,0.2525056338707956,1.0,0.0,1.0,0.8147021142857142,0.8701878582610055,1,0.8701878582610055,4.528033927965582e-07,0.6949257142857144,-0.1184498637795092,7.346668543350976e-05,0.0005683521573283,0.9946162753246508,0.552,0.6066943449030647,0.6450393142857143,-0.1184498637795092,0.0007695809073315,0.8562991706716148,-0.2361843901434779,1.0,-0.0037210426188708,0.0,0.4542857142857143,0.956,0.6817714285714287,0.0,0.0,0.5802987428571427,2.0,1.0,1.0,0.5261044176706827,-0.16328447069351223,-0.9865790295918212,-0.47243956847967045,-0.8813630660146491,5.0,0.13043478260869565,24.0,0.0,0.0,0.0,0.0,1.0,0.0,0.0,0.0,0.0,0.0,1.0,1.0,0.0,0.0,0.0,0.0,0.0,0.0,0.0,0.0,0.0,0.0,1.0,0.0,1.0,0.0,0.0,0.0,-1.6329287370217336e-05,0.22044164953005252,0.8185961769561892,0.0,0.0,0.46897979885714286,0.4148430171428571,0.22044164953005252,h100_direct_move,r131_s_stage_frontier_descent,r131_s_stage,s_stage,"S1,S2,S3,S4",basis_objective_a042__r131_s_stage_frontier_descent,basis_objective_a042,0.07869766888222875
h100_routebasis_mixed_c150_r52_amp085_aa7a8207,1076,153,id07,2024-07-15,2024-07-14,S3,5,0.7816938213861303,0.7508204745183357,0.0027047560247882,0.7320342857142857,0.5406571428571428,0.6274956,0.0687571428571428,0.1785714285714285,0.7224706285714287,1.0,0.0,0,21.0,18.02115831398056,3.0,1.0,-0.1741595821386645,-1.2542297254315636e-06,-0.0026918613027234,1.0,1.0,1.0,0.0,0.0,0.4264468395304413,0.1785714285714285,0.9217142857142856,0.9217142857142856,0.0,0.0,,0.8577685714285714,0.750765530334085,-0.1728652702151512,0.0024648166403458,0.1728652702151512,1.0,0.0,1.0,0.7575156000000001,0.7629764833833628,1,0.7629764833833628,5.748296087789807e-07,0.7802971428571429,-0.1064967175381161,0.0029436241388282,0.0005763050517446,1.0085338405531896,0.7714285714285715,0.7051812313305549,0.7811669714285715,-0.1064967175381161,0.0010063049326611,0.7515298346855569,-0.1687764352975584,1.0,-0.00271268280683,0.0,0.4542857142857143,0.9382857142857144,0.6725142857142856,0.0,0.0,0.5293378285714285,0.0,6.0,1.0,0.6144578313253012,-0.6587527451017935,-0.7523595023795815,-0.8327815731637609,0.5536017082694845,6.0,0.034482758620689655,30.0,0.0,0.0,0.0,0.0,0.0,1.0,0.0,1.0,0.0,0.0,0.0,0.0,0.0,0.0,0.0,0.0,0.0,0.0,0.0,0.0,1.0,0.0,1.0,0.0,1.0,0.0,0.0,0.0,-2.1730912235641542e-05,0.28971748483547943,0.6770276359126216,0.0,0.0,0.47911005257142864,0.4357606399999999,0.28971748483547943,h100_direct_move,r153_s_stage_frontier_descent,r153_s_stage,s_stage,"S1,S2,S3,S4",basis_objective_a042__r153_s_stage_frontier_descent,basis_objective_a042,0.10342914208626615
h100_routebasis_mixed_c150_r52_amp085_aa7a8207,1522,217,id09,2024-09-08,2024-09-07,S1,3,0.6062244952998838,0.5517822872310698,0.0061223971751011,0.8150742857142859,0.4183571428571428,0.6100885142857144,0.0593857142857142,0.1785714285714285,0.7375765714285716,1.0,0.0,0,19.0,17.03339949582072,3.0,1.0,-0.2248920293791055,-2.7211726138928383e-06,-0.0060968757839548,1.0,1.0,1.0,0.0,0.0,0.2082126805705647,0.1785714285714285,0.7702857142857142,0.7714285714285715,0.0,0.0,,0.8603914285714285,0.551746109475418,-0.2237412078187602,0.0055747352461261,0.2237412078187602,1.0,0.0,1.0,0.7876575142857144,0.5973609395681795,1,0.5973609395681795,9.30981580645411e-08,0.36288,-0.0369884192269974,0.0008514232918496,0.000562134493167,0.9837353630423626,0.2594285714285714,0.5962897374600156,0.4893417714285714,-0.0369884192269974,0.000164130199906,0.5964709714913021,-0.040687261149697,1.0,-0.0020184269752483,0.0,0.4542857142857143,0.6388571428571429,0.5780571428571428,0.0,0.0,0.5827969142857142,6.0,5.0,1.0,0.8714859437751004,-0.7225457018570794,0.6913231579571602,-0.6587527451017925,-0.7523595023795824,8.0,0.6153846153846154,27.0,0.0,0.0,0.0,1.0,0.0,0.0,0.0,0.0,0.0,0.0,0.0,0.0,0.0,0.0,0.0,0.0,0.0,0.0,1.0,1.0,0.0,0.0,1.0,0.0,1.0,0.0,0.0,0.0,-1.688275914633984e-05,0.2276567111256833,0.1959797043198937,0.0,0.0,0.44879236342857143,0.40042426285714283,0.2276567111256833,h100_direct_move,r217_q3_s_stage_frontier_descent,r217_q3_s_stage,q3_s_stage,"Q3,S1,S2,S3,S4",basis_objective_a042__r217_q3_s_stage_frontier_descent,basis_objective_a042,0.08127344587186894
h100_routebasis_mixed_c150_r52_amp085_aa7a8207,1746,249,id10,2024-09-27,2024-09-26,S1,3,0.3773608752980388,0.3127624333247269,0.0091155735311322,0.8831542857142858,0.5179971428571428,0.690814,0.0579857142857142,0.1785714285714285,0.8190133714285714,1.0,0.0,0,17.0,15.930570287203524,3.0,1.0,-0.2939231827999586,-2.795253214332239e-06,-0.0090611184928648,1.0,1.0,1.0,0.0,0.0,0.3527314826131513,0.1785714285714285,0.8868571428571429,0.8891428571428571,0.0,0.0,,0.9020028571428572,0.3127202863588021,-0.2866670861255017,0.0083244644712191,0.2866670861255017,1.0,0.0,1.0,0.8175011142857144,0.3517481831738587,0,0.6482518168261413,8.558704452463823e-07,0.7679314285714286,-0.1105985578415615,0.0022617089568091,0.0005574550632375,0.975546360665676,0.1714285714285714,0.7820470506375558,0.4687496571428571,-0.1105985578415618,0.0014092884301611,0.3302356311675493,-0.2063543903564975,1.0,-0.0084276613096818,0.0,0.4542857142857143,0.9502857142857144,0.6845142857142857,0.0,0.0,0.5828673142857143,4.0,3.0,1.0,1.0,-2.4492935982947064e-16,1.0,-7.347880794884119e-16,1.0,9.0,1.0,22.0,0.0,0.0,0.0,1.0,0.0,0.0,0.0,0.0,0.0,0.0,0.0,0.0,0.0,0.0,1.0,1.0,0.0,0.0,0.0,0.0,0.0,0.0,1.0,0.0,1.0,0.0,0.0,0.0,-2.383394402757733e-05,0.3159324445032723,0.7645104369397118,0.0,0.0,0.49306374171428574,0.4493535885714286,0.3159324445032723,h100_direct_move,r249_q3_s_stage_frontier_descent,r249_q3_s_stage,q3_s_stage,"Q3,S1,S2,S3,S4",basis_objective_a042__r249_q3_s_stage_frontier_descent,basis_objective_a042,0.11278788268766819
h100_routebasis_mixed_c150_r52_amp085_aa7a8207,429,61,id03,2024-08-19,2024-08-18,Q3,2,0.769391940972039,0.7691873343964346,1.1794978560519809e-07,0.1801828571428571,0.3370171428571429,0.0740792571428571,0.6702571428571429,0.7508571428571429,0.2411588571428571,1.0,1.0,0,2.0,3.6,1.0,1.0,-0.000184451677063,-5.6483338269916636e-11,-3.4533000903280715e-08,0.0,0.0,0.0,1.0,0.0259545843659137,0.1152267987939449,0.6217142857142857,0.6057142857142858,0.572,1.0,1.0,episode_neighbor_q061,0.3079257142857142,0.769159963715853,-0.0013069844411823,1.3796569509061385e-07,0.0013069844411823,0.0,0.0,1.0,0.0993245714285714,0.7570030321951982,0,0.7570030321951982,9.349604647858497e-08,0.3282628571428571,-0.0431694753420197,0.0002337820502099,0.000570936680997,0.9991391917449192,0.6605714285714286,0.4307766506520007,0.3147865142857143,-0.0685626666458385,0.0004272632394869,0.7692349173091595,-0.0008847885427687,1.0,-1.357899670484386e-07,0.0,0.4542857142857143,0.4502857142857143,0.4517142857142857,0.8968457142857144,0.0253931913038187,0.0444745142857143,0.0,6.0,1.0,0.24497991967871485,0.9995025893658627,0.03153686495097154,-0.995526272808559,-0.09448513188803126,2.0,0.1,21.0,0.0,0.0,1.0,0.0,0.0,0.0,0.0,1.0,0.0,0.0,0.0,0.0,0.0,0.0,0.0,0.0,0.0,0.0,0.0,0.0,1.0,1.0,0.0,1.0,0.0,1.0,0.0,0.4051180212244898,-3.75723322305093e-05,0.4743605781628997,0.004317619303338317,0.16836825727885685,0.16836825727885685,0.498675808,0.5751226514285716,0.004317619303338317,h100_direct_move,r061_q_subjective_counter_h088,r061_q_subjective,q_subjective,"Q1,Q2,Q3",basis_q2_counter_a050__r061_q_subjective_counter_h088,basis_q2_counter_a050,0.0018349882039187847
h100_routebasis_mixed_c150_r52_amp085_aa7a8207,495,70,id03,2024-09-16,2024-09-15,S3,5,0.4339995467608516,0.432356369008125,5.497455235037307e-06,0.3251771428571428,0.6828971428571429,0.0974404857142856,0.8948,0.84,0.3792589714285714,1.0,1.0,0,3.0,5.4,1.0,1.0,-0.0011153743242252,-3.1667587096087123e-09,-1.6736124081780563e-06,0.0,0.0,0.0,1.0,0.1755262427634193,0.0,0.8954285714285715,0.0777142857142857,0.1788571428571428,1.0,1.0,episode_neighbor_q061,0.3184914285714285,0.4324045390961372,-0.006495975889984,4.713727674743318e-06,0.006495975889984,0.0,0.0,1.0,0.1380639428571428,0.4362151510812417,1,0.5637848489187582,2.42810440140853e-07,0.4231657142857142,0.0596993860989079,0.0007370478100822,0.0005856856978188,1.02494997118291,0.8657142857142858,0.4358312021880767,0.5033509714285717,0.0090142714560029,9.98797653928296e-06,0.4335600833741482,-0.0017892377075804,1.0,-2.460680098903545e-06,0.0,0.4542857142857143,0.4548571428571428,0.4573714285714285,0.9124171428571428,0.0506851146429049,0.081622857142857,0.0,6.0,1.0,0.28112449799196787,0.9809388143902331,-0.19431686088109762,-0.8327815731637613,0.553601708269484,2.0,0.55,21.0,0.0,0.0,0.0,0.0,0.0,1.0,0.0,1.0,0.0,0.0,0.0,0.0,0.0,0.0,0.0,0.0,0.0,0.0,0.0,0.0,1.0,0.0,1.0,0.0,1.0,1.0,0.0,0.4173135320816326,-6.01783520183376e-06,0.08240777424978175,0.008731011525022038,0.32684854215835973,0.32684854215835973,0.35884891428571425,0.38928577142857146,0.008731011525022038,h100_direct_move,r070_q2_s3_tail_counter_h088,r070_q2_s3_tail,q2_s3_tail,"Q2,S3",basis_q2_counter_a050__r070_q2_s3_tail_counter_h088,basis_q2_counter_a050,0.003710679898134366
h100_routebasis_mixed_c150_r52_amp085_aa7a8207,498,71,id03,2024-09-17,2024-09-16,Q2,1,0.8113615039135618,0.8194379938871083,0.0002154826875686,0.5450571428571429,0.7208971428571429,0.5182935428571429,0.3124714285714286,0.1785714285714285,0.3087104,1.0,0.0,0,6.0,5.71228967627096,1.0,1.0,0.0536632477619884,-2.9547751001922893e-07,-0.0002154826875686,1.0,0.0,0.0,0.0,0.0,0.1703319123192239,0.1785714285714285,0.7108571428571429,0.7131428571428572,0.0,0.0,,0.6110914285714286,0.8194694393496345,0.053875789880921,0.0001977835412562,0.053875789880921,1.0,0.0,1.0,0.5305683428571428,0.8159305513875357,1,0.8159305513875357,3.8457057462605515e-08,0.3900114285714285,0.0301348769810125,0.002877436771466,0.0005796941647247,1.0144647882682376,0.8177142857142857,0.573632316233133,0.7157422857142859,0.0301348769810125,6.862694232784294e-05,0.8191021504731552,0.0513950559731268,1.0,-0.0002167180421781,0.0,0.4542857142857143,0.6765714285714286,0.5547428571428572,0.0,0.0,0.3725613714285714,1.0,0.0,1.0,0.285140562248996,0.9757237218989561,-0.21900506506391293,-0.7885283215303662,0.6149984440179531,2.0,0.6,21.0,0.0,1.0,0.0,0.0,0.0,0.0,0.0,0.0,1.0,1.0,0.0,0.0,0.0,0.0,0.0,0.0,0.0,0.0,0.0,0.0,0.0,1.0,0.0,0.0,0.0,0.0,0.0,0.0,4.611004367145126e-05,-0.5600201944961589,-0.24567126824771404,0.0,0.0,0.5071710765714286,0.4608041371428572,-0.24567126824771404,h100_direct_move,r071_q_subjective_counter_h088,r071_q_subjective,q_subjective,"Q1,Q2,Q3",basis_q2_counter_a050__r071_q_subjective_counter_h088,basis_q2_counter_a050,-0.10441028900527846
h100_routebasis_mixed_c150_r52_amp085_aa7a8207,550,78,id03,2024-10-06,2024-10-05,S2,4,0.5571285319115074,0.5589719632904865,6.888354101231009e-06,0.2467942857142857,0.5812571428571428,0.197464057142857,0.6712571428571429,0.576,0.323616,1.0,1.0,0,0.0,0.0,0.0,0.0,0.0,0.0,0.0,0.0,0.0,0.0,0.0,0.0551501937178191,0.0178002650844443,0.7331428571428571,0.3062857142857143,0.1788571428571428,0.0,0.0,,-0.6727,0.5589553514614753,0.0074071010428411,6.15604433584771e-06,0.0074071010428411,0.0,0.0,0.0,0.0522009714285714,0.5604924930897159,1,0.5604924930897159,1.626562896218322e-07,0.4884,-0.0484751610126691,0.0030189615236513,0.0005592800674707,0.9787401180738664,0.196,0.3289995002097053,0.0390667428571428,0.0136446690481986,2.2943929685714792e-05,0.5590444425260178,0.0077684973668663,1.0,-6.748650210774976e-06,0.0,0.4542857142857143,0.4914285714285714,0.4697142857142857,0.9194342857142858,-0.0621198300608678,-0.0016505142857142,6.0,5.0,1.0,0.3132530120481928,0.9220586030376136,-0.38705029720221723,-0.36953183094075726,0.929218072317565,2.0,0.95,21.0,0.0,0.0,0.0,0.0,1.0,0.0,0.0,0.0,0.0,0.0,0.0,0.0,0.0,0.0,0.0,0.0,0.0,0.0,1.0,1.0,0.0,0.0,1.0,0.0,1.0,1.0,0.0,0.4318714187755102,1.1848444937215143e-05,-0.1612019680775232,-0.03789104694620615,-0.3934217049921188,-0.3934217049921188,0.32810334628571425,0.4015159200000001,-0.03789104694620615,h100_direct_move,r078_full_state_counter_h088,r078_full_state,full_state,"Q1,Q2,Q3,S1,S2,S3,S4",basis_q2_counter_a050__r078_full_state_counter_h088,basis_q2_counter_a050,-0.016103694952137614
h100_routebasis_mixed_c150_r52_amp085_aa7a8207,689,98,id04,2024-10-19,2024-10-18,S1,3,0.6371260254955748,0.6405330343175071,2.51376604938347e-05,0.2224685714285713,0.4586171428571429,0.0413004,0.7652857142857143,0.6982857142857143,0.3247446857142857,1.0,1.0,0,0.0,0.0,0.0,0.0,0.0,0.0,0.0,0.0,0.0,0.0,0.0,0.0999969057319737,0.0,0.8154285714285714,0.0777142857142857,0.1788571428571428,0.0,0.0,,-0.7547914285714286,0.6405000114407822,0.0146231119468513,2.2435790286601257e-05,0.0146231119468513,0.0,0.0,0.0,0.0546097142857142,0.6458406625928385,0,0.6458406625928385,2.652752376425061e-07,0.6229485714285715,-0.0646258238737329,0.0076759256074498,0.0005509684978578,0.9641948712512676,0.1045714285714285,-0.0194807088009702,-0.0150077714285714,0.037894021574039,0.0001648212272662,0.6414968295448158,0.0189548562062582,1.0,-2.2492975142118787e-05,0.0,0.4542857142857143,0.5468571428571428,0.4944,0.9422057142857144,-0.102519845447772,-0.0024486857142857,5.0,4.0,1.0,0.39357429718875503,0.6199605408122387,-0.7846329892604544,0.9067516281939827,0.4216651334501838,3.0,0.6923076923076923,27.0,0.0,0.0,0.0,1.0,0.0,0.0,0.0,0.0,0.0,0.0,0.0,0.0,0.0,0.0,0.0,0.0,1.0,1.0,0.0,0.0,0.0,0.0,1.0,0.0,1.0,1.0,0.0,0.46582650514285723,2.194044366159535e-05,-0.2923497273116655,-0.09223419251227838,-0.5955915930492218,-0.5955915930492218,0.368164096,0.4561278171428572,-0.09223419251227838,h100_direct_move,r098_full_state_counter_h088,r098_full_state,full_state,"Q1,Q2,Q3,S1,S2,S3,S4",basis_q2_counter_a050__r098_full_state_counter_h088,basis_q2_counter_a050,-0.03919953181771831
h100_routebasis_mixed_c150_r52_amp085_aa7a8207,692,98,id04,2024-10-19,2024-10-18,S4,6,0.5214942199375637,0.5220806282002836,6.890459806063731e-07,0.1991714285714285,0.4586171428571429,0.1756905714285715,0.6144571428571429,0.6337142857142857,0.2882345142857143,1.0,1.0,0,0.0,0.0,0.0,0.0,0.0,0.0,0.0,0.0,0.0,0.0,0.0,0.0166549901710211,0.0640435912665656,0.56,0.4845714285714286,0.4805714285714286,0.0,0.0,,-0.6675114285714286,0.5220939306128404,0.0024034092933237,6.55804488269851e-07,0.0024034092933237,0.0,0.0,0.0,0.0311753714285714,0.5317358803323887,0,0.5317358803323887,1.616032067237963e-08,0.2549485714285714,0.0153557474784382,0.005842441771129,0.0005639505118782,0.9869133957869688,0.3177142857142857,0.3199408510132027,0.0963508571428571,0.041084505048586,0.0002103100861962,0.525141978301795,0.0146229027435558,1.0,1.7903928382079215e-05,1.7903928382079215e-05,0.932,0.5251428571428571,0.7487428571428572,0.8981142857142858,-0.0257287575701478,-0.0963236571428572,5.0,4.0,1.0,0.39357429718875503,0.6199605408122387,-0.7846329892604544,0.9067516281939827,0.4216651334501838,3.0,0.6923076923076923,27.0,0.0,0.0,0.0,0.0,0.0,0.0,1.0,0.0,0.0,0.0,0.0,0.0,0.0,0.0,0.0,0.0,1.0,1.0,0.0,0.0,0.0,0.0,1.0,0.0,1.0,1.0,0.0,0.6724566563265306,3.12372375914435e-05,-0.40426159357591074,-0.0712368798205084,-0.17055009356096082,-0.17055009356096082,0.42993552914285715,0.5486207771428572,-0.0712368798205084,h100_direct_move,r098_full_state_counter_h088,r098_full_state,full_state,"Q1,Q2,Q3,S1,S2,S3,S4",basis_q2_counter_a050__r098_full_state_counter_h088,basis_q2_counter_a050,-0.03027567392371607
h100_routebasis_mixed_c150_r52_amp085_aa7a8207,770,110,id05,2024-10-02,2024-10-01,Q1,0,0.4457613572912907,0.4446197321658457,2.638097124085803e-06,0.2371828571428571,0.2893571428571428,0.2574944571428571,0.4836714285714286,0.1785714285714285,0.2760210285714286,1.0,1.0,0,0.0,0.0,0.0,0.0,0.0,0.0,0.0,0.0,0.0,0.0,0.0,0.0,0.1055051425367162,0.1785714285714285,0.5851428571428572,0.6034285714285714,0.0,0.0,,-0.606377142857143,0.4446010323705447,-0.0046977710067961,2.479994732684787e-06,0.0046977710067961,0.0,0.0,0.0,0.0907273428571428,0.4292185546786456,1,0.5707814453213543,6.006279015544573e-08,0.2898971428571428,-0.0295269485120191,0.0011591776230444,0.0005626725428305,0.984676949953438,0.2708571428571428,0.4847610851958686,0.1221519428571428,-0.0672285164342494,0.0005552949648749,0.442110294817913,-0.0147902736155348,1.0,9.846046346573267e-06,9.846046346573267e-06,0.9205714285714286,0.5262857142857142,0.7383428571428572,0.90416,0.0377015679222298,-0.0382115428571428,2.0,1.0,1.0,0.44176706827309237,0.3577789366275641,-0.9338063142352645,0.8901457403773968,-0.45567593845624127,4.0,0.15,21.0,1.0,0.0,0.0,0.0,0.0,0.0,0.0,0.0,0.0,0.0,1.0,1.0,0.0,0.0,0.0,0.0,0.0,0.0,0.0,0.0,0.0,1.0,0.0,1.0,0.0,1.0,0.0,0.6675800777142857,1.846107817829538e-05,-0.248092523871653,0.07204943440968861,0.2471559474566961,0.2471559474566961,0.2658190102857143,0.28291313142857144,0.07204943440968861,h100_direct_move,r110_q_subjective_counter_h088,r110_q_subjective,q_subjective,"Q1,Q2,Q3",basis_q2_counter_a050__r110_q_subjective_counter_h088,basis_q2_counter_a050,0.030621009624117658
h100_routebasis_mixed_c150_r52_amp085_aa7a8207,932,133,id06,2024-07-12,2024-07-11,Q2,1,0.7174950458348419,0.7212586787670654,3.5036204069083254e-05,0.4341314285714286,0.6680171428571429,0.4367490857142856,0.3315285714285714,0.1785714285714285,0.2423455999999999,1.0,1.0,0,11.0,9.30390473819112,2.0,1.0,0.0186437074536562,-1.2305453397356957e-07,-3.5036204069083254e-05,1.0,1.0,0.0,0.0,0.0,0.195763104146189,0.1785714285714285,0.7548571428571429,0.7577142857142857,0.0,0.0,,0.5661999999999999,0.7213078929965867,0.0188885133136187,3.272966253486942e-05,0.0188885133136187,1.0,0.0,1.0,0.4339421714285714,0.7317804515186781,0,0.7317804515186781,3.037478332075526e-07,0.72296,0.0716047279124652,0.0040285260282487,0.0005906978394814,1.0337212190925942,0.884,0.5666902733474252,0.6979317714285715,0.0716047279124652,0.00050870871419,0.7283697724947044,0.0542972092517418,1.0,8.939800565377354e-05,8.939800565377354e-05,0.9622857142857144,0.6914285714285714,0.8272857142857143,0.0,0.0,0.1986378285714286,4.0,3.0,1.0,0.5341365461847389,-0.21284547407560092,-0.9770858734858122,-0.5999661014486952,-0.8000254227913348,5.0,0.21739130434782608,24.0,0.0,1.0,0.0,0.0,0.0,0.0,0.0,0.0,0.0,0.0,0.0,0.0,0.0,0.0,1.0,1.0,0.0,0.0,0.0,0.0,0.0,1.0,0.0,0.0,0.0,0.0,0.0,0.0,6.782705411547833e-05,-0.7310270303029552,-0.25893160890048406,0.0,0.0,0.5355787954285715,0.5254294971428571,-0.25893160890048406,h100_direct_move,r133_q2_s3_tail_counter_h088,r133_q2_s3_tail,q2_s3_tail,"Q2,S3",basis_q2_counter_a050__r133_q2_s3_tail_counter_h088,basis_q2_counter_a050,-0.11004593378270572
h100_routebasis_mixed_c150_r52_amp085_aa7a8207,945,135,id06,2024-07-14,2024-07-13,Q1,0,0.3265168623517541,0.332467224835243,8.025667657762803e-05,0.3744571428571428,0.4153771428571429,-0.0994901714285714,0.9742571428571428,0.9685714285714284,0.3800493714285714,0.0,1.0,0,0.0,0.0,0.0,0.0,0.0,0.0,0.0,0.0,0.0,0.0,0.0,0.5725434492673942,0.0,0.9817142857142858,0.0777142857142857,0.1788571428571428,0.0,0.0,,-0.8262657142857144,0.3323169909206154,0.0262571471809444,6.938334396489054e-05,0.0262571471809444,0.0,0.0,0.0,0.0315527428571428,0.344659554634995,1,0.655340445365005,9.866239582278026e-07,0.6901028571428571,-0.123946419174583,0.0014640261314393,0.0003771091657354,0.6599410400369783,0.0062857142857142,0.7984103847618609,-0.0157502857142857,0.081383632605916,0.0007415524517681,0.335027405247487,0.0384478717404617,1.0,-5.975131469893036e-05,0.0,0.4542857142857143,0.6268571428571429,0.5252571428571429,0.9829828571428572,-0.1743681471515381,-0.0398052571428571,6.0,5.0,1.0,0.5421686746987951,-0.2618644849608063,-0.9651046531419334,-0.7137661126871386,-0.7003841348713511,5.0,0.30434782608695654,24.0,1.0,0.0,0.0,0.0,0.0,0.0,0.0,0.0,0.0,0.0,0.0,0.0,0.0,0.0,0.0,0.0,0.0,0.0,1.0,1.0,0.0,1.0,0.0,1.0,0.0,1.0,0.0,0.5163187670204081,1.9433887252826953e-05,-0.2605804625931922,-0.18544937930027952,-0.8233896967933166,-0.8233896967933166,0.33796750171428575,0.42969570285714287,-0.18544937930027952,h100_direct_move,r135_q_subjective_counter_h088,r135_q_subjective,q_subjective,"Q1,Q2,Q3",basis_q2_counter_a050__r135_q_subjective_counter_h088,basis_q2_counter_a050,-0.0788159862026188
h100_routebasis_mixed_c150_r52_amp085_aa7a8207,947,135,id06,2024-07-14,2024-07-13,Q3,2,0.8233562803446187,0.8211995281478749,1.5940535035174896e-05,0.2876571428571428,0.4153771428571429,-0.0838771142857143,0.9258,0.964,0.3306977142857142,1.0,1.0,0,0.0,0.0,0.0,0.0,0.0,0.0,0.0,0.0,0.0,0.0,0.0,0.2445756176535394,0.0,0.9285714285714286,0.0777142857142857,0.1788571428571428,0.0,0.0,,-0.7948314285714286,0.8212701536208874,-0.0142775087436182,1.3569943485169931e-05,0.0142775087436182,0.0,0.0,0.0,0.0141144571428571,0.8135768926925118,0,0.8135768926925118,6.984182582356931e-08,0.3558057142857143,0.0404020375392994,0.0006730519548812,0.0005742784329964,1.0049872577438463,0.7342857142857143,0.3838669842879127,0.360628,-0.0658326085220084,0.0003241510323629,0.8192405880794565,-0.0280433228436189,1.0,-9.664076740523164e-07,0.0,0.4542857142857143,0.5822857142857143,0.4927714285714286,0.93888,0.1062346460613079,-0.0398117714285714,6.0,5.0,1.0,0.5421686746987951,-0.2618644849608063,-0.9651046531419334,-0.7137661126871386,-0.7003841348713511,5.0,0.30434782608695654,24.0,0.0,0.0,1.0,0.0,0.0,0.0,0.0,0.0,0.0,0.0,0.0,0.0,0.0,0.0,0.0,0.0,0.0,0.0,1.0,1.0,0.0,1.0,0.0,1.0,0.0,1.0,0.0,0.4626532388571429,-2.8782376936957118e-05,0.3756966149518632,0.13599964161537711,0.6114005093275046,0.6114005093275046,0.36150274514285724,0.4524815657142857,0.13599964161537711,h100_direct_move,r135_q_subjective_counter_h088,r135_q_subjective,q_subjective,"Q1,Q2,Q3",basis_q2_counter_a050__r135_q_subjective_counter_h088,basis_q2_counter_a050,0.057799847686535274
h100_routebasis_mixed_c150_r52_amp085_aa7a8207,958,136,id06,2024-07-16,2024-07-15,S4,6,0.8793211893789878,0.8800493904202091,2.5029338155957426e-06,0.3645828571428571,0.5588971428571429,0.1084819428571429,0.7967428571428572,0.7268571428571429,0.3787347428571428,1.0,1.0,0,0.0,0.0,0.0,0.0,0.0,0.0,0.0,0.0,0.0,0.0,0.0,0.1594115670323823,0.0,0.8822857142857143,0.0777142857142857,0.1788571428571428,0.0,0.0,,-0.7095342857142858,0.8799999511198453,0.0064120263061722,1.9788838113155016e-06,0.0064120263061722,0.0,0.0,0.0,0.0212581142857142,0.8834973597348148,1,0.8834973597348148,8.471331549768475e-09,0.3511542857142857,-0.0171551486596812,0.0031343608795367,0.0005683629451615,0.9946351540327674,0.5531428571428572,0.5888697722476787,0.1944567999999999,0.039956691866398,8.300913775149965e-05,0.8807134130136618,0.0131857083159114,1.0,2.441039736456041e-07,2.441039736456041e-07,0.9085714285714286,0.5165714285714286,0.7216285714285715,0.9087942857142858,-0.0571118405260793,-0.0966108571428571,1.0,0.0,1.0,0.5461847389558233,-0.2861316735085688,-0.9581903075147368,-0.7646910926171749,-0.6443970304648767,5.0,0.34782608695652173,24.0,0.0,0.0,0.0,0.0,0.0,0.0,1.0,0.0,1.0,1.0,0.0,0.0,0.0,0.0,0.0,0.0,0.0,0.0,0.0,0.0,0.0,0.0,1.0,0.0,1.0,1.0,0.0,0.6558119221224491,2.419542879919579e-05,-0.3203916011619167,-0.06425578616901453,-0.3647183835581913,-0.3647183835581913,0.37831752,0.47814422857142863,-0.06425578616901453,h100_direct_move,r136_full_state_counter_h088,r136_full_state,full_state,"Q1,Q2,Q3,S1,S2,S3,S4",basis_q2_counter_a050__r136_full_state_counter_h088,basis_q2_counter_a050,-0.027308709121831178
h100_routebasis_mixed_c150_r52_amp085_aa7a8207,975,139,id06,2024-07-19,2024-07-18,Q3,2,0.7439595438752091,0.7399677023608381,4.16859280448767e-05,0.3280228571428571,0.5280971428571429,-0.0332376571428571,0.9586285714285714,0.9811428571428572,0.3647565714285714,0.0,1.0,0,0.0,0.0,0.0,0.0,0.0,0.0,0.0,0.0,0.0,0.0,0.0,0.3736466735880533,0.0,0.9617142857142856,0.0777142857142857,0.1788571428571428,0.0,0.0,,-0.8055971428571429,0.7400840689307989,-0.020245643390468,3.5750219449570686e-05,0.020245643390468,0.0,0.0,0.0,0.0240670285714286,0.7314817680775492,1,0.7314817680775492,5.469611738723606e-07,0.7339085714285715,0.0994963433248757,0.0056064356772304,0.0005687243082713,0.9952675394748086,0.5782857142857143,0.415144879432044,0.2598524571428571,-0.0644977115049467,0.0004044507406137,0.7354432689956294,-0.0442335008621266,1.0,1.6260783992305683e-05,1.6260783992305683e-05,0.9297142857142856,0.6497142857142857,0.784,0.973,0.1639940548298225,-0.1154598857142857,4.0,3.0,1.0,0.5582329317269076,-0.3577789366275639,-0.9338063142352645,-0.8901457403773956,-0.4556759384562435,5.0,0.4782608695652174,24.0,0.0,0.0,1.0,0.0,0.0,0.0,0.0,0.0,0.0,0.0,0.0,0.0,0.0,0.0,1.0,1.0,0.0,0.0,0.0,0.0,0.0,1.0,0.0,1.0,0.0,1.0,0.0,0.7628320000000001,-1.4849126100732473e-05,0.20102931071632024,0.21256231337228595,0.7997100187079332,0.7997100187079332,0.3383465325714286,0.44296686857142864,0.21256231337228595,h100_direct_move,r139_q_subjective_counter_h088,r139_q_subjective,q_subjective,"Q1,Q2,Q3",basis_q2_counter_a050__r139_q_subjective_counter_h088,basis_q2_counter_a050,0.09033898318322153
h100_routebasis_mixed_c150_r52_amp085_aa7a8207,1025,146,id06,2024-08-20,2024-08-19,S1,3,0.8954549884000682,0.8959698352864354,1.417783483670387e-06,0.3377485714285714,0.7720971428571428,0.5372021142857144,0.4566714285714286,0.1785714285714285,0.3825,1.0,1.0,0,2.0,1.93657810305736,1.0,1.0,0.0055115996762786,-7.210063458333783e-09,-1.417783483614876e-06,1.0,0.0,0.0,0.0,0.0,0.1814867640869667,0.1785714285714285,0.7262857142857143,0.7297142857142858,0.0,0.0,,0.5688714285714286,0.8960266401379597,0.0061211893265373,1.5910230796167824e-06,0.0061211893265373,0.0,0.0,1.0,0.2748399428571428,0.9013371564884484,1,0.9013371564884484,9.526538141963833e-08,0.5840571428571429,0.0605883148573789,0.0025008685591644,0.0005691878083733,0.996078664653354,0.5982857142857143,0.5025209256459693,0.4072595428571429,0.0644567290925564,0.0001879499485854,0.8960564726868825,0.006441449137962,1.0,-1.7434042313135834e-06,0.0,0.4542857142857143,0.4811428571428571,0.4641428571428571,0.6506171428571429,-0.0038684142351774,0.1833594285714285,1.0,0.0,1.0,0.5863453815261044,-0.51629923627004,-0.8564082546466804,-0.9983886888289513,0.05674527309307293,5.0,0.782608695652174,24.0,0.0,0.0,0.0,1.0,0.0,0.0,0.0,0.0,1.0,1.0,0.0,0.0,0.0,0.0,0.0,0.0,0.0,0.0,0.0,0.0,0.0,0.0,1.0,0.0,1.0,1.0,0.0,0.3019792995918367,2.311259854675144e-06,-0.03171151838474567,-0.031423035355420986,-0.025890111491514354,-0.025890111491514354,0.4066379085714286,0.4251408571428571,-0.031423035355420986,h100_direct_move,r146_full_state_counter_h088,r146_full_state,full_state,"Q1,Q2,Q3,S1,S2,S3,S4",basis_q2_counter_a050__r146_full_state_counter_h088,basis_q2_counter_a050,-0.01335479002605392
