kbsooo/etri/hitl/h017_joint_label_weight_jepa/h017_candidates.csv
joint_delta_mean_vs_h012,joint_delta_p10_vs_h012,joint_delta_p90_vs_h012,joint_delta_max_vs_h012,joint_beats_h012_rate,uniform_joint_q_delta_vs_h012,candidate_id,mode,target_subset,k,alpha,changed_rows,changed_cells,mean_abs_prob_delta_vs_h012,max_abs_prob_delta_vs_h012,h015_joint_delta_mean,h016_joint_delta_mean,gain_vs_h015_under_joint,gain_vs_h016_under_joint,h017_decision,decision_rank,file
-0.0005745006420256535,-0.0005745204902379546,-0.0005744812812442339,-0.0005744812812442339,1.0,-0.0005540731791096813,oracle_gain_all_k1650_a1,oracle_gain,all,1650,1.0,250,1650,0.01112877960311084,0.10712119668730175,0.00016465405640302862,-0.0002962889540483187,-0.0007391546984286821,-0.00027821168797733477,joint_world_sensor,1,hitl/h017_joint_label_weight_jepa/submission_h017_oracle_gain_all_k1650_a1_53487040.csv
-0.0005742973378429133,-0.0005743163898828317,-0.0005742789241305304,-0.0005742789241305304,1.0,-0.0005538865088221866,consensus_all_k1650_a1,consensus,all,1650,1.0,250,1650,0.011127183490751653,0.10712119668730175,0.00016465405640302862,-0.0002962889540483187,-0.0007389513942459419,-0.00027800838379459463,joint_world_sensor,1,hitl/h017_joint_label_weight_jepa/submission_h017_consensus_all_k1650_a1_fa1c1ba2.csv
-0.0005678984123793215,-0.0005679178529361979,-0.0005678794294274957,-0.0005678794294274957,1.0,-0.000547341393062919,h016_gain_all_k1650_a1,h016_gain,all,1650,1.0,250,1650,0.010872371311359368,0.10712119668730175,0.00016465405640302862,-0.0002962889540483187,-0.0007325524687823501,-0.0002716094583310028,joint_world_sensor,1,hitl/h017_joint_label_weight_jepa/submission_h017_h016_gain_all_k1650_a1_4b0c2462.csv
-0.0005677286172324616,-0.0005677429405315224,-0.0005677153806060175,-0.0005677153806060175,1.0,-0.0005473420772159515,oracle_gain_all_k1400_a1,oracle_gain,all,1400,1.0,250,1400,0.010608350671576507,0.10712119668730175,0.00016465405640302862,-0.0002962889540483187,-0.0007323826736354902,-0.0002714396631841429,joint_world_sensor,1,hitl/h017_joint_label_weight_jepa/submission_h017_oracle_gain_all_k1400_a1_001f63f1.csv
-0.0005636080494207905,-0.0005636222926664978,-0.0005635947995795822,-0.0005635947995795822,1.0,-0.0005430420171446941,consensus_all_k1400_a1,consensus,all,1400,1.0,250,1400,0.010393689050959958,0.10712119668730175,0.00016465405640302862,-0.0002962889540483187,-0.0007282621058238191,-0.0002673190953724718,joint_world_sensor,1,hitl/h017_joint_label_weight_jepa/submission_h017_consensus_all_k1400_a1_43b6c9f0.csv
-0.0005484194545520858,-0.000548433150011334,-0.0005484067950269036,-0.0005484067950269036,1.0,-0.0005277117689171334,oracle_gain_all_k1100_a1,oracle_gain,all,1100,1.0,250,1100,0.009451559543374557,0.10712119668730175,0.00016465405640302862,-0.0002962889540483187,-0.0007130735109551144,-0.0002521305005037671,joint_world_sensor,1,hitl/h017_joint_label_weight_jepa/submission_h017_oracle_gain_all_k1100_a1_d95be141.csv
-0.0005477788365247175,-0.0005477961948791553,-0.0005477617770999297,-0.0005477617770999297,1.0,-0.0005259840952269073,weight_shift_all_k1650_a1,weight_shift,all,1650,1.0,250,1650,0.010420058683482556,0.10712119668730175,0.00016465405640302862,-0.0002962889540483187,-0.0007124328929277461,-0.0002514898824763988,joint_world_sensor,1,hitl/h017_joint_label_weight_jepa/submission_h017_weight_shift_all_k1650_a1_1b313da1.csv
-0.0005399133005777502,-0.0005399372076788403,-0.00053989015915962,-0.00053989015915962,1.0,-0.0005205913742932701,oracle_gain_all_k1650_a1.25,oracle_gain,all,1650,1.25,250,1650,0.013869872713998768,0.13312855958707037,0.00016465405640302862,-0.0002962889540483187,-0.0007045673569807788,-0.00024362434652943152,joint_world_sensor,1,hitl/h017_joint_label_weight_jepa/submission_h017_oracle_gain_all_k1650_a1.25_c65a7401.csv
-0.0005397144380619663,-0.0005397375234175117,-0.0005396922726834561,-0.0005396922726834561,1.0,-0.0005204092367796087,consensus_all_k1650_a1.25,consensus,all,1650,1.25,250,1650,0.01386788196454887,0.13312855958707037,0.00016465405640302862,-0.0002962889540483187,-0.0007043684944649949,-0.0002434254840136476,joint_world_sensor,1,hitl/h017_joint_label_weight_jepa/submission_h017_consensus_all_k1650_a1.25_1ff4a608.csv
-0.000539429420455234,-0.0005394443057502253,-0.0005394149006190055,-0.0005394149006190055,1.0,-0.000520164332887345,oracle_gain_all_k1650_a0.75,oracle_gain,all,1650,0.75,250,1650,0.008371934530751546,0.08142080446424049,0.00016465405640302862,-0.0002962889540483187,-0.0007040834768582626,-0.0002431404664069153,joint_world_sensor,1,hitl/h017_joint_label_weight_jepa/submission_h017_oracle_gain_all_k1650_a0.75_80c82e5a.csv
-0.0005392331745017252,-0.0005392474626616596,-0.000539219364972616,-0.000539219364972616,1.0,-0.0005199845925430797,consensus_all_k1650_a0.75,consensus,all,1650,0.75,250,1650,0.008370728483876747,0.08142080446424049,0.00016465405640302862,-0.0002962889540483187,-0.0007038872309047538,-0.0002429442204534065,joint_world_sensor,1,hitl/h017_joint_label_weight_jepa/submission_h017_consensus_all_k1650_a0.75_41b05b21.csv
-0.0005337272347048803,-0.0005337506324703831,-0.0005337045653576903,-0.0005337045653576903,1.0,-0.0005142838719042014,h016_gain_all_k1650_a1.25,h016_gain,all,1650,1.25,250,1650,0.01354879628545597,0.13312855958707037,0.00016465405640302862,-0.0002962889540483187,-0.0006983812911079089,-0.0002374382806565616,joint_world_sensor,1,hitl/h017_joint_label_weight_jepa/submission_h017_h016_gain_all_k1650_a1.25_8708e171.csv
-0.0005335208271727124,-0.0005335387323555199,-0.0005335042804949235,-0.0005335042804949235,1.0,-0.0005142463352835582,oracle_gain_all_k1400_a1.25,oracle_gain,all,1400,1.25,250,1400,0.013219546649460033,0.13312855958707037,0.00016465405640302862,-0.0002962889540483187,-0.000698174883575741,-0.00023723187312439366,joint_world_sensor,1,hitl/h017_joint_label_weight_jepa/submission_h017_oracle_gain_all_k1400_a1.25_1b90cc5b.csv
-0.0005332418716832316,-0.0005332564510979378,-0.0005332276353474363,-0.0005332276353474363,1.0,-0.0005138554152876378,h016_gain_all_k1650_a0.75,h016_gain,all,1650,0.75,250,1650,0.00817997017268015,0.08142080446424049,0.00016465405640302862,-0.0002962889540483187,-0.0006978959280862602,-0.0002369529176349129,joint_world_sensor,1,hitl/h017_joint_label_weight_jepa/submission_h017_h016_gain_all_k1650_a0.75_9ae594b0.csv
-0.0005330495644532288,-0.0005330603060309518,-0.00053303963776266,-0.00053303963776266,1.0,-0.0005138302233232833,oracle_gain_all_k1400_a0.75,oracle_gain,all,1400,0.75,250,1400,0.007981454516221582,0.08142080446424049,0.00016465405640302862,-0.0002962889540483187,-0.0006977036208562574,-0.00023676061040491008,joint_world_sensor,1,hitl/h017_joint_label_weight_jepa/submission_h017_oracle_gain_all_k1400_a0.75_05873160.csv
-0.0005308864759164953,-0.0005309047824276371,-0.000530868973358613,-0.000530868973358613,1.0,-0.0005141260373293415,h015_gain_all_k1650_a1,h015_gain,all,1650,1.0,250,1650,0.010690310374105203,0.10712119668730175,0.00016465405640302862,-0.0002962889540483187,-0.0006955405323195239,-0.00023459752186817657,joint_world_sensor,1,hitl/h017_joint_label_weight_jepa/submission_h017_h015_gain_all_k1650_a1_13fd5e90.csv
-0.000529689336686786,-0.000529707095713793,-0.0005296728380287591,-0.0005296728380287591,1.0,-0.000510240049363051,consensus_all_k1400_a1.25,consensus,all,1400,1.25,250,1400,0.012950036874733742,0.13312855958707037,0.00016465405640302862,-0.0002962889540483187,-0.0006943433930898146,-0.00023340038263846733,joint_world_sensor,1,hitl/h017_joint_label_weight_jepa/submission_h017_consensus_all_k1400_a1.25_526ebd5e.csv
-0.000529208019260379,-0.0005292187007854287,-0.0005291980826705253,-0.0005291980826705253,1.0,-0.0005098158531548301,consensus_all_k1400_a0.75,consensus,all,1400,0.75,250,1400,0.007821189870370919,0.08142080446424049,0.00016465405640302862,-0.0002962889540483187,-0.0006938620756634076,-0.00023291906521206025,joint_world_sensor,1,hitl/h017_joint_label_weight_jepa/submission_h017_consensus_all_k1400_a0.75_43657549.csv
-0.0005272419341944189,-0.0005272551385916929,-0.0005272297281500593,-0.0005272297281500593,1.0,-0.0005061517681029506,consensus_all_k1100_a1,consensus,all,1100,1.0,250,1100,0.008950813658918332,0.10712119668730175,0.00016465405640302862,-0.0002962889540483187,-0.0006918959905974475,-0.00023095298014610017,joint_world_sensor,1,hitl/h017_joint_label_weight_jepa/submission_h017_consensus_all_k1100_a1_d597dd75.csv
-0.0005180922897958972,-0.0005181078883545912,-0.0005180770417889911,-0.0005180770417889911,1.0,-0.0004980050999169876,h016_gain_all_k1400_a1,h016_gain,all,1400,1.0,249,1400,0.009564765692997424,0.10712119668730175,0.00016465405640302862,-0.0002962889540483187,-0.0006827463461989258,-0.00022180333574757847,joint_world_sensor,1,hitl/h017_joint_label_weight_jepa/submission_h017_h016_gain_all_k1400_a1_fff2a763.csv
-0.0005154178469169978,-0.0005154349673112474,-0.0005154020216057982,-0.0005154020216057982,1.0,-0.0004958421838620446,oracle_gain_all_k1100_a1.25,oracle_gain,all,1100,1.25,250,1100,0.011773785275908118,0.13312855958707037,0.00016465405640302862,-0.0002962889540483187,-0.0006800719033200264,-0.00021912889286867908,joint_world_sensor,1,hitl/h017_joint_label_weight_jepa/submission_h017_oracle_gain_all_k1100_a1.25_34bd402f.csv
-0.0005149467265683074,-0.0005149569972597341,-0.0005149372327094141,-0.0005149372327094141,1.0,-0.0004954263703096346,oracle_gain_all_k1100_a0.75,oracle_gain,all,1100,0.75,250,1100,0.0071137281614159185,0.08142080446424049,0.00016465405640302862,-0.0002962889540483187,-0.000679600782971336,-0.0002186577725199887,joint_world_sensor,1,hitl/h017_joint_label_weight_jepa/submission_h017_oracle_gain_all_k1100_a0.75_cb3e2596.csv
-0.000514860840770984,-0.0005148816354346779,-0.000514840576144944,-0.000514840576144944,1.0,-0.0004942565971410435,weight_shift_all_k1650_a1.25,weight_shift,all,1650,1.25,250,1650,0.012984280750603793,0.13312855958707037,0.00016465405640302862,-0.0002962889540483187,-0.0006795148971740126,-0.00021857188672266527,joint_world_sensor,1,hitl/h017_joint_label_weight_jepa/submission_h017_weight_shift_all_k1650_a1.25_1664ec2c.csv
-0.0005143769211097464,-0.0005143899390883522,-0.0005143641272257616,-0.0005143641272257616,1.0,-0.0004938301889209024,weight_shift_all_k1650_a0.75,weight_shift,all,1650,0.75,250,1650,0.00784023087913655,0.08142080446424049,0.00016465405640302862,-0.0002962889540483187,-0.000679030977512775,-0.00021808796706142768,joint_world_sensor,1,hitl/h017_joint_label_weight_jepa/submission_h017_weight_shift_all_k1650_a0.75_e00bfa7c.csv
-0.0005114345951145876,-0.000511447145634184,-0.0005114229917218526,-0.0005114229917218526,1.0,-0.0004900743099357291,oracle_gain_all_k800_a1,oracle_gain,all,800,1.0,243,800,0.007846431398128547,0.10712119668730175,0.00016465405640302862,-0.0002962889540483187,-0.0006760886515176162,-0.00021514564106626884,joint_world_sensor,1,hitl/h017_joint_label_weight_jepa/submission_h017_oracle_gain_all_k800_a1_bf640d79.csv
-0.0005088128247710789,-0.0005088306226743356,-0.0005087953382118806,-0.0005087953382118806,1.0,-0.0004919420752179731,conflict_all_k1650_a1,conflict,all,1650,1.0,250,1650,0.010398306538179794,0.10712119668730175,0.00016465405640302862,-0.0002962889540483187,-0.0006734668811741075,-0.00021252387072276017,joint_world_sensor,1,hitl/h017_joint_label_weight_jepa/submission_h017_conflict_all_k1650_a1_554ddb0c.csv
-0.0005042663352876615,-0.0005042804582987679,-0.0005042522539747537,-0.0005042522539747537,1.0,-0.00048116462352673384,weight_shift_all_k1400_a1,weight_shift,all,1400,1.0,250,1400,0.008919715636329163,0.10712119668730175,0.00016465405640302862,-0.0002962889540483187,-0.0006689203916906901,-0.0002079773812393428,joint_world_sensor,1,hitl/h017_joint_label_weight_jepa/submission_h017_weight_shift_all_k1400_a1_46178aa3.csv
-0.0004987496568000477,-0.0004987718761217209,-0.000498728516698537,-0.000498728516698537,1.0,-0.0004829336627504158,h015_gain_all_k1650_a1.25,h015_gain,all,1650,1.25,250,1650,0.013322481087344074,0.13312855958707037,0.00016465405640302862,-0.0002962889540483187,-0.0006634037132030763,-0.00020246070275172894,joint_world_sensor,1,hitl/h017_joint_label_weight_jepa/submission_h017_h015_gain_all_k1650_a1.25_20859cde.csv
-0.0004983549754581559,-0.0004983687044232387,-0.0004983418493324612,-0.0004983418493324612,1.0,-0.0004825739389749027,h015_gain_all_k1650_a0.75,h015_gain,all,1650,0.75,250,1650,0.008042329931368159,0.08142080446424049,0.00016465405640302862,-0.0002962889540483187,-0.0006630090318611845,-0.00020206602140983716,joint_world_sensor,1,hitl/h017_joint_label_weight_jepa/submission_h017_h015_gain_all_k1650_a0.75_cd691d83.csv
-0.0004955850679860206,-0.0004956015749087469,-0.0004955698092030139,-0.0004955698092030139,1.0,-0.00047565013136854635,consensus_all_k1100_a1.25,consensus,all,1100,1.25,250,1100,0.011143768749101965,0.13312855958707037,0.00016465405640302862,-0.0002962889540483187,-0.0006602391243890492,-0.00019929611393770184,joint_world_sensor,1,hitl/h017_joint_label_weight_jepa/submission_h017_consensus_all_k1100_a1.25_60e9146a.csv
-0.0004951057259457032,-0.0004951156281280079,-0.0004950965723902937,-0.0004950965723902937,1.0,-0.0004752263460444697,consensus_all_k1100_a0.75,consensus,all,1100,0.75,250,1100,0.006740632653144782,0.08142080446424049,0.00016465405640302862,-0.0002962889540483187,-0.0006597597823487318,-0.00019881677189738449,joint_world_sensor,1,hitl/h017_joint_label_weight_jepa/submission_h017_consensus_all_k1100_a0.75_07976f07.csv
-0.0004870262826978677,-0.0004870452525607701,-0.00048700791439130353,-0.00048700791439130353,1.0,-0.00046803184416908104,h016_gain_all_k1400_a1.25,h016_gain,all,1400,1.25,249,1400,0.011910496459777063,0.13312855958707037,0.00016465405640302862,-0.0002962889540483187,-0.0006516803391008963,-0.000190737328649549,joint_world_sensor,1,hitl/h017_joint_label_weight_jepa/submission_h017_h016_gain_all_k1400_a1.25_055248fc.csv
-0.0004865389848535769,-0.00048655068281302334,-0.0004865275496854206,-0.0004865275496854206,1.0,-0.0004675994684031282,h016_gain_all_k1400_a0.75,h016_gain,all,1400,0.75,249,1400,0.00720147293425591,0.08142080446424049,0.00016465405640302862,-0.0002962889540483187,-0.0006511930412566056,-0.00019025003080525818,joint_world_sensor,1,hitl/h017_joint_label_weight_jepa/submission_h017_h016_gain_all_k1400_a0.75_6c37e2a8.csv
-0.00048073825665707735,-0.0004807539456669973,-0.0004807237517077245,-0.0004807237517077245,1.0,-0.0004605505244397907,oracle_gain_all_k800_a1.25,oracle_gain,all,800,1.25,243,800,0.009768691136573962,0.13312855958707037,0.00016465405640302862,-0.0002962889540483187,-0.000645392313060106,-0.00018444930260875863,joint_world_sensor,1,hitl/h017_joint_label_weight_jepa/submission_h017_oracle_gain_all_k800_a1.25_9a762498.csv
-0.0004802694539492829,-0.0004802788660624192,-0.0004802607520714049,-0.0004802607520714049,1.0,-0.00046013734655904996,oracle_gain_all_k800_a0.75,oracle_gain,all,800,0.75,243,800,0.005909102566880621,0.08142080446424049,0.00016465405640302862,-0.0002962889540483187,-0.0006449235103523116,-0.0001839804999009642,joint_world_sensor,1,hitl/h017_joint_label_weight_jepa/submission_h017_oracle_gain_all_k800_a0.75_7ff05e1b.csv
-0.00047810496666580055,-0.0004781263118061857,-0.0004780841671293357,-0.0004780841671293357,1.0,-0.00046214023209456854,conflict_all_k1650_a1.25,conflict,all,1650,1.25,250,1650,0.01296376865669202,0.13312855958707037,0.00016465405640302862,-0.0002962889540483187,-0.0006427590230688292,-0.00018181601261748183,joint_world_sensor,1,hitl/h017_joint_label_weight_jepa/submission_h017_conflict_all_k1650_a1.25_c59222e7.csv
-0.00047770141466757765,-0.0004777147617290238,-0.000477688300986626,-0.000477688300986626,1.0,-0.00046178602831146103,conflict_all_k1650_a0.75,conflict,all,1650,0.75,250,1650,0.00781969498998519,0.08142080446424049,0.00016465405640302862,-0.0002962889540483187,-0.0006423554710706063,-0.00018141246061925893,joint_world_sensor,1,hitl/h017_joint_label_weight_jepa/submission_h017_conflict_all_k1650_a0.75_5b7bc4b9.csv
-0.0004773151525416122,-0.0004773272432151916,-0.0004773039023396409,-0.0004773039023396409,1.0,-0.0004610217800902116,h015_gain_all_k1400_a1,h015_gain,all,1400,1.0,250,1400,0.009425976384632252,0.10712119668730175,0.00016465405640302862,-0.0002962889540483187,-0.0006419692089446408,-0.00018102619849329345,joint_world_sensor,1,hitl/h017_joint_label_weight_jepa/submission_h017_h015_gain_all_k1400_a1_14d73c37.csv
-0.0004740666471938426,-0.00047408339749664165,-0.0004740501053722124,-0.0004740501053722124,1.0,-0.0004522365509422436,weight_shift_all_k1400_a1.25,weight_shift,all,1400,1.25,250,1400,0.011109348713383826,0.13312855958707037,0.00016465405640302862,-0.0002962889540483187,-0.0006387207035968713,-0.0001777776931455239,joint_world_sensor,1,hitl/h017_joint_label_weight_jepa/submission_h017_weight_shift_all_k1400_a1.25_2cc6a9ce.csv
-0.0004736299082522066,-0.0004736415925502255,-0.0004736191274741517,-0.0004736191274741517,1.0,-0.0004520028881809463,consensus_all_k800_a1,consensus,all,800,1.0,245,800,0.007312744257039049,0.10712119668730175,0.00016465405640302862,-0.0002962889540483187,-0.0006382839646552353,-0.0001773409542038879,joint_world_sensor,1,hitl/h017_joint_label_weight_jepa/submission_h017_consensus_all_k800_a1_0c6e620c.csv
-0.00047358273381128995,-0.0004735933253962905,-0.0004735721734080398,-0.0004735721734080398,1.0,-0.0004518109843797521,weight_shift_all_k1400_a0.75,weight_shift,all,1400,0.75,250,1400,0.0067147034382067745,0.08142080446424049,0.00016465405640302862,-0.0002962889540483187,-0.0006382367902143186,-0.00017729377976297123,joint_world_sensor,1,hitl/h017_joint_label_weight_jepa/submission_h017_weight_shift_all_k1400_a0.75_411b93c0.csv
-0.00046451456240956306,-0.00046452667910293116,-0.0004645023185621734,-0.0004645023185621734,1.0,-0.00044058430123185537,weight_shift_all_k1100_a1,weight_shift,all,1100,1.0,250,1100,0.007504001743493499,0.10712119668730175,0.00016465405640302862,-0.0002962889540483187,-0.0006291686188125917,-0.00016822560836124434,joint_world_sensor,1,hitl/h017_joint_label_weight_jepa/submission_h017_weight_shift_all_k1100_a1_be635e5a.csv
-0.00046019628194944644,-0.00046020719718207375,-0.00046018563464260404,-0.00046018563464260404,1.0,-0.0004436256600930596,oracle_gain_all_k1650_a0.55,oracle_gain,all,1650,0.55,250,1650,0.006154701056244182,0.06098234466840957,0.00016465405640302862,-0.0002962889540483187,-0.0006248503383524751,-0.00016390732790112772,joint_world_sensor,1,hitl/h017_joint_label_weight_jepa/submission_h017_oracle_gain_all_k1650_a0.55_b75584a6.csv
-0.0004600186929875798,-0.00046002917031658796,-0.0004600085665768564,-0.0004600085665768564,1.0,-0.00044346369045970396,consensus_all_k1650_a0.55,consensus,all,1650,0.55,250,1650,0.006153804502957365,0.06098234466840957,0.00016465405640302862,-0.0002962889540483187,-0.0006246727493906084,-0.00016372973893926106,joint_world_sensor,1,hitl/h017_joint_label_weight_jepa/submission_h017_consensus_all_k1650_a0.55_b2b89477.csv
-0.0004559607406338152,-0.00045597259233697766,-0.0004559497323309614,-0.0004559497323309614,1.0,-0.0004368962144675733,h016_gain_all_k1100_a1,h016_gain,all,1100,1.0,248,1100,0.008113519389488833,0.10712119668730175,0.00016465405640302862,-0.0002962889540483187,-0.0006206147970368438,-0.00015967178658549645,joint_world_sensor,1,hitl/h017_joint_label_weight_jepa/submission_h017_h016_gain_all_k1100_a1_d28b11a0.csv
-0.00045493589827023023,-0.000454946589110055,-0.0004549254589382067,-0.0004549254589382067,1.0,-0.000438262129163633,h016_gain_all_k1650_a0.55,h016_gain,all,1650,0.55,250,1650,0.006014128901694148,0.06098234466840957,0.00016465405640302862,-0.0002962889540483187,-0.0006195899546732589,-0.0001586469442219115,joint_world_sensor,1,not_materialized
-0.00045471022357263815,-0.00045471810005693936,-0.00045470294459286755,-0.00045470294459286755,1.0,-0.0004381917551675245,oracle_gain_all_k1400_a0.55,oracle_gain,all,1400,0.55,250,1400,0.005868221966673967,0.06098234466840957,0.00016465405640302862,-0.0002962889540483187,-0.0006193642799756667,-0.00015842126952431943,joint_world_sensor,1,not_materialized
-0.00045148311024631227,-0.0004514909426878437,-0.00045147582401102457,-0.00045147582401102457,1.0,-0.00043480879031729264,consensus_all_k1400_a0.55,consensus,all,1400,0.55,250,1400,0.0057511461998597385,0.06098234466840957,0.00016465405640302862,-0.0002962889540483187,-0.0006161371666493409,-0.00015519415619799355,joint_world_sensor,1,not_materialized
-0.000448497358484875,-0.0004485124266454915,-0.0004484833595046849,-0.0004484833595046849,1.0,-0.00043312490966899216,h015_gain_all_k1400_a1.25,h015_gain,all,1400,1.25,250,1400,0.01173984085738873,0.13312855958707037,0.00016465405640302862,-0.0002962889540483187,-0.0006131514148879036,-0.00015220840443655627,joint_world_sensor,1,not_materialized
-0.00044811056936049483,-0.00044811963660320334,-0.0004481021323711007,-0.0004481021323711007,1.0,-0.0004327722144140807,h015_gain_all_k1400_a0.75,h015_gain,all,1400,0.75,250,1400,0.0070953229583450165,0.08142080446424049,0.00016465405640302862,-0.0002962889540483187,-0.0006127646257635235,-0.0001518216153121761,joint_world_sensor,1,not_materialized
-0.0004453464399840473,-0.0004453610475514912,-0.00044533296207190017,-0.00044533296207190017,1.0,-0.0004249118103329001,consensus_all_k800_a1.25,consensus,all,800,1.25,245,800,0.009092781158391955,0.13312855958707037,0.00016465405640302862,-0.0002962889540483187,-0.000610000496387076,-0.00014905748593572858,joint_world_sensor,1,not_materialized
-0.00044485561990859155,-0.0004448643815589501,-0.0004448475357264178,-0.0004448475357264178,1.0,-0.0004244758142161967,consensus_all_k800_a0.75,consensus,all,800,0.75,245,800,0.005514102183974983,0.08142080446424049,0.00016465405640302862,-0.0002962889540483187,-0.0006095096763116201,-0.00014856666586027283,joint_world_sensor,1,not_materialized
-0.00044208376376056615,-0.0004420944350028735,-0.0004420738791645746,-0.0004420738791645746,1.0,-0.00041962984308794785,oracle_gain_all_k500_a1,oracle_gain,all,500,1.0,221,500,0.005640059904370676,0.10712119668730175,0.00016465405640302862,-0.0002962889540483187,-0.0006067378201635948,-0.00014579480971224743,joint_world_sensor,1,not_materialized
-0.00043931004840520025,-0.0004393175795692601,-0.0004393030868385475,-0.0004393030868385475,1.0,-0.00042253554456030655,oracle_gain_all_k1100_a0.55,oracle_gain,all,1100,0.55,250,1100,0.005231813132079241,0.06098234466840957,0.00016465405640302862,-0.0002962889540483187,-0.0006039641048082288,-0.00014302109435688153,joint_world_sensor,1,not_materialized
-0.0004388840886439687,-0.00043889363456066745,-0.00043887470699320737,-0.00043887470699320737,1.0,-0.0004212232457752599,weight_shift_all_k1650_a0.55,weight_shift,all,1650,0.55,250,1650,0.005764701314405517,0.06098234466840957,0.00016465405640302862,-0.0002962889540483187,-0.0006035381450469973,-0.00014259513459564997,joint_world_sensor,1,not_materialized
-0.0004368013292763415,-0.0004368155714760806,-0.0004367870844741638,-0.0004367870844741638,1.0,-0.0004141941880962746,weight_shift_all_k1100_a1.25,weight_shift,all,1100,1.25,250,1100,0.009339846735665397,0.13312855958707037,0.00016465405640302862,-0.0002962889540483187,-0.0006014553856793701,-0.00014051237522802278,joint_world_sensor,1,not_materialized
-0.00043631626971132653,-0.0004363253566857878,-0.0004363070872907952,-0.0004363070872907952,1.0,-0.0004137679588486343,weight_shift_all_k1100_a0.75,weight_shift,all,1100,0.75,250,1100,0.00565284488151258,0.08142080446424049,0.00016465405640302862,-0.0002962889540483187,-0.0006009703261143552,-0.0001400273156630078,joint_world_sensor,1,not_materialized
-0.0004343599374354156,-0.0004343712539951128,-0.00043434941957645073,-0.00043434941957645073,1.0,-0.0004177651330793042,h015_gain_all_k1100_a1,h015_gain,all,1100,1.0,250,1100,0.008047015644201693,0.10712119668730175,0.00016465405640302862,-0.0002962889540483187,-0.0005990139938384442,-0.00013807098338709686,joint_world_sensor,1,not_materialized
-0.0004286880121913588,-0.0004287027828971874,-0.00042867431443432556,-0.00042867431443432556,1.0,-0.00041066633493374807,h016_gain_all_k1100_a1.25,h016_gain,all,1100,1.25,248,1100,0.010095408429027446,0.13312855958707037,0.00016465405640302862,-0.0002962889540483187,-0.0005933420685943874,-0.00013239905814304008,joint_world_sensor,1,not_materialized
-0.0004282294277858283,-0.0004282383150118027,-0.0004282211729419159,-0.0004282211729419159,1.0,-0.0004102586237815709,h016_gain_all_k1100_a0.75,h016_gain,all,1100,0.75,248,1100,0.006113497953129622,0.08142080446424049,0.00016465405640302862,-0.0002962889540483187,-0.000592883484188857,-0.0001319404737375096,joint_world_sensor,1,not_materialized
-0.00042494881022463665,-0.00042495887746673254,-0.0004249391849820053,-0.0004249391849820053,1.0,-0.0004114178763739961,h015_gain_all_k1650_a0.55,h015_gain,all,1650,0.55,250,1650,0.005912347624582172,0.06098234466840957,0.00016465405640302862,-0.0002962889540483187,-0.0005896028666276653,-0.00012865985617631793,joint_world_sensor,1,not_materialized
-0.0004224524818864885,-0.0004224597426862425,-0.00042244576998845545,-0.00042244576998845545,1.0,-0.0004053715369339584,consensus_all_k1100_a0.55,consensus,all,1100,0.55,250,1100,0.004959662872643082,0.06098234466840957,0.00016465405640302862,-0.0002962889540483187,-0.0005871065382895171,-0.00012616352783816976,joint_world_sensor,1,not_materialized
-0.00042116781122261893,-0.00042117894774047055,-0.0004211564523354038,-0.0004211564523354038,1.0,-0.0003965191209776027,weight_shift_all_k800_a1,weight_shift,all,800,1.0,244,800,0.006029357356553295,0.10712119668730175,0.00016465405640302862,-0.0002962889540483187,-0.0005858218676256476,-0.00012487885717430021,joint_world_sensor,1,not_materialized
-0.00041570589258794317,-0.00041571923223310394,-0.0004156935363849977,-0.0004156935363849977,1.0,-0.00039449256634244,oracle_gain_all_k500_a1.25,oracle_gain,all,500,1.25,221,500,0.007012946112832384,0.13312855958707037,0.00016465405640302862,-0.0002962889540483187,-0.0005803599489909718,-0.00011941693853962445,joint_world_sensor,1,not_materialized
-0.0004152431695993106,-0.00041525117241771606,-0.0004152357566665725,-0.0004152357566665725,1.0,-0.0003940859430325782,oracle_gain_all_k500_a0.75,oracle_gain,all,500,0.75,221,500,0.004253017487086785,0.08142080446424049,0.00016465405640302862,-0.0002962889540483187,-0.0005798972260023392,-0.00011895421555099188,joint_world_sensor,1,not_materialized
-0.0004151876596625639,-0.0004151962374584836,-0.00041517927449784655,-0.00041517927449784655,1.0,-0.0003989044733001624,h016_gain_all_k1400_a0.55,h016_gain,all,1400,0.55,249,1400,0.005297815768826836,0.06098234466840957,0.00016465405640302862,-0.0002962889540483187,-0.0005798417160655926,-0.00011889870561424519,joint_world_sensor,1,not_materialized
-0.00040980532864070776,-0.00040981223025517697,-0.0004097989477904316,-0.0004097989477904316,1.0,-0.000392510408597111,oracle_gain_all_k800_a0.55,oracle_gain,all,800,0.55,243,800,0.004347969102140997,0.06098234466840957,0.00016465405640302862,-0.0002962889540483187,-0.0005744593850437364,-0.00011351637459238904,joint_world_sensor,1,not_materialized
-0.00040821085953831335,-0.0004082249602530515,-0.00040819777579826315,-0.00040819777579826315,1.0,-0.00039255842420130824,h015_gain_all_k1100_a1.25,h015_gain,all,1100,1.25,250,1100,0.010016157757299363,0.13312855958707037,0.00016465405640302862,-0.0002962889540483187,-0.000572864915941342,-0.00011192190548999463,joint_world_sensor,1,not_materialized
-0.00040782835246280905,-0.00040783683900566796,-0.00040782046484068784,-0.00040782046484068784,1.0,-0.00039220942743217947,h015_gain_all_k1100_a0.75,h015_gain,all,1100,0.75,250,1100,0.006061066936786782,0.08142080446424049,0.00016465405640302862,-0.0002962889540483187,-0.0005724824088658377,-0.00011153939841449033,joint_world_sensor,1,not_materialized
-0.0004074529093027824,-0.00040746269623339546,-0.0004074432934354197,-0.0004074432934354197,1.0,-0.0003937564384959767,conflict_all_k1650_a0.55,conflict,all,1650,0.55,250,1650,0.005747037552460037,0.06098234466840957,0.00016465405640302862,-0.0002962889540483187,-0.0005721069657058111,-0.0001111639552544637,joint_world_sensor,1,not_materialized
-0.00040454673898033237,-0.0004045565161525894,-0.00040453771495181054,-0.00040453771495181054,1.0,-0.0003826794508889785,consensus_all_k500_a1,consensus,all,500,1.0,223,500,0.00541445397784343,0.10712119668730175,0.00016465405640302862,-0.0002962889540483187,-0.000569200795383361,-0.00010825778493201365,joint_world_sensor,1,not_materialized
-0.00040430964102494785,-0.0004043195801363051,-0.0004043004813149631,-0.0004043004813149631,1.0,-0.0003873581488591747,h016_gain_all_k800_a1,h016_gain,all,800,1.0,245,800,0.006878867241475032,0.10712119668730175,0.00016465405640302862,-0.0002962889540483187,-0.0005689636974279765,-0.00010802068697662913,joint_world_sensor,1,not_materialized
-0.0004041804106533872,-0.00040418817728417046,-0.00040417266682561106,-0.00040417266682561106,1.0,-0.00038547757890535167,weight_shift_all_k1400_a0.55,weight_shift,all,1400,0.55,250,1400,0.004939170752351859,0.06098234466840957,0.00016465405640302862,-0.0002962889540483187,-0.0005688344670564158,-0.00010789145660506847,joint_world_sensor,1,not_materialized
-0.0004018621408308819,-0.00040187779377080085,-0.0004018467085928099,-0.0004018467085928099,1.0,-0.00038938470118288253,conflict_all_k1400_a1,conflict,all,1400,1.0,250,1400,0.008448485801632474,0.10712119668730175,0.00016465405640302862,-0.0002962889540483187,-0.0005665161972339105,-0.00010557318678256319,joint_world_sensor,1,not_materialized
-0.0003961575241760961,-0.0003961705411255792,-0.00039614438559648537,-0.00039614438559648537,1.0,-0.00037287659281804954,weight_shift_all_k800_a1.25,weight_shift,all,800,1.25,244,800,0.007497416251485351,0.13312855958707037,0.00016465405640302862,-0.0002962889540483187,-0.0005608115805791247,-9.986857012777737e-05,joint_world_sensor,1,not_materialized
-0.00039567485272738495,-0.00039568320459564265,-0.0003956663340073436,-0.0003956663340073436,1.0,-0.0003724530349833295,weight_shift_all_k800_a0.75,weight_shift,all,800,0.75,244,800,0.0045463572695498035,0.08142080446424049,0.00016465405640302862,-0.0002962889540483187,-0.0005603289091304135,-9.938589867906623e-05,joint_world_sensor,1,not_materialized
-0.0003943632369093439,-0.00039437332915360124,-0.0003943538544472304,-0.0003943538544472304,1.0,-0.00037732746509335603,h015_gain_all_k800_a1,h015_gain,all,800,1.0,246,800,0.006645238064224299,0.10712119668730175,0.00016465405640302862,-0.0002962889540483187,-0.0005590172933123725,-9.807428286102515e-05,joint_world_sensor,1,not_materialized
-0.0003821714208095126,-0.0003821780695634051,-0.00038216523417484885,-0.00038216523417484885,1.0,-0.00036902426260939503,h015_gain_all_k1400_a0.55,h015_gain,all,1400,0.55,250,1400,0.005218552070749431,0.06098234466840957,0.00016465405640302862,-0.0002962889540483187,-0.0005468254772125412,-8.58824667611939e-05,joint_world_sensor,1,not_materialized
-0.00038059736592371726,-0.00038060959029691526,-0.0003805860832799976,-0.0003805860832799976,1.0,-0.0003599403702098375,consensus_all_k500_a1.25,consensus,all,500,1.25,223,500,0.006719516380784364,0.13312855958707037,0.00016465405640302862,-0.0002962889540483187,-0.0005452514223267459,-8.430841187539854e-05,joint_world_sensor,1,not_materialized
-0.0003800975108818326,-0.0003801048417643809,-0.0003800907446585107,-0.0003800907446585107,1.0,-0.0003594947760873507,consensus_all_k500_a0.75,consensus,all,500,0.75,223,500,0.004090572644372236,0.08142080446424049,0.00016465405640302862,-0.0002962889540483187,-0.0005447515672848612,-8.380855683351386e-05,joint_world_sensor,1,not_materialized
-0.00038003617448756013,-0.0003800486002053904,-0.00038002472321726366,-0.00038002472321726366,1.0,-0.00036405475850970697,h016_gain_all_k800_a1.25,h016_gain,all,800,1.25,245,800,0.008553788686059093,0.13312855958707037,0.00016465405640302862,-0.0002962889540483187,-0.0005446902308905888,-8.374722043924141e-05,joint_world_sensor,1,not_materialized
-0.00037972073761715334,-0.0003797271617598735,-0.0003797148101731142,-0.0003797148101731142,1.0,-0.0003622189737465639,consensus_all_k800_a0.55,consensus,all,800,0.55,245,800,0.0040613797700174365,0.06098234466840957,0.00016465405640302862,-0.0002962889540483187,-0.000544374794020182,-8.343178356883462e-05,joint_world_sensor,1,not_materialized
-0.00037965232742228093,-0.00037965978046255983,-0.00037964545880177025,-0.00037964545880177025,1.0,-0.00036370304403059915,h016_gain_all_k800_a0.75,h016_gain,all,800,0.75,245,800,0.005186274512827272,0.08142080446424049,0.00016465405640302862,-0.0002962889540483187,-0.0005443063838253096,-8.336337337396221e-05,joint_world_sensor,1,not_materialized
-0.00037762253639329093,-0.00037764123519280155,-0.00037760425596124555,-0.00037760425596124555,1.0,-0.0003657970143474169,conflict_all_k1400_a1.25,conflict,all,1400,1.25,250,1400,0.01053786699355769,0.13312855958707037,0.00016465405640302862,-0.0002962889540483187,-0.0005422765927963196,-8.133358234497221e-05,joint_world_sensor,1,not_materialized
-0.0003773024656971184,-0.0003773142040458816,-0.00037729089274175407,-0.00037729089274175407,1.0,-0.00036551891230072477,conflict_all_k1400_a0.75,conflict,all,1400,0.75,250,1400,0.006350459987462348,0.08142080446424049,0.00016465405640302862,-0.0002962889540483187,-0.000541956522100147,-8.101351164879967e-05,joint_world_sensor,1,not_materialized
-0.0003724805353476005,-0.00037248719867450096,-0.0003724738019701428,-0.0003724738019701428,1.0,-0.0003531172235159976,weight_shift_all_k1100_a0.55,weight_shift,all,1100,0.55,250,1100,0.004160437458254447,0.06098234466840957,0.00016465405640302862,-0.0002962889540483187,-0.0005371345917506292,-7.61915812992818e-05,joint_world_sensor,1,not_materialized
-0.00037072009234099135,-0.00037073266330488647,-0.00037070842724569914,-0.00037070842724569914,1.0,-0.00035465416558809194,h015_gain_all_k800_a1.25,h015_gain,all,800,1.25,246,800,0.008263687613945879,0.13312855958707037,0.00016465405640302862,-0.0002962889540483187,-0.00053537414874402,-7.443113829267263e-05,joint_world_sensor,1,not_materialized
-0.00037033501501371587,-0.0003703425829387138,-0.00037032797929549457,-0.00037032797929549457,1.0,-0.0003543028644812457,h015_gain_all_k800_a0.75,h015_gain,all,800,0.75,246,800,0.0050099041177196196,0.08142080446424049,0.00016465405640302862,-0.0002962889540483187,-0.0005349890714167445,-7.404606096539715e-05,joint_world_sensor,1,not_materialized
-0.0003683813386931092,-0.0003683911144305695,-0.0003683723013615408,-0.0003683723013615408,1.0,-0.0003453384625989555,oracle_gain_all_k300_a1,oracle_gain,all,300,1.0,180,300,0.0038410441629043134,0.10712119668730175,0.00016465405640302862,-0.0002962889540483187,-0.0005330353950961378,-7.209238464479047e-05,joint_world_sensor,1,not_materialized
-0.0003668335786680987,-0.00036684229932708827,-0.0003668255356922825,-0.0003668255356922825,1.0,-0.000349274818744235,h016_gain_all_k500_a1,h016_gain,all,500,1.0,217,500,0.0052786446025082515,0.10712119668730175,0.00016465405640302862,-0.0002962889540483187,-0.0005314876350711273,-7.054462461977996e-05,joint_world_sensor,1,not_materialized
-0.00036548393257094337,-0.00036549044882797457,-0.0003654778799523362,-0.0003654778799523362,1.0,-0.00035004067530919667,h016_gain_all_k1100_a0.55,h016_gain,all,1100,0.55,248,1100,0.004500142352981278,0.06098234466840957,0.00016465405640302862,-0.0002962889540483187,-0.000530137988973972,-6.919497852262465e-05,joint_world_sensor,1,not_materialized
-0.0003631350425539626,-0.00036314498432537303,-0.0003631247627737406,-0.0003631247627737406,1.0,-0.00033793847839561715,weight_shift_all_k500_a1,weight_shift,all,500,1.0,220,500,0.004343006909190554,0.10712119668730175,0.00016465405640302862,-0.0002962889540483187,-0.0005277890989569912,-6.684608850564386e-05,joint_world_sensor,1,not_materialized
-0.00036114118409327696,-0.00036115034592225907,-0.0003611327387865616,-0.0003611327387865616,1.0,-0.0003440074151098048,h015_gain_all_k500_a1,h015_gain,all,500,1.0,219,500,0.005318011708231927,0.10712119668730175,0.00016465405640302862,-0.0002962889540483187,-0.0005257952404963056,-6.485223004495824e-05,joint_world_sensor,1,not_materialized
-0.0003544747905347993,-0.000354480658763452,-0.0003544693548204333,-0.0003544693548204333,1.0,-0.0003363079052562148,oracle_gain_all_k500_a0.55,oracle_gain,all,500,0.55,221,500,0.003132753555538511,0.06098234466840957,0.00016465405640302862,-0.0002962889540483187,-0.0005191288469378279,-5.81858364864806e-05,joint_world_sensor,1,not_materialized
-0.0003495426279639059,-0.0003495525994790518,-0.0003495326718378911,-0.0003495326718378911,1.0,-0.00033887912165748426,oracle_gain_S_k1100_a1,oracle_gain,S,1100,1.0,250,1000,0.006540812400724387,0.04424223181137732,0.00016465405640302862,-0.0002962889540483187,-0.0005141966843669345,-5.3253673915587194e-05,diagnostic_only,2,not_materialized
-0.0003495426279639059,-0.0003495525994790518,-0.0003495326718378911,-0.0003495326718378911,1.0,-0.00033887912165748426,oracle_gain_S_k1400_a1,oracle_gain,S,1400,1.0,250,1000,0.006540812400724387,0.04424223181137732,0.00016465405640302862,-0.0002962889540483187,-0.0005141966843669345,-5.3253673915587194e-05,diagnostic_only,2,not_materialized
-0.0003495426279639059,-0.0003495525994790518,-0.0003495326718378911,-0.0003495326718378911,1.0,-0.00033887912165748426,oracle_gain_S_k1650_a1,oracle_gain,S,1650,1.0,250,1000,0.006540812400724387,0.04424223181137732,0.00016465405640302862,-0.0002962889540483187,-0.0005141966843669345,-5.3253673915587194e-05,diagnostic_only,2,not_materialized
-0.0003495426279639059,-0.0003495525994790518,-0.0003495326718378911,-0.0003495326718378911,1.0,-0.00033887912165748426,consensus_S_k1100_a1,consensus,S,1100,1.0,250,1000,0.006540812400724387,0.04424223181137732,0.00016465405640302862,-0.0002962889540483187,-0.0005141966843669345,-5.3253673915587194e-05,diagnostic_only,2,not_materialized
-0.0003495426279639059,-0.0003495525994790518,-0.0003495326718378911,-0.0003495326718378911,1.0,-0.00033887912165748426,consensus_S_k1400_a1,consensus,S,1400,1.0,250,1000,0.006540812400724387,0.04424223181137732,0.00016465405640302862,-0.0002962889540483187,-0.0005141966843669345,-5.3253673915587194e-05,diagnostic_only,2,not_materialized
-0.0003495426279639059,-0.0003495525994790518,-0.0003495326718378911,-0.0003495326718378911,1.0,-0.00033887912165748426,consensus_S_k1650_a1,consensus,S,1650,1.0,250,1000,0.006540812400724387,0.04424223181137732,0.00016465405640302862,-0.0002962889540483187,-0.0005141966843669345,-5.3253673915587194e-05,diagnostic_only,2,not_materialized
-0.0003495426279639059,-0.0003495525994790518,-0.0003495326718378911,-0.0003495326718378911,1.0,-0.00033887912165748426,conflict_S_k1100_a1,conflict,S,1100,1.0,250,1000,0.006540812400724387,0.04424223181137732,0.00016465405640302862,-0.0002962889540483187,-0.0005141966843669345,-5.3253673915587194e-05,diagnostic_only,2,not_materialized
-0.0003495426279639059,-0.0003495525994790518,-0.0003495326718378911,-0.0003495326718378911,1.0,-0.00033887912165748426,conflict_S_k1400_a1,conflict,S,1400,1.0,250,1000,0.006540812400724387,0.04424223181137732,0.00016465405640302862,-0.0002962889540483187,-0.0005141966843669345,-5.3253673915587194e-05,diagnostic_only,2,not_materialized
-0.0003495426279639059,-0.0003495525994790518,-0.0003495326718378911,-0.0003495326718378911,1.0,-0.00033887912165748426,conflict_S_k1650_a1,conflict,S,1650,1.0,250,1000,0.006540812400724387,0.04424223181137732,0.00016465405640302862,-0.0002962889540483187,-0.0005141966843669345,-5.3253673915587194e-05,diagnostic_only,2,not_materialized
-0.0003495426279639059,-0.0003495525994790518,-0.0003495326718378911,-0.0003495326718378911,1.0,-0.00033887912165748426,weight_shift_S_k1100_a1,weight_shift,S,1100,1.0,250,1000,0.006540812400724387,0.04424223181137732,0.00016465405640302862,-0.0002962889540483187,-0.0005141966843669345,-5.3253673915587194e-05,diagnostic_only,2,not_materialized
-0.0003495426279639059,-0.0003495525994790518,-0.0003495326718378911,-0.0003495326718378911,1.0,-0.00033887912165748426,weight_shift_S_k1400_a1,weight_shift,S,1400,1.0,250,1000,0.006540812400724387,0.04424223181137732,0.00016465405640302862,-0.0002962889540483187,-0.0005141966843669345,-5.3253673915587194e-05,diagnostic_only,2,not_materialized
-0.0003495426279639059,-0.0003495525994790518,-0.0003495326718378911,-0.0003495326718378911,1.0,-0.00033887912165748426,weight_shift_S_k1650_a1,weight_shift,S,1650,1.0,250,1000,0.006540812400724387,0.04424223181137732,0.00016465405640302862,-0.0002962889540483187,-0.0005141966843669345,-5.3253673915587194e-05,diagnostic_only,2,not_materialized
-0.0003495426279639059,-0.0003495525994790518,-0.0003495326718378911,-0.0003495326718378911,1.0,-0.00033887912165748426,h015_gain_S_k1100_a1,h015_gain,S,1100,1.0,250,1000,0.006540812400724387,0.04424223181137732,0.00016465405640302862,-0.0002962889540483187,-0.0005141966843669345,-5.3253673915587194e-05,diagnostic_only,2,not_materialized
-0.0003495426279639059,-0.0003495525994790518,-0.0003495326718378911,-0.0003495326718378911,1.0,-0.00033887912165748426,h015_gain_S_k1400_a1,h015_gain,S,1400,1.0,250,1000,0.006540812400724387,0.04424223181137732,0.00016465405640302862,-0.0002962889540483187,-0.0005141966843669345,-5.3253673915587194e-05,diagnostic_only,2,not_materialized
-0.0003495426279639059,-0.0003495525994790518,-0.0003495326718378911,-0.0003495326718378911,1.0,-0.00033887912165748426,h015_gain_S_k1650_a1,h015_gain,S,1650,1.0,250,1000,0.006540812400724387,0.04424223181137732,0.00016465405640302862,-0.0002962889540483187,-0.0005141966843669345,-5.3253673915587194e-05,diagnostic_only,2,not_materialized
-0.0003495426279639059,-0.0003495525994790518,-0.0003495326718378911,-0.0003495326718378911,1.0,-0.00033887912165748426,h016_gain_S_k1100_a1,h016_gain,S,1100,1.0,250,1000,0.006540812400724387,0.04424223181137732,0.00016465405640302862,-0.0002962889540483187,-0.0005141966843669345,-5.3253673915587194e-05,diagnostic_only,2,not_materialized
-0.0003495426279639059,-0.0003495525994790518,-0.0003495326718378911,-0.0003495326718378911,1.0,-0.00033887912165748426,h016_gain_S_k1400_a1,h016_gain,S,1400,1.0,250,1000,0.006540812400724387,0.04424223181137732,0.00016465405640302862,-0.0002962889540483187,-0.0005141966843669345,-5.3253673915587194e-05,diagnostic_only,2,not_materialized
-0.0003495426279639059,-0.0003495525994790518,-0.0003495326718378911,-0.0003495326718378911,1.0,-0.00033887912165748426,h016_gain_S_k1650_a1,h016_gain,S,1650,1.0,250,1000,0.006540812400724387,0.04424223181137732,0.00016465405640302862,-0.0002962889540483187,-0.0005141966843669345,-5.3253673915587194e-05,diagnostic_only,2,not_materialized
-0.0003478844678945051,-0.0003478906907360156,-0.00034787868419249815,-0.00034787868419249815,1.0,-0.000334502038848305,h015_gain_all_k1100_a0.55,h015_gain,all,1100,0.55,250,1100,0.004460060782609481,0.06098234466840957,0.00016465405640302862,-0.0002962889540483187,-0.0005125385242975338,-5.1595513846186395e-05,diagnostic_only,2,not_materialized
-0.00034656347235906444,-0.00034657569283867636,-0.00034655217502313306,-0.00034655217502313306,1.0,-0.0003248006806910647,oracle_gain_all_k300_a1.25,oracle_gain,all,300,1.25,180,300,0.004767839082343333,0.13312855958707037,0.00016465405640302862,-0.0002962889540483187,-0.000511217528762093,-5.027451831074572e-05,diagnostic_only,2,not_materialized
-0.00034611737265088314,-0.00034612470370749447,-0.0003461105952978986,-0.0003461105952978986,1.0,-0.0003244100815050774,oracle_gain_all_k300_a0.75,oracle_gain,all,300,0.75,180,300,0.00290156075817064,0.08142080446424049,0.00016465405640302862,-0.0002962889540483187,-0.0005107714290539118,-4.982841860256442e-05,diagnostic_only,2,not_materialized
-0.00034490055579218374,-0.00034491145861914114,-0.00034489050027656295,-0.00034489050027656295,1.0,-0.0003283504308535456,h016_gain_all_k500_a1.25,h016_gain,all,500,1.25,217,500,0.006554779935401506,0.13312855958707037,0.00016465405640302862,-0.0002962889540483187,-0.0005095546121952123,-4.861160174386502e-05,diagnostic_only,2,not_materialized
-0.00034451692262344255,-0.0003445234617236091,-0.0003445108916477503,-0.0003445108916477503,1.0,-0.0003279990384096965,h016_gain_all_k500_a0.75,h016_gain,all,500,0.75,217,500,0.0039853597537947965,0.08142080446424049,0.00016465405640302862,-0.0002962889540483187,-0.0005091709790264712,-4.822796857512383e-05,diagnostic_only,2,not_materialized
-0.0003444516036134975,-0.0003444596063869225,-0.00034444417833427905,-0.00034444417833427905,1.0,-0.00033382642848241,oracle_gain_S_k800_a1,oracle_gain,S,800,1.0,249,800,0.00618820095432243,0.04424223181137732,0.00016465405640302862,-0.0002962889540483187,-0.0005091056600165262,-4.81626495651788e-05,diagnostic_only,2,not_materialized
-0.0003417325198334274,-0.00034174404279360205,-0.0003417207306291604,-0.0003417207306291604,1.0,-0.00031793762995325803,weight_shift_all_k500_a1.25,weight_shift,all,500,1.25,220,500,0.005391393698510334,0.13312855958707037,0.00016465405640302862,-0.0002962889540483187,-0.0005063865762364561,-4.54435657851087e-05,diagnostic_only,2,not_materialized
-0.0003412573755832802,-0.0003412648317366933,-0.0003412496658883139,-0.0003412496658883139,1.0,-0.0003175219449757506,weight_shift_all_k500_a0.75,weight_shift,all,500,0.75,220,500,0.003280457459524796,0.08142080446424049,0.00016465405640302862,-0.0002962889540483187,-0.0005059114319863089,-4.49684215349615e-05,diagnostic_only,2,not_materialized
-0.00034103109784391233,-0.00034104001649475535,-0.00034102285808283706,-0.00034102285808283706,1.0,-0.00031908156032081566,consensus_all_k300_a1,consensus,all,300,1.0,187,300,0.0037494855961152547,0.10712119668730175,0.00016465405640302862,-0.0002962889540483187,-0.0005056851542469409,-4.474214379559361e-05,diagnostic_only,2,not_materialized
-0.0003407172162999171,-0.000340725006660179,-0.0003407099225705895,-0.0003407099225705895,1.0,-0.00032994585114743416,consensus_S_k800_a1,consensus,S,800,1.0,250,800,0.00602619359912831,0.04424223181137732,0.00016465405640302862,-0.0002962889540483187,-0.0005053712727029457,-4.442826225159837e-05,diagnostic_only,2,not_materialized
-0.0003394954341481438,-0.0003395068879435217,-0.00033948487616852145,-0.00033948487616852145,1.0,-0.00032334787755080793,h015_gain_all_k500_a1.25,h015_gain,all,500,1.25,219,500,0.006608144187391281,0.13312855958707037,0.00016465405640302862,-0.0002962889540483187,-0.0005041494905511725,-4.320648009982508e-05,diagnostic_only,2,not_materialized
-0.00033913777134554293,-0.0003391446416147548,-0.00033913143835655624,-0.00033913143835655624,1.0,-0.00032302091346456845,h015_gain_all_k500_a0.75,h015_gain,all,500,0.75,219,500,0.004012340904943379,0.08142080446424049,0.00016465405640302862,-0.0002962889540483187,-0.0005037918277485716,-4.284881729722421e-05,diagnostic_only,2,not_materialized
-0.0003379025482662637,-0.0003379086725338565,-0.00033789630158768545,-0.00033789630158768545,1.0,-0.0003179662453124482,weight_shift_all_k800_a0.55,weight_shift,all,800,0.55,244,800,0.0033487283679961093,0.06098234466840957,0.00016465405640302862,-0.0002962889540483187,-0.0005025566046692923,-4.1613594217945e-05,diagnostic_only,2,not_materialized
-0.0003345455216411866,-0.0003345524671995941,-0.0003345387465257965,-0.0003345387465257965,1.0,-0.00032236292463153673,oracle_gain_all_k1650_a0.35,oracle_gain,all,1650,0.35,250,1650,0.003926615250521079,0.039584177967330825,0.00016465405640302862,-0.0002962889540483187,-0.0004991995780442152,-3.8256567592867856e-05,diagnostic_only,2,not_materialized
-0.00033440395557463005,-0.00033441062246312693,-0.0003343975119422551,-0.0003343975119422551,1.0,-0.0003222345628870259,consensus_all_k1650_a0.35,consensus,all,1650,0.35,250,1650,0.003926030899588328,0.039584177967330825,0.00016465405640302862,-0.0002962889540483187,-0.0004990580119776587,-3.811500152631133e-05,diagnostic_only,2,not_materialized
-0.00033073925742360487,-0.0003307460601357481,-0.0003307326147028246,-0.0003307326147028246,1.0,-0.0003184820518387576,h016_gain_all_k1650_a0.35,h016_gain,all,1650,0.35,250,1650,0.0038372892408475388,0.039584177967330825,0.00016465405640302862,-0.0002962889540483187,-0.0004953933138266335,-3.445030337528615e-05,diagnostic_only,2,not_materialized
-0.0003305003901999469,-0.0003305054019921885,-0.00033049575858100025,-0.00033049575858100025,1.0,-0.000318371731350721,oracle_gain_all_k1400_a0.35,oracle_gain,all,1400,0.35,250,1400,0.0037441984818793617,0.039584177967330825,0.00016465405640302862,-0.0002962889540483187,-0.0004951544466029756,-3.421143615162819e-05,diagnostic_only,2,not_materialized
-0.00032855471495249136,-0.0003285667223747215,-0.00032854286252854904,-0.00032854286252854904,1.0,-0.00031846526364572486,oracle_gain_S_k1100_a1.25,oracle_gain,S,1100,1.25,250,1000,0.008147870019566862,0.05525387979095353,0.00016465405640302862,-0.0002962889540483187,-0.00049320877135552,-3.226576090417264e-05,diagnostic_only,2,not_materialized
-0.00032855471495249136,-0.0003285667223747215,-0.00032854286252854904,-0.00032854286252854904,1.0,-0.00031846526364572486,oracle_gain_S_k1400_a1.25,oracle_gain,S,1400,1.25,250,1000,0.008147870019566862,0.05525387979095353,0.00016465405640302862,-0.0002962889540483187,-0.00049320877135552,-3.226576090417264e-05,diagnostic_only,2,not_materialized
-0.00032855471495249136,-0.0003285667223747215,-0.00032854286252854904,-0.00032854286252854904,1.0,-0.00031846526364572486,oracle_gain_S_k1650_a1.25,oracle_gain,S,1650,1.25,250,1000,0.008147870019566862,0.05525387979095353,0.00016465405640302862,-0.0002962889540483187,-0.00049320877135552,-3.226576090417264e-05,diagnostic_only,2,not_materialized
-0.00032855471495249136,-0.0003285667223747215,-0.00032854286252854904,-0.00032854286252854904,1.0,-0.00031846526364572486,consensus_S_k1100_a1.25,consensus,S,1100,1.25,250,1000,0.008147870019566862,0.05525387979095353,0.00016465405640302862,-0.0002962889540483187,-0.00049320877135552,-3.226576090417264e-05,diagnostic_only,2,not_materialized
-0.00032855471495249136,-0.0003285667223747215,-0.00032854286252854904,-0.00032854286252854904,1.0,-0.00031846526364572486,consensus_S_k1400_a1.25,consensus,S,1400,1.25,250,1000,0.008147870019566862,0.05525387979095353,0.00016465405640302862,-0.0002962889540483187,-0.00049320877135552,-3.226576090417264e-05,diagnostic_only,2,not_materialized
-0.00032855471495249136,-0.0003285667223747215,-0.00032854286252854904,-0.00032854286252854904,1.0,-0.00031846526364572486,consensus_S_k1650_a1.25,consensus,S,1650,1.25,250,1000,0.008147870019566862,0.05525387979095353,0.00016465405640302862,-0.0002962889540483187,-0.00049320877135552,-3.226576090417264e-05,diagnostic_only,2,not_materialized
-0.00032855471495249136,-0.0003285667223747215,-0.00032854286252854904,-0.00032854286252854904,1.0,-0.00031846526364572486,conflict_S_k1100_a1.25,conflict,S,1100,1.25,250,1000,0.008147870019566862,0.05525387979095353,0.00016465405640302862,-0.0002962889540483187,-0.00049320877135552,-3.226576090417264e-05,diagnostic_only,2,not_materialized
-0.00032855471495249136,-0.0003285667223747215,-0.00032854286252854904,-0.00032854286252854904,1.0,-0.00031846526364572486,conflict_S_k1400_a1.25,conflict,S,1400,1.25,250,1000,0.008147870019566862,0.05525387979095353,0.00016465405640302862,-0.0002962889540483187,-0.00049320877135552,-3.226576090417264e-05,diagnostic_only,2,not_materialized
-0.00032855471495249136,-0.0003285667223747215,-0.00032854286252854904,-0.00032854286252854904,1.0,-0.00031846526364572486,conflict_S_k1650_a1.25,conflict,S,1650,1.25,250,1000,0.008147870019566862,0.05525387979095353,0.00016465405640302862,-0.0002962889540483187,-0.00049320877135552,-3.226576090417264e-05,diagnostic_only,2,not_materialized
-0.00032855471495249136,-0.0003285667223747215,-0.00032854286252854904,-0.00032854286252854904,1.0,-0.00031846526364572486,weight_shift_S_k1100_a1.25,weight_shift,S,1100,1.25,250,1000,0.008147870019566862,0.05525387979095353,0.00016465405640302862,-0.0002962889540483187,-0.00049320877135552,-3.226576090417264e-05,diagnostic_only,2,not_materialized
-0.00032855471495249136,-0.0003285667223747215,-0.00032854286252854904,-0.00032854286252854904,1.0,-0.00031846526364572486,weight_shift_S_k1400_a1.25,weight_shift,S,1400,1.25,250,1000,0.008147870019566862,0.05525387979095353,0.00016465405640302862,-0.0002962889540483187,-0.00049320877135552,-3.226576090417264e-05,diagnostic_only,2,not_materialized
-0.00032855471495249136,-0.0003285667223747215,-0.00032854286252854904,-0.00032854286252854904,1.0,-0.00031846526364572486,weight_shift_S_k1650_a1.25,weight_shift,S,1650,1.25,250,1000,0.008147870019566862,0.05525387979095353,0.00016465405640302862,-0.0002962889540483187,-0.00049320877135552,-3.226576090417264e-05,diagnostic_only,2,not_materialized
-0.00032855471495249136,-0.0003285667223747215,-0.00032854286252854904,-0.00032854286252854904,1.0,-0.00031846526364572486,h015_gain_S_k1100_a1.25,h015_gain,S,1100,1.25,250,1000,0.008147870019566862,0.05525387979095353,0.00016465405640302862,-0.0002962889540483187,-0.00049320877135552,-3.226576090417264e-05,diagnostic_only,2,not_materialized
-0.00032855471495249136,-0.0003285667223747215,-0.00032854286252854904,-0.00032854286252854904,1.0,-0.00031846526364572486,h015_gain_S_k1400_a1.25,h015_gain,S,1400,1.25,250,1000,0.008147870019566862,0.05525387979095353,0.00016465405640302862,-0.0002962889540483187,-0.00049320877135552,-3.226576090417264e-05,diagnostic_only,2,not_materialized
-0.00032855471495249136,-0.0003285667223747215,-0.00032854286252854904,-0.00032854286252854904,1.0,-0.00031846526364572486,h015_gain_S_k1650_a1.25,h015_gain,S,1650,1.25,250,1000,0.008147870019566862,0.05525387979095353,0.00016465405640302862,-0.0002962889540483187,-0.00049320877135552,-3.226576090417264e-05,diagnostic_only,2,not_materialized
-0.00032855471495249136,-0.0003285667223747215,-0.00032854286252854904,-0.00032854286252854904,1.0,-0.00031846526364572486,h016_gain_S_k1100_a1.25,h016_gain,S,1100,1.25,250,1000,0.008147870019566862,0.05525387979095353,0.00016465405640302862,-0.0002962889540483187,-0.00049320877135552,-3.226576090417264e-05,diagnostic_only,2,not_materialized
-0.00032855471495249136,-0.0003285667223747215,-0.00032854286252854904,-0.00032854286252854904,1.0,-0.00031846526364572486,h016_gain_S_k1400_a1.25,h016_gain,S,1400,1.25,250,1000,0.008147870019566862,0.05525387979095353,0.00016465405640302862,-0.0002962889540483187,-0.00049320877135552,-3.226576090417264e-05,diagnostic_only,2,not_materialized
-0.00032855471495249136,-0.0003285667223747215,-0.00032854286252854904,-0.00032854286252854904,1.0,-0.00031846526364572486,h016_gain_S_k1650_a1.25,h016_gain,S,1650,1.25,250,1000,0.008147870019566862,0.05525387979095353,0.00016465405640302862,-0.0002962889540483187,-0.00049320877135552,-3.226576090417264e-05,diagnostic_only,2,not_materialized
-0.0003282437674708792,-0.0003282512440914173,-0.0003282363021837936,-0.0003282363021837936,1.0,-0.00031818532472176387,oracle_gain_S_k1100_a0.75,oracle_gain,S,1100,0.75,250,1000,0.004923231924132956,0.033200247611076594,0.00016465405640302862,-0.0002962889540483187,-0.0004928978238739079,-3.195481342256048e-05,diagnostic_only,2,not_materialized
-0.0003282437674708792,-0.0003282512440914173,-0.0003282363021837936,-0.0003282363021837936,1.0,-0.00031818532472176387,oracle_gain_S_k1400_a0.75,oracle_gain,S,1400,0.75,250,1000,0.004923231924132956,0.033200247611076594,0.00016465405640302862,-0.0002962889540483187,-0.0004928978238739079,-3.195481342256048e-05,diagnostic_only,2,not_materialized
-0.0003282437674708792,-0.0003282512440914173,-0.0003282363021837936,-0.0003282363021837936,1.0,-0.00031818532472176387,oracle_gain_S_k1650_a0.75,oracle_gain,S,1650,0.75,250,1000,0.004923231924132956,0.033200247611076594,0.00016465405640302862,-0.0002962889540483187,-0.0004928978238739079,-3.195481342256048e-05,diagnostic_only,2,not_materialized
-0.0003282437674708792,-0.0003282512440914173,-0.0003282363021837936,-0.0003282363021837936,1.0,-0.00031818532472176387,consensus_S_k1100_a0.75,consensus,S,1100,0.75,250,1000,0.004923231924132956,0.033200247611076594,0.00016465405640302862,-0.0002962889540483187,-0.0004928978238739079,-3.195481342256048e-05,diagnostic_only,2,not_materialized
-0.0003282437674708792,-0.0003282512440914173,-0.0003282363021837936,-0.0003282363021837936,1.0,-0.00031818532472176387,consensus_S_k1400_a0.75,consensus,S,1400,0.75,250,1000,0.004923231924132956,0.033200247611076594,0.00016465405640302862,-0.0002962889540483187,-0.0004928978238739079,-3.195481342256048e-05,diagnostic_only,2,not_materialized
-0.0003282437674708792,-0.0003282512440914173,-0.0003282363021837936,-0.0003282363021837936,1.0,-0.00031818532472176387,consensus_S_k1650_a0.75,consensus,S,1650,0.75,250,1000,0.004923231924132956,0.033200247611076594,0.00016465405640302862,-0.0002962889540483187,-0.0004928978238739079,-3.195481342256048e-05,diagnostic_only,2,not_materialized
-0.0003282437674708792,-0.0003282512440914173,-0.0003282363021837936,-0.0003282363021837936,1.0,-0.00031818532472176387,conflict_S_k1100_a0.75,conflict,S,1100,0.75,250,1000,0.004923231924132956,0.033200247611076594,0.00016465405640302862,-0.0002962889540483187,-0.0004928978238739079,-3.195481342256048e-05,diagnostic_only,2,not_materialized
-0.0003282437674708792,-0.0003282512440914173,-0.0003282363021837936,-0.0003282363021837936,1.0,-0.00031818532472176387,conflict_S_k1400_a0.75,conflict,S,1400,0.75,250,1000,0.004923231924132956,0.033200247611076594,0.00016465405640302862,-0.0002962889540483187,-0.0004928978238739079,-3.195481342256048e-05,diagnostic_only,2,not_materialized
-0.0003282437674708792,-0.0003282512440914173,-0.0003282363021837936,-0.0003282363021837936,1.0,-0.00031818532472176387,conflict_S_k1650_a0.75,conflict,S,1650,0.75,250,1000,0.004923231924132956,0.033200247611076594,0.00016465405640302862,-0.0002962889540483187,-0.0004928978238739079,-3.195481342256048e-05,diagnostic_only,2,not_materialized
-0.0003282437674708792,-0.0003282512440914173,-0.0003282363021837936,-0.0003282363021837936,1.0,-0.00031818532472176387,weight_shift_S_k1100_a0.75,weight_shift,S,1100,0.75,250,1000,0.004923231924132956,0.033200247611076594,0.00016465405640302862,-0.0002962889540483187,-0.0004928978238739079,-3.195481342256048e-05,diagnostic_only,2,not_materialized
-0.0003282437674708792,-0.0003282512440914173,-0.0003282363021837936,-0.0003282363021837936,1.0,-0.00031818532472176387,weight_shift_S_k1400_a0.75,weight_shift,S,1400,0.75,250,1000,0.004923231924132956,0.033200247611076594,0.00016465405640302862,-0.0002962889540483187,-0.0004928978238739079,-3.195481342256048e-05,diagnostic_only,2,not_materialized
-0.0003282437674708792,-0.0003282512440914173,-0.0003282363021837936,-0.0003282363021837936,1.0,-0.00031818532472176387,weight_shift_S_k1650_a0.75,weight_shift,S,1650,0.75,250,1000,0.004923231924132956,0.033200247611076594,0.00016465405640302862,-0.0002962889540483187,-0.0004928978238739079,-3.195481342256048e-05,diagnostic_only,2,not_materialized
-0.0003282437674708792,-0.0003282512440914173,-0.0003282363021837936,-0.0003282363021837936,1.0,-0.00031818532472176387,h015_gain_S_k1100_a0.75,h015_gain,S,1100,0.75,250,1000,0.004923231924132956,0.033200247611076594,0.00016465405640302862,-0.0002962889540483187,-0.0004928978238739079,-3.195481342256048e-05,diagnostic_only,2,not_materialized
-0.0003282437674708792,-0.0003282512440914173,-0.0003282363021837936,-0.0003282363021837936,1.0,-0.00031818532472176387,h015_gain_S_k1400_a0.75,h015_gain,S,1400,0.75,250,1000,0.004923231924132956,0.033200247611076594,0.00016465405640302862,-0.0002962889540483187,-0.0004928978238739079,-3.195481342256048e-05,diagnostic_only,2,not_materialized
-0.0003282437674708792,-0.0003282512440914173,-0.0003282363021837936,-0.0003282363021837936,1.0,-0.00031818532472176387,h015_gain_S_k1650_a0.75,h015_gain,S,1650,0.75,250,1000,0.004923231924132956,0.033200247611076594,0.00016465405640302862,-0.0002962889540483187,-0.0004928978238739079,-3.195481342256048e-05,diagnostic_only,2,not_materialized
-0.0003282437674708792,-0.0003282512440914173,-0.0003282363021837936,-0.0003282363021837936,1.0,-0.00031818532472176387,h016_gain_S_k1100_a0.75,h016_gain,S,1100,0.75,250,1000,0.004923231924132956,0.033200247611076594,0.00016465405640302862,-0.0002962889540483187,-0.0004928978238739079,-3.195481342256048e-05,diagnostic_only,2,not_materialized
-0.0003282437674708792,-0.0003282512440914173,-0.0003282363021837936,-0.0003282363021837936,1.0,-0.00031818532472176387,h016_gain_S_k1400_a0.75,h016_gain,S,1400,0.75,250,1000,0.004923231924132956,0.033200247611076594,0.00016465405640302862,-0.0002962889540483187,-0.0004928978238739079,-3.195481342256048e-05,diagnostic_only,2,not_materialized
-0.0003282437674708792,-0.0003282512440914173,-0.0003282363021837936,-0.0003282363021837936,1.0,-0.00031818532472176387,h016_gain_S_k1650_a0.75,h016_gain,S,1650,0.75,250,1000,0.004923231924132956,0.033200247611076594,0.00016465405640302862,-0.0002962889540483187,-0.0004928978238739079,-3.195481342256048e-05,diagnostic_only,2,not_materialized
-0.0003282130813460657,-0.00032821806511137784,-0.0003282084451098575,-0.0003282084451098575,1.0,-0.00031596056840171025,consensus_all_k1400_a0.35,consensus,all,1400,0.35,250,1400,0.003670003315671436,0.039584177967330825,0.00016465405640302862,-0.0002962889540483187,-0.0004928671377490943,-3.192412729774696e-05,diagnostic_only,2,not_materialized
-0.0003246424077213091,-0.00032464778238757585,-0.0003246374470113241,-0.0003246374470113241,1.0,-0.0003069546013801542,consensus_all_k500_a0.55,consensus,all,500,0.55,223,500,0.003017537544404879,0.06098234466840957,0.00016465405640302862,-0.0002962889540483187,-0.0004892964641243378,-2.83534536729904e-05,diagnostic_only,2,not_materialized
-0.0003239032051405985,-0.00032390866983569904,-0.000323898168935316,-0.000323898168935316,1.0,-0.0003102473560529341,h016_gain_all_k800_a0.55,h016_gain,all,800,0.55,245,800,0.0038193141425766066,0.06098234466840957,0.00016465405640302862,-0.0002962889540483187,-0.0004885572615436272,-2.7614251092279805e-05,diagnostic_only,2,not_materialized
-0.00032374560840424925,-0.00032375561506193677,-0.00032373632394896035,-0.00032373632394896035,1.0,-0.00031369881306182414,oracle_gain_S_k800_a1.25,oracle_gain,S,800,1.25,249,800,0.007707367247529085,0.05525387979095353,0.00016465405640302862,-0.0002962889540483187,-0.0004883996648072778,-2.7456654355930527e-05,diagnostic_only,2,not_materialized
-0.00032344585552028824,-0.00032345185554082443,-0.0003234402884085663,-0.0003234402884085663,1.0,-0.000313428379831149,oracle_gain_S_k800_a0.75,oracle_gain,S,800,0.75,249,800,0.004658589119334684,0.033200247611076594,0.00016465405640302862,-0.0002962889540483187,-0.0004880999119233169,-2.7156901471969523e-05,diagnostic_only,2,not_materialized
-0.0003218413963954403,-0.00032185000361602126,-0.0003218329103780121,-0.0003218329103780121,1.0,-0.0003116800490658342,conflict_all_k1400_a0.55,conflict,all,1400,0.55,250,1400,0.004665542739750054,0.06098234466840957,0.00016465405640302862,-0.0002962889540483187,-0.00048649545279846895,-2.555244234712158e-05,diagnostic_only,2,not_materialized
-0.0003210226386903086,-0.0003210337894185655,-0.0003210123368295644,-0.0003210123368295644,1.0,-0.0003002869670656934,consensus_all_k300_a1.25,consensus,all,300,1.25,187,300,0.004643165311774585,0.13312855958707037,0.00016465405640302862,-0.0002962889540483187,-0.00048567669509333726,-2.4733684641989892e-05,diagnostic_only,2,not_materialized
-0.00032053402911658683,-0.00032054071640034873,-0.0003205278508280138,-0.0003205278508280138,1.0,-0.00029985341591165347,consensus_all_k300_a0.75,consensus,all,300,0.75,187,300,0.0028389434615668026,0.08142080446424049,0.00016465405640302862,-0.0002962889540483187,-0.0004851880855196155,-2.4245075068268112e-05,diagnostic_only,2,not_materialized
-0.0003202682291338039,-0.0003202779359147144,-0.00032025915723143765,-0.00032025915723143765,1.0,-0.00031007986659361755,consensus_S_k800_a1.25,consensus,S,800,1.25,250,800,0.007503774523409683,0.05525387979095353,0.00016465405640302862,-0.0002962889540483187,-0.0004849222855368325,-2.397927508548519e-05,diagnostic_only,2,not_materialized
-0.00031996083079874647,-0.0003199666714976407,-0.0003199553623605677,-0.0003199553623605677,1.0,-0.0003098031987975151,consensus_S_k800_a0.75,consensus,S,800,0.75,250,800,0.004537749542971472,0.033200247611076594,0.00016465405640302862,-0.0002962889540483187,-0.0004846148872017751,-2.367187675042775e-05,diagnostic_only,2,not_materialized
-0.00031934790026764645,-0.0003193526923084221,-0.00031934347064083857,-0.00031934347064083857,1.0,-0.0003070338521916792,oracle_gain_all_k1100_a0.35,oracle_gain,all,1100,0.35,250,1100,0.0033391636189012822,0.039584177967330825,0.00016465405640302862,-0.0002962889540483187,-0.00048400195667067504,-2.3058946219327726e-05,diagnostic_only,2,not_materialized
-0.0003191118961211431,-0.0003191179703305507,-0.0003191059263941285,-0.0003191059263941285,1.0,-0.0003061398210882692,weight_shift_all_k1650_a0.35,weight_shift,all,1650,0.35,250,1650,0.0036783870130529103,0.039584177967330825,0.00016465405640302862,-0.0002962889540483187,-0.0004837659525241718,-2.2822942072824406e-05,diagnostic_only,2,not_materialized
-0.00031599581008943316,-0.00031600135905671204,-0.0003159906513235493,-0.0003159906513235493,1.0,-0.0003022620183296873,h015_gain_all_k800_a0.55,h015_gain,all,800,0.55,246,800,0.003689319040732923,0.06098234466840957,0.00016465405640302862,-0.0002962889540483187,-0.00048064986649246175,-1.9706856041114436e-05,diagnostic_only,2,not_materialized
-0.00031281101708899604,-0.0003128182185325943,-0.0003128043415001445,-0.0003128043415001445,1.0,-0.00030169024979555167,oracle_gain_S_k500_a1,oracle_gain,S,500,1.0,229,500,0.0047440736853849716,0.04424223181137732,0.00016465405640302862,-0.0002962889540483187,-0.0004774650734920247,-1.6522063040677322e-05,diagnostic_only,2,not_materialized
-0.00031270325613719924,-0.00031271061974582774,-0.0003126964556222508,-0.0003126964556222508,1.0,-0.0002944495727246795,h016_gain_all_k300_a1,h016_gain,all,300,1.0,178,300,0.0036743453049071987,0.10712119668730175,0.00016465405640302862,-0.0002962889540483187,-0.00047735731254022783,-1.6414302088880518e-05,diagnostic_only,2,not_materialized
-0.00030870747431295363,-0.0003087138802425761,-0.0003087013495978249,-0.0003087013495978249,1.0,-0.00029880369743121206,h015_gain_all_k1650_a0.35,h015_gain,all,1650,0.35,250,1650,0.003771851808468079,0.039584177967330825,0.00016465405640302862,-0.0002962889540483187,-0.0004733615307159823,-1.241852026463491e-05,diagnostic_only,2,not_materialized
-0.0003079539346679449,-0.0003079616408577518,-0.00030794681177056637,-0.00030794681177056637,1.0,-0.00029021895888171477,h015_gain_all_k300_a1,h015_gain,all,300,1.0,180,300,0.00376603468551975,0.10712119668730175,0.00016465405640302862,-0.0002962889540483187,-0.00047260799107097355,-1.166498061962618e-05,diagnostic_only,2,not_materialized
-0.0003073627233460651,-0.00030736930527270186,-0.00030735588909254854,-0.00030735588909254854,1.0,-0.0002952205281017667,weight_shift_S_k800_a1,weight_shift,S,800,1.0,249,800,0.0052294375265299715,0.04424223181137732,0.00016465405640302862,-0.0002962889540483187,-0.00047201677974909376,-1.107376929774639e-05,diagnostic_only,2,not_materialized
-0.0003071610546461745,-0.00030716567455809,-0.000307156783970924,-0.000307156783970924,1.0,-0.0002946236891754045,consensus_all_k1100_a0.35,consensus,all,1100,0.35,250,1100,0.0031669065695915533,0.039584177967330825,0.00016465405640302862,-0.0002962889540483187,-0.00047181511104920314,-1.087210059785577e-05,diagnostic_only,2,not_materialized
-0.000301931522554719,-0.0003019369806164055,-0.00030192618701787736,-0.00030192618701787736,1.0,-0.0002899679280545392,h016_gain_all_k1400_a0.35,h016_gain,all,1400,0.35,249,1400,0.003382221296856724,0.039584177967330825,0.00016465405640302862,-0.0002962889540483187,-0.0004665855789577477,-5.642568506400306e-06,diagnostic_only,2,not_materialized
-0.0003003616151438273,-0.0003003689295849389,-0.00030035478428590284,-0.00030035478428590284,1.0,-0.0002906142762535129,h016_gain_S_k800_a1,h016_gain,S,800,1.0,246,800,0.00554483887001593,0.04424223181137732,0.00016465405640302862,-0.0002962889540483187,-0.00046501567154685593,-4.072661095508561e-06,diagnostic_only,2,not_materialized
-0.0002979768849463009,-0.0002979812764121844,-0.0002979728248217636,-0.0002979728248217636,1.0,-0.00028528594580897197,oracle_gain_all_k800_a0.35,oracle_gain,all,800,0.35,243,800,0.0027764328751686586,0.039584177967330825,0.00016465405640302862,-0.0002962889540483187,-0.00046263094134932955,-1.6879308979821789e-06,diagnostic_only,2,not_materialized
-0.00029779986152804775,-0.00029780828014881223,-0.00029779207183368175,-0.00029779207183368175,1.0,-0.0002751695250012738,oracle_gain_all_k180_a1,oracle_gain,all,180,1.0,123,180,0.0025693565300508917,0.10712119668730175,0.00016465405640302862,-0.0002962889540483187,-0.00046245391793107635,-1.5109074797290344e-06,diagnostic_only,2,not_materialized
-0.0002966047928454402,-0.0002966132290725687,-0.0002965958918981559,-0.0002965958918981559,1.0,-0.00027155241953261556,weight_shift_all_k300_a1,weight_shift,all,300,1.0,173,300,0.002888328519689177,0.10712119668730175,0.00016465405640302862,-0.0002962889540483187,-0.00046125884924846884,-3.1583879712146837e-07,diagnostic_only,2,not_materialized
-0.0002961197834459334,-0.00029612601084409387,-0.00029611366484928015,-0.00029611366484928015,1.0,-0.00028604343468473036,conflict_all_k1650_a0.35,conflict,all,1650,0.35,250,1650,0.0036654088010209815,0.039584177967330825,0.00016465405640302862,-0.0002962889540483187,-0.000460773839848962,1.69170602385305e-07,diagnostic_only,2,not_materialized
-0.00029562440181373823,-0.0002956297773363738,-0.00029561943227053355,-0.00029561943227053355,1.0,-0.00027699302494484844,oracle_gain_all_k300_a0.55,oracle_gain,all,300,0.55,180,300,0.0021403966928915724,0.06098234466840957,0.00016465405640302862,-0.0002962889540483187,-0.0004602784582167669,6.645522345804849e-07,diagnostic_only,2,not_materialized
-0.00029413708588023877,-0.00029414629221005825,-0.00029412858360759714,-0.00029412858360759714,1.0,-0.0002769350897243922,h016_gain_all_k300_a1.25,h016_gain,all,300,1.25,178,300,0.004552655357118508,0.13312855958707037,0.00016465405640302862,-0.0002962889540483187,-0.00045879114228326737,2.1518681680799475e-06,diagnostic_only,2,not_materialized
-0.0002940770209905607,-0.00029408602573236415,-0.0002940686738828991,-0.0002940686738828991,1.0,-0.0002835654203729444,oracle_gain_S_k500_a1.25,oracle_gain,S,500,1.25,229,500,0.005903400553981526,0.05525387979095353,0.00016465405640302862,-0.0002962889540483187,-0.00045873107739358935,2.21193305775802e-06,diagnostic_only,2,not_materialized
-0.0002940116647251473,-0.0002940164591403834,-0.0002940072428460925,-0.0002940072428460925,1.0,-0.00027987339594258686,h016_gain_all_k500_a0.55,h016_gain,all,500,0.55,217,500,0.002938211329900206,0.06098234466840957,0.00016465405640302862,-0.0002962889540483187,-0.00045866572112817597,2.277289323171397e-06,diagnostic_only,2,not_materialized
-0.0002939804783499197,-0.00029398542033209554,-0.00029397555083253885,-0.00029397555083253885,1.0,-0.00028025389450364336,weight_shift_all_k1400_a0.35,weight_shift,all,1400,0.35,250,1400,0.0031529662082469706,0.039584177967330825,0.00016465405640302862,-0.0002962889540483187,-0.0004586345347529483,2.3084756983990395e-06,diagnostic_only,2,not_materialized
-0.0002937793355193029,-0.00029378473469527316,-0.00029377433053395335,-0.00029377433053395335,1.0,-0.0002832972839444652,oracle_gain_S_k500_a0.75,oracle_gain,S,500,0.75,229,500,0.0035747844182134024,0.033200247611076594,0.00016465405640302862,-0.0002962889540483187,-0.00045843339192233156,2.509618529015806e-06,diagnostic_only,2,not_materialized
-0.00029375982589782804,-0.0002937653473220267,-0.00029375472666644655,-0.00029375472666644655,1.0,-0.0002765904777253174,h016_gain_all_k300_a0.75,h016_gain,all,300,0.75,178,300,0.0027802173505905806,0.08142080446424049,0.00016465405640302862,-0.0002962889540483187,-0.0004584138823008567,2.5291281504906827e-06,diagnostic_only,2,not_materialized
-0.0002915936287385846,-0.0002915990963569374,-0.0002915879751606456,-0.0002915879751606456,1.0,-0.000271220327675081,weight_shift_all_k500_a0.55,weight_shift,all,500,0.55,220,500,0.0024197417313959013,0.06098234466840957,0.00016465405640302862,-0.0002962889540483187,-0.00045624768514161327,4.695325309734101e-06,diagnostic_only,2,not_materialized
-0.00028961010264633396,-0.0002896197366413448,-0.00028960119789582804,-0.00028960119789582804,1.0,-0.0002728984778724089,h015_gain_all_k300_a1.25,h015_gain,all,300,1.25,180,300,0.004671145846658188,0.13312855958707037,0.00016465405640302862,-0.0002962889540483187,-0.00045426415904936256,6.6788514019847545e-06,diagnostic_only,2,not_materialized
-0.00028936933249426177,-0.0002893743699350877,-0.00028936468898587255,-0.00028936468898587255,1.0,-0.0002755764093731814,h015_gain_all_k500_a0.55,h015_gain,all,500,0.55,219,500,0.002956476454531865,0.06098234466840957,0.00016465405640302862,-0.0002962889540483187,-0.00045402338889729036,6.919621554056954e-06,diagnostic_only,2,not_materialized
-0.00028926089152328397,-0.00028926667022637065,-0.0002892555501996444,-0.0002892555501996444,1.0,-0.00027258040989861393,h015_gain_all_k300_a0.75,h015_gain,all,300,0.75,180,300,0.002846583492752457,0.08142080446424049,0.00016465405640302862,-0.0002962889540483187,-0.00045391494792631256,7.028062525034752e-06,diagnostic_only,2,not_materialized
-0.00028901235171169336,-0.00028902012109745495,-0.00028900440259080297,-0.00028900440259080297,1.0,-0.00027753611313223215,weight_shift_S_k800_a1.25,weight_shift,S,800,1.25,249,800,0.006508995230973661,0.05525387979095353,0.00016465405640302862,-0.0002962889540483187,-0.00045366640811472195,7.2766023366253635e-06,diagnostic_only,2,not_materialized
-0.0002887003591726134,-0.0002887052942396149,-0.0002886952347056886,-0.0002886952347056886,1.0,-0.0002772559747677861,weight_shift_S_k800_a0.75,weight_shift,S,800,0.75,249,800,0.003939519473249338,0.033200247611076594,0.00016465405640302862,-0.0002962889540483187,-0.00045335441557564204,7.588594875705332e-06,diagnostic_only,2,not_materialized
-0.00028739659560988545,-0.0002874031803340629,-0.00028739051525456384,-0.00028739051525456384,1.0,-0.00027626059536657046,consensus_S_k500_a1,consensus,S,500,1.0,228,500,0.0044550313881548615,0.04424223181137732,0.00016465405640302862,-0.0002962889540483187,-0.0004520506520129141,8.892358438433268e-06,diagnostic_only,2,not_materialized
-0.0002862081072660738,-0.0002862208112373765,-0.00028619541148941274,-0.00028619541148941274,1.0,-0.0002769123268507354,conflict_all_k1100_a1,conflict,all,1100,1.0,248,1100,0.006137530553286449,0.10712119668730175,0.00016465405640302862,-0.0002962889540483187,-0.0004508621636691025,1.0080846782244894e-05,diagnostic_only,2,not_materialized
-0.00028505721173113015,-0.0002850637889261922,-0.0002850510423804431,-0.0002850510423804431,1.0,-0.0002764410078960913,h015_gain_S_k800_a1,h015_gain,S,800,1.0,247,800,0.005526580598636179,0.04424223181137732,0.00016465405640302862,-0.0002962889540483187,-0.00044971126813415875,1.1231742317188568e-05,diagnostic_only,2,not_materialized
-0.00028306482811652037,-0.0002830729567205665,-0.00028305731322882425,-0.00028305731322882425,1.0,-0.0002612016578810477,consensus_all_k180_a1,consensus,all,180,1.0,133,180,0.002552883622815994,0.10712119668730175,0.00016465405640302862,-0.0002962889540483187,-0.000447718884519549,1.322412593179835e-05,diagnostic_only,2,not_materialized
-0.0002823908472369579,-0.0002823999477013307,-0.0002823823700572112,-0.0002823823700572112,1.0,-0.0002731761847293487,h016_gain_S_k800_a1.25,h016_gain,S,800,1.25,246,800,0.006899722911429472,0.05525387979095353,0.00016465405640302862,-0.0002962889540483187,-0.00044704490363998647,1.3898106811360844e-05,diagnostic_only,2,not_materialized
-0.00028209343186594494,-0.00028209891544262675,-0.00028208831075036966,-0.00028208831075036966,1.0,-0.00027290522918731424,h016_gain_S_k800_a0.75,h016_gain,S,800,0.75,246,800,0.004177998468118255,0.033200247611076594,0.00016465405640302862,-0.0002962889540483187,-0.0004467474882689736,1.419552218237378e-05,diagnostic_only,2,not_materialized
-0.00028033782251898697,-0.0002803483470191155,-0.00028032808434486816,-0.00028032808434486816,1.0,-0.0002589642254364639,oracle_gain_all_k180_a1.25,oracle_gain,all,180,1.25,123,180,0.003181099102363904,0.13312855958707037,0.00016465405640302862,-0.0002962889540483187,-0.0004449918789220156,1.5951131529331748e-05,diagnostic_only,2,not_materialized
-0.00028009845223938553,-0.0002801039338362985,-0.00028009297882576574,-0.00028009297882576574,1.0,-0.000271444049318099,oracle_gain_S_k1100_a0.55,oracle_gain,S,1100,0.55,250,1000,0.0036211393960650564,0.02435203129542496,0.00016465405640302862,-0.0002962889540483187,-0.0004447525086424142,1.6190501808933185e-05,diagnostic_only,2,not_materialized
-0.00028009845223938553,-0.0002801039338362985,-0.00028009297882576574,-0.00028009297882576574,1.0,-0.000271444049318099,oracle_gain_S_k1400_a0.55,oracle_gain,S,1400,0.55,250,1000,0.0036211393960650564,0.02435203129542496,0.00016465405640302862,-0.0002962889540483187,-0.0004447525086424142,1.6190501808933185e-05,diagnostic_only,2,not_materialized
-0.00028009845223938553,-0.0002801039338362985,-0.00028009297882576574,-0.00028009297882576574,1.0,-0.000271444049318099,oracle_gain_S_k1650_a0.55,oracle_gain,S,1650,0.55,250,1000,0.0036211393960650564,0.02435203129542496,0.00016465405640302862,-0.0002962889540483187,-0.0004447525086424142,1.6190501808933185e-05,diagnostic_only,2,not_materialized
-0.00028009845223938553,-0.0002801039338362985,-0.00028009297882576574,-0.00028009297882576574,1.0,-0.000271444049318099,consensus_S_k1100_a0.55,consensus,S,1100,0.55,250,1000,0.0036211393960650564,0.02435203129542496,0.00016465405640302862,-0.0002962889540483187,-0.0004447525086424142,1.6190501808933185e-05,diagnostic_only,2,not_materialized
-0.00028009845223938553,-0.0002801039338362985,-0.00028009297882576574,-0.00028009297882576574,1.0,-0.000271444049318099,consensus_S_k1400_a0.55,consensus,S,1400,0.55,250,1000,0.0036211393960650564,0.02435203129542496,0.00016465405640302862,-0.0002962889540483187,-0.0004447525086424142,1.6190501808933185e-05,diagnostic_only,2,not_materialized
-0.00028009845223938553,-0.0002801039338362985,-0.00028009297882576574,-0.00028009297882576574,1.0,-0.000271444049318099,consensus_S_k1650_a0.55,consensus,S,1650,0.55,250,1000,0.0036211393960650564,0.02435203129542496,0.00016465405640302862,-0.0002962889540483187,-0.0004447525086424142,1.6190501808933185e-05,diagnostic_only,2,not_materialized
-0.00028009845223938553,-0.0002801039338362985,-0.00028009297882576574,-0.00028009297882576574,1.0,-0.000271444049318099,conflict_S_k1100_a0.55,conflict,S,1100,0.55,250,1000,0.0036211393960650564,0.02435203129542496,0.00016465405640302862,-0.0002962889540483187,-0.0004447525086424142,1.6190501808933185e-05,diagnostic_only,2,not_materialized
-0.00028009845223938553,-0.0002801039338362985,-0.00028009297882576574,-0.00028009297882576574,1.0,-0.000271444049318099,conflict_S_k1400_a0.55,conflict,S,1400,0.55,250,1000,0.0036211393960650564,0.02435203129542496,0.00016465405640302862,-0.0002962889540483187,-0.0004447525086424142,1.6190501808933185e-05,diagnostic_only,2,not_materialized
-0.00028009845223938553,-0.0002801039338362985,-0.00028009297882576574,-0.00028009297882576574,1.0,-0.000271444049318099,conflict_S_k1650_a0.55,conflict,S,1650,0.55,250,1000,0.0036211393960650564,0.02435203129542496,0.00016465405640302862,-0.0002962889540483187,-0.0004447525086424142,1.6190501808933185e-05,diagnostic_only,2,not_materialized
-0.00028009845223938553,-0.0002801039338362985,-0.00028009297882576574,-0.00028009297882576574,1.0,-0.000271444049318099,weight_shift_S_k1100_a0.55,weight_shift,S,1100,0.55,250,1000,0.0036211393960650564,0.02435203129542496,0.00016465405640302862,-0.0002962889540483187,-0.0004447525086424142,1.6190501808933185e-05,diagnostic_only,2,not_materialized
-0.00028009845223938553,-0.0002801039338362985,-0.00028009297882576574,-0.00028009297882576574,1.0,-0.000271444049318099,weight_shift_S_k1400_a0.55,weight_shift,S,1400,0.55,250,1000,0.0036211393960650564,0.02435203129542496,0.00016465405640302862,-0.0002962889540483187,-0.0004447525086424142,1.6190501808933185e-05,diagnostic_only,2,not_materialized
-0.00028009845223938553,-0.0002801039338362985,-0.00028009297882576574,-0.00028009297882576574,1.0,-0.000271444049318099,weight_shift_S_k1650_a0.55,weight_shift,S,1650,0.55,250,1000,0.0036211393960650564,0.02435203129542496,0.00016465405640302862,-0.0002962889540483187,-0.0004447525086424142,1.6190501808933185e-05,diagnostic_only,2,not_materialized
-0.00028009845223938553,-0.0002801039338362985,-0.00028009297882576574,-0.00028009297882576574,1.0,-0.000271444049318099,h015_gain_S_k1100_a0.55,h015_gain,S,1100,0.55,250,1000,0.0036211393960650564,0.02435203129542496,0.00016465405640302862,-0.0002962889540483187,-0.0004447525086424142,1.6190501808933185e-05,diagnostic_only,2,not_materialized
-0.00028009845223938553,-0.0002801039338362985,-0.00028009297882576574,-0.00028009297882576574,1.0,-0.000271444049318099,h015_gain_S_k1400_a0.55,h015_gain,S,1400,0.55,250,1000,0.0036211393960650564,0.02435203129542496,0.00016465405640302862,-0.0002962889540483187,-0.0004447525086424142,1.6190501808933185e-05,diagnostic_only,2,not_materialized
-0.00028009845223938553,-0.0002801039338362985,-0.00028009297882576574,-0.00028009297882576574,1.0,-0.000271444049318099,h015_gain_S_k1650_a0.55,h015_gain,S,1650,0.55,250,1000,0.0036211393960650564,0.02435203129542496,0.00016465405640302862,-0.0002962889540483187,-0.0004447525086424142,1.6190501808933185e-05,diagnostic_only,2,not_materialized
-0.00028009845223938553,-0.0002801039338362985,-0.00028009297882576574,-0.00028009297882576574,1.0,-0.000271444049318099,h016_gain_S_k1100_a0.55,h016_gain,S,1100,0.55,250,1000,0.0036211393960650564,0.02435203129542496,0.00016465405640302862,-0.0002962889540483187,-0.0004447525086424142,1.6190501808933185e-05,diagnostic_only,2,not_materialized
-0.00028009845223938553,-0.0002801039338362985,-0.00028009297882576574,-0.00028009297882576574,1.0,-0.000271444049318099,h016_gain_S_k1400_a0.55,h016_gain,S,1400,0.55,250,1000,0.0036211393960650564,0.02435203129542496,0.00016465405640302862,-0.0002962889540483187,-0.0004447525086424142,1.6190501808933185e-05,diagnostic_only,2,not_materialized
-0.00028009845223938553,-0.0002801039338362985,-0.00028009297882576574,-0.00028009297882576574,1.0,-0.000271444049318099,h016_gain_S_k1650_a0.55,h016_gain,S,1650,0.55,250,1000,0.0036211393960650564,0.02435203129542496,0.00016465405640302862,-0.0002962889540483187,-0.0004447525086424142,1.6190501808933185e-05,diagnostic_only,2,not_materialized
-0.0002799125637146498,-0.00027991887668820016,-0.00027990672231638445,-0.00027990672231638445,1.0,-0.0002585938013121727,oracle_gain_all_k180_a0.75,oracle_gain,all,180,0.75,123,180,0.0019460423336540463,0.08142080446424049,0.00016465405640302862,-0.0002962889540483187,-0.0004445666201176784,1.6376390333668945e-05,diagnostic_only,2,not_materialized
-0.00027929821869678256,-0.0002793078591021503,-0.00027928815358860964,-0.00027928815358860964,1.0,-0.0002556384732115776,weight_shift_all_k300_a1.25,weight_shift,all,300,1.25,173,300,0.003577147321047686,0.13312855958707037,0.00016465405640302862,-0.0002962889540483187,-0.00044395227509981116,1.6990735351536158e-05,diagnostic_only,2,not_materialized
-0.0002788470720629986,-0.0002788533994670717,-0.0002788403961286107,-0.0002788403961286107,1.0,-0.000255247081051878,weight_shift_all_k300_a0.75,weight_shift,all,300,0.75,173,300,0.0021869562888958654,0.08142080446424049,0.00016465405640302862,-0.0002962889540483187,-0.0004435011284660272,1.7441881985320103e-05,diagnostic_only,2,not_materialized
-0.0002776915043287973,-0.00027769573493557204,-0.000277687567751174,-0.000277687567751174,1.0,-0.00026807305108685775,h015_gain_all_k1400_a0.35,h015_gain,all,1400,0.35,250,1400,0.003330742236327218,0.039584177967330825,0.00016465405640302862,-0.0002962889540483187,-0.0004423455607318259,1.8597449719521414e-05,diagnostic_only,2,not_materialized
-0.00027622737879707247,-0.0002762314661214895,-0.0002762236074764138,-0.0002762236074764138,1.0,-0.00026339068178584855,consensus_all_k800_a0.35,consensus,all,800,0.35,245,800,0.0025960080983698543,0.039584177967330825,0.00016465405640302862,-0.0002962889540483187,-0.00044088143520010106,2.006157525124625e-05,diagnostic_only,2,not_materialized
-0.0002759692899648632,-0.0002759736886924447,-0.00027596520857347623,-0.00027596520857347623,1.0,-0.0002673589799488807,oracle_gain_S_k800_a0.55,oracle_gain,S,800,0.55,249,800,0.003426931035937276,0.02435203129542496,0.00016465405640302862,-0.0002962889540483187,-0.00044062334636789185,2.0319664083455523e-05,diagnostic_only,2,not_materialized
-0.0002739469040059254,-0.00027395180686926675,-0.0002739423742939374,-0.0002739423742939374,1.0,-0.000256191603382967,consensus_all_k300_a0.55,consensus,all,300,0.55,187,300,0.0020979797011852343,0.06098234466840957,0.00016465405640302862,-0.0002962889540483187,-0.000438600960408954,2.234205004239331e-05,diagnostic_only,2,not_materialized
-0.00027303468062819754,-0.0002730389625149822,-0.00027303067160215443,-0.00027303067160215443,1.0,-0.00026429910573331545,consensus_S_k800_a0.55,consensus,S,800,0.55,250,800,0.0033387220470338765,0.02435203129542496,0.00016465405640302862,-0.0002962889540483187,-0.0004376887370312262,2.3254273420121184e-05,diagnostic_only,2,not_materialized
-0.00027102681839789427,-0.0002710310583279649,-0.0002710225338484395,-0.0002710225338484395,1.0,-0.0002568220299748976,weight_shift_all_k1100_a0.35,weight_shift,all,1100,0.35,250,1100,0.002657388448446508,0.039584177967330825,0.00016465405640302862,-0.0002962889540483187,-0.0004356808748009229,2.526213565042445e-05,diagnostic_only,2,not_materialized
-0.0002702891532483864,-0.00027029738826380047,-0.0002702815490916713,-0.0002702815490916713,1.0,-0.00025976617818713587,consensus_S_k500_a1.25,consensus,S,500,1.25,228,500,0.005535558081974218,0.05525387979095353,0.00016465405640302862,-0.0002962889540483187,-0.00043494320965141507,2.59998007999323e-05,diagnostic_only,2,not_materialized
-0.00026997421554342537,-0.00026997915147992946,-0.0002699696576340501,-0.0002699696576340501,1.0,-0.0002594800463396208,consensus_S_k500_a0.75,consensus,S,500,0.75,228,500,0.0033618984415193062,0.033200247611076594,0.00016465405640302862,-0.0002962889540483187,-0.000434628271946454,2.6314738504893353e-05,diagnostic_only,2,not_materialized
-0.00026888803022389875,-0.0002689030384416861,-0.00026887317449144515,-0.00026887317449144515,1.0,-0.00026006896527619287,conflict_all_k1100_a1.25,conflict,all,1100,1.25,248,1100,0.007663520223158379,0.13312855958707037,0.00016465405640302862,-0.0002962889540483187,-0.0004335420866269274,2.7400923824419973e-05,diagnostic_only,2,not_materialized
-0.00026868983920625154,-0.00026869936855361206,-0.0002686803160265625,-0.0002686803160265625,1.0,-0.0002599042185965144,conflict_all_k1100_a0.75,conflict,all,1100,0.75,248,1100,0.004608626550077168,0.08065632842834858,0.00016465405640302862,-0.0002962889540483187,-0.0004333438956092802,2.7599114842067176e-05,diagnostic_only,2,not_materialized
-0.0002679510074967576,-0.00026795918647937086,-0.0002679433571289422,-0.0002679433571289422,1.0,-0.000259806401746023,h015_gain_S_k800_a1.25,h015_gain,S,800,1.25,247,800,0.006878246188545849,0.05525387979095353,0.00016465405640302862,-0.0002962889540483187,-0.00043260506389978626,2.8337946551561114e-05,diagnostic_only,2,not_materialized
-0.0002676878900392631,-0.0002676928206493011,-0.00026768326508498104,-0.00026768326508498104,1.0,-0.0002595661624819417,h015_gain_S_k800_a0.75,h015_gain,S,800,0.75,247,800,0.0041633746060958056,0.033200247611076594,0.00016465405640302862,-0.0002962889540483187,-0.00043234194644229177,2.8601064009055603e-05,diagnostic_only,2,not_materialized
-0.00026659261867011623,-0.00026660278181006044,-0.0002665832229126715,-0.0002665832229126715,1.0,-0.0002459398184135309,consensus_all_k180_a1.25,consensus,all,180,1.25,133,180,0.0031541294130429916,0.13312855958707037,0.00016465405640302862,-0.0002962889540483187,-0.0004312466750731449,2.9696335378202486e-05,diagnostic_only,2,not_materialized
-0.0002661376398888928,-0.0002661437346535083,-0.00026613200525018286,-0.00026613200525018286,1.0,-0.0002455393342072724,consensus_all_k180_a0.75,consensus,all,180,0.75,133,180,0.0019374453551874236,0.08142080446424049,0.00016465405640302862,-0.0002962889540483187,-0.0004307916962919214,3.015131415942592e-05,diagnostic_only,2,not_materialized
-0.00026583313902330067,-0.0002658372849907806,-0.0002658292880236296,-0.0002658292880236296,1.0,-0.00025449408671831435,h016_gain_all_k1100_a0.35,h016_gain,all,1100,0.35,248,1100,0.0028746616225884267,0.039584177967330825,0.00016465405640302862,-0.0002962889540483187,-0.0004304871954263293,3.0455815025018048e-05,diagnostic_only,2,not_materialized
-0.00026372321150318345,-0.00026373108981260675,-0.0002637152539444939,-0.0002637152539444939,1.0,-0.00025539477722481954,conflict_S_k800_a1,conflict,S,800,1.0,248,800,0.004881446790631235,0.04424223181137732,0.00016465405640302862,-0.0002962889540483187,-0.00042837726790621205,3.256574254513527e-05,diagnostic_only,2,not_materialized
-0.0002611282737372867,-0.0002611345229150991,-0.0002611224780590386,-0.0002611224780590386,1.0,-0.00024949709412419466,oracle_gain_S_k300_a1,oracle_gain,S,300,1.0,189,300,0.0032596551761277007,0.04424223181137732,0.00016465405640302862,-0.0002962889540483187,-0.00042578233014031535,3.516068031103202e-05,diagnostic_only,2,not_materialized
-0.0002596443575893301,-0.0002596491955179415,-0.0002596391129471854,-0.0002596391129471854,1.0,-0.000246700646680264,weight_shift_S_k500_a1,weight_shift,S,500,1.0,233,500,0.0037200925111998133,0.04424223181137732,0.00016465405640302862,-0.0002962889540483187,-0.00042429841399235877,3.66445964589886e-05,diagnostic_only,2,not_materialized
-0.0002578960582932433,-0.0002578997922123695,-0.000257892599560605,-0.000257892599560605,1.0,-0.00024457373215924886,oracle_gain_all_k500_a0.35,oracle_gain,all,500,0.35,221,500,0.0020026421476120066,0.039584177967330825,0.00016465405640302862,-0.0002962889540483187,-0.00042255011469627196,3.8392895755075414e-05,diagnostic_only,2,not_materialized
-0.00025639062270293203,-0.00025639700619163824,-0.0002563847003150306,-0.0002563847003150306,1.0,-0.0002384628102109396,h015_gain_all_k180_a1,h015_gain,all,180,1.0,132,180,0.002593100215015254,0.10712119668730175,0.00016465405640302862,-0.0002962889540483187,-0.0004210446791059607,3.989833134538669e-05,diagnostic_only,2,not_materialized
-0.00025577723833035,-0.00025578404239446625,-0.00025577095366704973,-0.00025577095366704973,1.0,-0.00023790484150471006,h016_gain_all_k180_a1,h016_gain,all,180,1.0,129,180,0.002521002763584998,0.10712119668730175,0.00016465405640302862,-0.0002962889540483187,-0.0004204312947333786,4.051171571796874e-05,diagnostic_only,2,not_materialized
-0.00025284113205651255,-0.00025284509158658627,-0.00025283745193053787,-0.00025283745193053787,1.0,-0.0002430559709549457,h015_gain_all_k1100_a0.35,h015_gain,all,1100,0.35,250,1100,0.002848031407981808,0.039584177967330825,0.00016465405640302862,-0.0002962889540483187,-0.0004174951884595412,4.344782199180617e-05,diagnostic_only,2,not_materialized
-0.0002508193993482071,-0.00025082344753400005,-0.0002508156606882305,-0.0002508156606882305,1.0,-0.00023612686289255436,h016_gain_all_k300_a0.55,h016_gain,all,300,0.55,178,300,0.002053331915131608,0.06098234466840957,0.00016465405640302862,-0.0002962889540483187,-0.00041547345575123577,4.54695547001116e-05,diagnostic_only,2,not_materialized
-0.0002507277647814755,-0.0002507317229796884,-0.0002507240955328258,-0.0002507240955328258,1.0,-0.00024172223809134136,oracle_gain_S_k500_a0.55,oracle_gain,S,500,0.55,229,500,0.0026317281116273634,0.02435203129542496,0.00016465405640302862,-0.0002962889540483187,-0.0004153818211845041,4.55611892668432e-05,diagnostic_only,2,not_materialized
-0.00024791480964433867,-0.0002479242335857139,-0.00024790540829791423,-0.00024790540829791423,1.0,-0.00024002932302806805,conflict_S_k800_a1.25,conflict,S,800,1.25,248,800,0.006084195250442476,0.05525387979095353,0.00016465405640302862,-0.0002962889540483187,-0.00041256886604736727,4.837414440398005e-05,diagnostic_only,2,not_materialized
-0.0002476747322400418,-0.00024768064008695947,-0.000247668764847177,-0.000247668764847177,1.0,-0.00023981511124751372,conflict_S_k800_a0.75,conflict,S,800,0.75,248,800,0.003672335823934478,0.033200247611076594,0.00016465405640302862,-0.0002962889540483187,-0.00041232878864307044,4.8614221808276925e-05,diagnostic_only,2,not_materialized
-0.0002469195853983399,-0.00024692382245976486,-0.000246915669022113,-0.000246915669022113,1.0,-0.00023264708105754026,h015_gain_all_k300_a0.55,h015_gain,all,300,0.55,180,300,0.0021005514013388016,0.06098234466840957,0.00016465405640302862,-0.0002962889540483187,-0.0004115736418013685,4.9369368649978824e-05,diagnostic_only,2,not_materialized
-0.00024646101530300193,-0.000246464633472052,-0.0002464572581445449,-0.0002464572581445449,1.0,-0.0002366278093771887,weight_shift_S_k800_a0.55,weight_shift,S,800,0.55,249,800,0.0028996570623454447,0.02435203129542496,0.00016465405640302862,-0.0002962889540483187,-0.00041111507170603053,4.982793874531679e-05,diagnostic_only,2,not_materialized
-0.0002459823266439747,-0.0002459862235501906,-0.0002459783518007015,-0.0002459783518007015,1.0,-0.0002313625408582821,weight_shift_all_k800_a0.35,weight_shift,all,800,0.35,244,800,0.0021406713345589906,0.039584177967330825,0.00016465405640302862,-0.0002962889540483187,-0.0004106363830470033,5.030662740434404e-05,diagnostic_only,2,not_materialized
-0.0002456051437506731,-0.00024561295785427504,-0.00024559789680636974,-0.00024559789680636974,1.0,-0.00023461501569491916,oracle_gain_S_k300_a1.25,oracle_gain,S,300,1.25,189,300,0.004050383893644238,0.05525387979095353,0.00016465405640302862,-0.0002962889540483187,-0.0004102592001537017,5.0683810297645594e-05,diagnostic_only,2,not_materialized
-0.0002453149537761114,-0.0002453196389383947,-0.00024531060855675457,-0.00024531060855675457,1.0,-0.00023435456197800624,oracle_gain_S_k300_a0.75,oracle_gain,S,300,0.75,189,300,0.0024599731869421556,0.033200247611076594,0.00016465405640302862,-0.0002962889540483187,-0.00040996901017914,5.0974000272207296e-05,diagnostic_only,2,not_materialized
-0.00024427480238216185,-0.00024428039132720343,-0.0002442688406641359,-0.0002442688406641359,1.0,-0.00023204684221190787,weight_shift_S_k500_a1.25,weight_shift,S,500,1.25,233,500,0.0046226271621662785,0.05525387979095353,0.00016465405640302862,-0.0002962889540483187,-0.00040892885878519045,5.201415166615687e-05,diagnostic_only,2,not_materialized
-0.00024396309829848343,-0.000243966725642583,-0.00024395916579812184,-0.00024395916579812184,1.0,-0.00023176743247918028,weight_shift_S_k500_a0.75,weight_shift,S,500,0.75,233,500,0.002807331044183531,0.033200247611076594,0.00016465405640302862,-0.0002962889540483187,-0.000408617154701512,5.232585574983529e-05,diagnostic_only,2,not_materialized
-0.0002411948375684464,-0.00024120281745834192,-0.0002411874341049493,-0.0002411874341049493,1.0,-0.00022430587708464702,h015_gain_all_k180_a1.25,h015_gain,all,180,1.25,132,180,0.0032103045451483234,0.13312855958707037,0.00016465405640302862,-0.0002962889540483187,-0.000405848893971475,5.509411647987232e-05,diagnostic_only,2,not_materialized
-0.00024087363774714533,-0.0002408784248693965,-0.00024086919640858707,-0.00024086919640858707,1.0,-0.00022401489239434318,h015_gain_all_k180_a0.75,h015_gain,all,180,0.75,132,180,0.0019636774082079467,0.08142080446424049,0.00016465405640302862,-0.0002962889540483187,-0.00040552769415017395,5.541531630117339e-05,diagnostic_only,2,not_materialized
-0.00024076307908454662,-0.00024076709897780254,-0.0002407593248573465,-0.0002407593248573465,1.0,-0.00023286755032380496,h016_gain_S_k800_a0.55,h016_gain,S,800,0.55,246,800,0.003075559516671379,0.02435203129542496,0.00016465405640302862,-0.0002962889540483187,-0.00040541713548757525,5.55258749637721e-05,diagnostic_only,2,not_materialized
-0.00024072630210208407,-0.0002407348095971385,-0.0002407184440888841,-0.0002407184440888841,1.0,-0.00022388386476499678,h016_gain_all_k180_a1.25,h016_gain,all,180,1.25,129,180,0.0031149770614098335,0.13312855958707037,0.00016465405640302862,-0.0002962889540483187,-0.0004053803585051127,5.556265194623465e-05,diagnostic_only,2,not_materialized
-0.00024036446729780916,-0.00024036956870547447,-0.00024035975528882198,-0.00024035975528882198,1.0,-0.00022355413941773587,h016_gain_all_k180_a0.75,h016_gain,all,180,0.75,129,180,0.0019127992951754227,0.08142080446424049,0.00016465405640302862,-0.0002962889540483187,-0.0004050185237008378,5.5924486750509556e-05,diagnostic_only,2,not_materialized
-0.00023925231270132164,-0.00023925694148769705,-0.00023924802965607876,-0.00023924802965607876,1.0,-0.00022095407212134051,oracle_gain_all_k180_a0.55,oracle_gain,all,180,0.55,123,180,0.0014386373631036474,0.06098234466840957,0.00016465405640302862,-0.0002962889540483187,-0.00040390636910435027,5.7036641346997077e-05,diagnostic_only,2,not_materialized
-0.00023844458716586618,-0.00023844922729298912,-0.00023843969144861553,-0.00023843969144861553,1.0,-0.00021818675118823362,weight_shift_all_k300_a0.55,weight_shift,all,300,0.55,173,300,0.0016163623598536144,0.06098234466840957,0.00016465405640302862,-0.0002962889540483187,-0.0004030986435688948,5.784436688245254e-05,diagnostic_only,2,not_materialized
-0.00023682881256343618,-0.00023683404698950238,-0.0002368239779924166,-0.0002368239779924166,1.0,-0.00022544655861797438,consensus_S_k300_a1,consensus,S,300,1.0,185,300,0.003131021908039197,0.04424223181137732,0.00016465405640302862,-0.0002962889540483187,-0.0004014828689664648,5.946014148488254e-05,diagnostic_only,2,not_materialized
-0.00023634948344835772,-0.00023635290276777368,-0.0002363463274682748,-0.0002363463274682748,1.0,-0.00022338167043647455,consensus_all_k500_a0.35,consensus,all,500,0.35,223,500,0.0019317762308662572,0.039584177967330825,0.00016465405640302862,-0.0002962889540483187,-0.00040100353985138634,5.9939470599961e-05,diagnostic_only,2,not_materialized
-0.00023617879013992376,-0.0002361846102888533,-0.0002361733461913647,-0.0002361733461913647,1.0,-0.00022751529752472268,h015_gain_S_k500_a1,h015_gain,S,500,1.0,227,500,0.004085856717949704,0.04424223181137732,0.00016465405640302862,-0.0002962889540483187,-0.0004008328465429524,6.011016390839496e-05,diagnostic_only,2,not_materialized
-0.00023545328706669013,-0.00023545676398313095,-0.0002354500827671489,-0.0002354500827671489,1.0,-0.00022547951125382497,h016_gain_all_k800_a0.35,h016_gain,all,800,0.35,245,800,0.0024407616481436447,0.039584177967330825,0.00016465405640302862,-0.0002962889540483187,-0.00040010734346971873,6.083566698162859e-05,diagnostic_only,2,not_materialized
-0.00023431499210212564,-0.0002343203633797705,-0.0002343099564196885,-0.0002343099564196885,1.0,-0.00022540508453882614,h016_gain_S_k500_a1,h016_gain,S,500,1.0,230,500,0.004037138633720811,0.04424223181137732,0.00016465405640302862,-0.0002962889540483187,-0.00039896904850515426,6.197396194619308e-05,diagnostic_only,2,not_materialized
-0.00023392829781538235,-0.00023393377450106395,-0.0002339228982003862,-0.0002339228982003862,1.0,-0.00022643156617383682,conflict_all_k1400_a0.35,conflict,all,1400,0.35,250,1400,0.002974588021888265,0.039584177967330825,0.00016465405640302862,-0.0002962889540483187,-0.000398582354218411,6.236065623293636e-05,diagnostic_only,2,not_materialized
