kbsooo/etri/hitl/h106_route_consensus_kernel_expansion_hsjepa/h106_top_consensus_cells.csv
candidate_id,flat_index,row,subject_id,sleep_date,lifelog_date,target,target_index,h057_prob,q061,cell_q061_gain,public_score,invariant_score,private_safe_score,latent_shortcut_energy,bad_pressure_rank,h068_cell_health,outside_h069_cell,outside_h070_cell,is_h050_null,source_count,source_weight,source_family_count,source_consensus,source_mean_move,source_action_delta,source_posterior_delta,hit_h071,hit_h074,hit_h076,hit_h079,h080_bad_same_raw,h080_bad_opp_raw,h080_bad_same_rank,h080_bad_opp_rank,h080_bad_margin_rank,h079_cell,h079_row,h079_role,h080_cell_score,h085_q,h085_q_move,h085_q_gain,h085_abs_q_move,h082_cell,h084_dark_cell,source_agrees_h085,h085_cell_score,q_hard,best_world_y,confidence,hard_gain,combined_score,hard_logit_delta,binary_shock,h086_resp_weight,h086_resp_lift,h086_resp_rank,h086_equation_alignment,h086_resp_action_score,hard_logit_move,hard_diag_gain,h088_prob,h088_logit_move,h088_active,h088_q_delta,h088_q_bad,h088_bad_rank,h088_move_abs_rank,h088_toxicity,h057_positive_weight,h057_positive_logit_move,h095_safe_cell_score,sleep_dow,lifelog_dow,date_gap_days,row_norm,row_sin1,row_cos1,row_sin3,row_cos3,subject_idx,within_subject_norm,subject_block_size,target_Q1,target_Q2,target_Q3,target_S1,target_S2,target_S3,target_S4,sleep_dow_0,lifelog_dow_0,sleep_dow_1,lifelog_dow_1,sleep_dow_2,lifelog_dow_2,sleep_dow_3,lifelog_dow_3,sleep_dow_4,lifelog_dow_4,sleep_dow_5,lifelog_dow_5,sleep_dow_6,lifelog_dow_6,is_q,is_s,is_subjective_quality,is_objective_stage,h057_h088_anti_conflict,h057_h088_same_conflict,conflict_strength,h098_frontier_cell_score,h106_vote_sum,h106_vote_abs,h106_vote_weight,h106_vote_count,h106_vote_consensus,h106_pos_count,h106_neg_count,h106_max_abs_component,h106_move,h106_seed_row,h106_seed_distance,h106_seed_neighbor,h106_seed_subject,h106_anti_h088,h106_align_h057,h106_score
h106_kernel_seed_expand_c44_a090_64df3d49,1059,151,id06,2024-08-25,2024-08-24,Q3,2,0.8051517532471274,0.8030150111803502,1.4511156814778214e-05,0.3337085714285714,0.7080171428571429,0.1520932571428572,0.9230857142857144,0.956,0.3712925714285713,1.0,1.0,0,0.0,0.0,0.0,0.0,0.0,0.0,0.0,0.0,0.0,0.0,0.0,0.2271737521378298,0.006086278522037,0.9222857142857144,0.2165714285714285,0.1788571428571428,0.0,0.0,,-0.7007057142857144,0.8030744767017115,-0.0131878844070159,1.2479027673317766e-05,0.0131878844070159,0.0,0.0,0.0,0.0559329142857143,0.7951378735404838,1,0.7951378735404838,5.971452035624195e-08,0.3412114285714285,0.0361493346156307,0.0011125015620337,0.0005754150819827,1.0069763934697766,0.7565714285714286,0.4100387233611863,0.4062238857142857,-0.0626314127524751,0.0003155568519088,0.8043516859284782,-0.0050918768989105,1.0,-8.541367909509212e-06,0.0,0.4542857142857143,0.4731428571428571,0.4653428571428571,0.9348628571428572,0.0987807473681059,0.0054983999999999,6.0,5.0,1.0,0.606425702811245,-0.6199605408122385,-0.7846329892604547,-0.9067516281939827,0.42166513345018397,5.0,1.0,24.0,0.0,0.0,1.0,0.0,0.0,0.0,0.0,0.0,0.0,0.0,0.0,0.0,0.0,0.0,0.0,0.0,0.0,0.0,1.0,1.0,0.0,1.0,0.0,1.0,0.0,1.0,0.0,0.43503175297959185,0.4528153828571429,3.998567266883113,3.998567266883113,16.73032730699882,11.0,0.9999999999997499,11.0,0.0,0.3011836725881524,0.2151010242751876,1.0,0.0,1.0,1.0,1.0,1.0,1.9837595343195182
h106_kernel_seed_expand_c44_a090_64df3d49,1014,144,id06,2024-08-14,2024-08-13,S4,6,0.9998058840987556,0.999999,0.0001878660951298,0.4405142857142857,0.670817142857143,0.5434293142857143,0.1422142857142857,0.1785714285714285,0.4980106285714286,1.0,0.0,0,6.0,4.40455491164904,2.0,1.0,5.268648544483414,-3.5150398796986695e-08,-0.0001878660951298,1.0,1.0,0.0,0.0,0.0,6.034330388536917,0.1785714285714285,0.9782857142857144,0.9782857142857144,0.0,0.0,,0.7044885714285714,0.999999,5.268648544483414,0.000117729057531,5.268648544483414,1.0,0.0,1.0,0.6072445142857142,0.999999,1,0.999999,1.7467234430170068e-08,0.5226628571428571,3.3711485444838587,2.7591020357320417e-08,0.0006997032448845,1.2244806785479692,0.9822857142857144,0.9594344415016696,0.7915548571428572,2.5,0.0001756977740381,0.9999723777413126,1.9499999999954376,1.0,-0.0001645621039854,0.0,0.4542857142857143,0.9897142857142858,0.645257142857143,0.69908,-1.897499999999555,0.4643764571428572,2.0,1.0,1.0,0.5783132530120482,-0.47243956847967067,-0.881363066014649,-0.9955262728085589,-0.09448513188803238,5.0,0.6956521739130435,24.0,0.0,0.0,0.0,0.0,0.0,0.0,1.0,0.0,0.0,0.0,1.0,1.0,0.0,0.0,0.0,0.0,0.0,0.0,0.0,0.0,0.0,0.0,1.0,0.0,1.0,1.0,0.0,0.45108636342857156,0.3302119314285714,-2.1111208266216384,2.171487579651977,8.175040609973149,7.0,0.972200277083332,1.0,6.0,0.3536,-0.2324158171937794,1.0,0.0,1.0,1.0,1.0,1.0,1.8782937837655083
h106_kernel_seed_expand_c44_a090_64df3d49,1148,164,id07,2024-07-26,2024-07-25,Q1,0,0.5726236359257583,0.5785182382955152,7.107495999258973e-05,0.3531828571428571,0.5277371428571428,-0.0308976285714285,0.9647428571428572,0.9491428571428572,0.3696770285714286,1.0,1.0,0,4.0,7.150759261260218,1.0,1.0,0.0107728068932244,-1.2662505403575502e-08,-4.8598608335352806e-05,0.0,0.0,0.0,1.0,0.2847313265208278,0.0,0.9405714285714286,0.0777142857142857,0.1788571428571428,1.0,1.0,seed_q061_companion,0.2934971428571428,0.5784324143683724,0.023777970260246,6.281269137575762e-05,0.023777970260246,0.0,1.0,1.0,0.2427167428571428,0.6057356549616199,0,0.6057356549616199,2.395791371501162e-07,0.5222971428571428,-0.0601479714388651,0.0028665154478622,0.0005256559126248,0.919897847093514,0.0462857142857142,0.2934742653132805,0.0831499428571428,0.1368584367882453,0.0022566059611043,0.5926098562501864,0.082201326412172,1.0,0.0003458175576152,0.0003458175576152,0.9942857142857144,0.7868571428571428,0.8911714285714286,0.9825542857142858,-0.1970064082271105,0.0275415999999998,4.0,3.0,1.0,0.6586345381526104,-0.839699808785118,-0.5430508550092121,-0.15082429716137438,0.9885605855918884,6.0,0.41379310344827586,30.0,1.0,0.0,0.0,0.0,0.0,0.0,0.0,0.0,0.0,0.0,0.0,0.0,0.0,0.0,1.0,1.0,0.0,0.0,0.0,0.0,0.0,1.0,0.0,1.0,0.0,1.0,0.0,0.8756243064489797,0.6744735314285715,-1.5688571519989594,1.5688571519989594,4.887968748948608,3.0,0.9999999999993625,0.0,3.0,0.3536,-0.28,1.0,0.0,1.0,1.0,1.0,1.0,1.7525446273240763
h106_kernel_seed_expand_c44_a090_64df3d49,1013,144,id06,2024-08-14,2024-08-13,S3,5,0.9522076528619444,0.951030851055967,1.509834010707256e-05,0.4260571428571428,0.670817142857143,0.0757880857142856,0.9469714285714286,0.9308571428571428,0.4453364571428572,1.0,1.0,0,0.0,0.0,0.0,0.0,0.0,0.0,0.0,0.0,0.0,0.0,0.0,0.337421922395201,0.0,0.9537142857142856,0.0777142857142857,0.1788571428571428,0.0,0.0,,-0.7011571428571429,0.9511648346262598,-0.0226808888572636,1.0793325352420611e-05,0.0226808888572636,0.0,0.0,0.0,0.0697650857142857,0.9463979428642126,1,0.9463979428642126,7.913949188770699e-08,0.5184228571428572,0.0736220453953238,0.0012356743014629,0.0005537828437696,0.969119976596906,0.1251428571428571,0.5912107460614958,0.0202428571428571,-0.1208419165152991,0.0003573805720112,0.9444020832456476,-0.1595113298001926,1.0,0.0004413604881809,0.0004413604881809,0.996,0.9268571428571428,0.9379714285714286,0.9526514285714286,0.1944639619106229,-0.1030012571428571,2.0,1.0,1.0,0.5783132530120482,-0.47243956847967067,-0.881363066014649,-0.9955262728085589,-0.09448513188803238,5.0,0.6956521739130435,24.0,0.0,0.0,0.0,0.0,0.0,1.0,0.0,0.0,0.0,0.0,1.0,1.0,0.0,0.0,0.0,0.0,0.0,0.0,0.0,0.0,0.0,0.0,1.0,0.0,1.0,1.0,0.0,0.8935598213877551,0.27296273142857147,1.295508827097103,1.295508827097103,3.6637693074013087,3.0,0.9999999999992281,3.0,0.0,0.3536,0.28,1.0,0.0,1.0,1.0,1.0,1.0,1.5048347951739824
h106_kernel_seed_expand_c44_a090_64df3d49,945,135,id06,2024-07-14,2024-07-13,Q1,0,0.3265168623517541,0.332467224835243,8.025667657762803e-05,0.3744571428571428,0.4153771428571429,-0.0994901714285714,0.9742571428571428,0.9685714285714284,0.3800493714285714,0.0,1.0,0,0.0,0.0,0.0,0.0,0.0,0.0,0.0,0.0,0.0,0.0,0.0,0.5725434492673942,0.0,0.9817142857142858,0.0777142857142857,0.1788571428571428,0.0,0.0,,-0.8262657142857144,0.3323169909206154,0.0262571471809444,6.938334396489054e-05,0.0262571471809444,0.0,0.0,0.0,0.0315527428571428,0.344659554634995,1,0.655340445365005,9.866239582278026e-07,0.6901028571428571,-0.123946419174583,0.0014640261314393,0.0003771091657354,0.6599410400369783,0.0062857142857142,0.7984103847618609,-0.0157502857142857,0.081383632605916,0.0007415524517681,0.335027405247487,0.0384478717404617,1.0,-5.975131469893036e-05,0.0,0.4542857142857143,0.6268571428571429,0.5252571428571429,0.9829828571428572,-0.1743681471515381,-0.0398052571428571,6.0,5.0,1.0,0.5421686746987951,-0.2618644849608063,-0.9651046531419334,-0.7137661126871386,-0.7003841348713511,5.0,0.30434782608695654,24.0,1.0,0.0,0.0,0.0,0.0,0.0,0.0,0.0,0.0,0.0,0.0,0.0,0.0,0.0,0.0,0.0,0.0,0.0,1.0,1.0,0.0,1.0,0.0,1.0,0.0,1.0,0.0,0.5163187670204081,0.42969570285714287,-1.5412246785276373,1.5412246785276373,5.808110867929352,6.0,0.9999999999993511,0.0,6.0,0.3536,-0.2388215793768328,0.0,9.0,0.0,1.0,1.0,1.0,1.3567254155416113
h106_kernel_seed_expand_c44_a090_64df3d49,1011,144,id06,2024-08-14,2024-08-13,S1,3,0.9371612173475234,0.938050068105242,6.737603625239785e-06,0.4181828571428572,0.670817142857143,0.3955945714285715,0.6061428571428571,0.5925714285714285,0.4131582857142857,1.0,1.0,0,6.0,4.40455491164904,2.0,1.0,0.0151939330276178,-6.324202084681502e-08,-6.737603625239785e-06,1.0,1.0,0.0,0.0,0.0138457385950436,0.1370545027048125,0.5348571428571428,0.6497142857142857,0.6337142857142857,0.0,0.0,,0.5285085714285714,0.9380567154476852,0.0153083269528511,6.2253993175220845e-06,0.0153083269528511,1.0,0.0,1.0,0.3138071428571428,0.9435072112803232,1,0.9435072112803232,4.9518479574132515e-08,0.518,0.0565603896332951,0.0020106260677631,0.0005674055906361,0.992959783613246,0.4982857142857143,0.487265744782802,0.3616179428571429,0.1132081278206009,0.0003532406767614,0.9454074004541292,0.1494347287231923,1.0,0.0004958561125027,0.0004958561125027,0.9994285714285714,0.9171428571428571,0.9388285714285716,0.9012857142857144,-0.0566477381873058,0.1303845714285714,2.0,1.0,1.0,0.5783132530120482,-0.47243956847967067,-0.881363066014649,-0.9955262728085589,-0.09448513188803238,5.0,0.6956521739130435,24.0,0.0,0.0,0.0,1.0,0.0,0.0,0.0,0.0,0.0,0.0,1.0,1.0,0.0,0.0,0.0,0.0,0.0,0.0,0.0,0.0,0.0,0.0,1.0,0.0,1.0,1.0,0.0,0.8461527795918369,0.7918176,-1.4991748092941082,1.4991748092941082,8.175040609973149,7.0,0.9999999999993329,0.0,7.0,0.23520000000000002,-0.16504594811657627,1.0,0.0,1.0,1.0,1.0,1.0,1.3112259257910992
h106_kernel_seed_expand_c44_a090_64df3d49,1010,144,id06,2024-08-14,2024-08-13,Q3,2,0.7530964107373385,0.7533060688078742,1.1822187706567187e-07,0.1906514285714285,0.670817142857143,0.3328430285714286,0.4842571428571429,0.4268571428571429,0.2659077142857142,1.0,1.0,0,3.0,1.4815760139224,1.0,1.0,0.0011278662604456,-5.3211147464858437e-11,-1.1822187706567182e-07,0.0,1.0,0.0,0.0,0.00365308581125,0.156435418150198,0.4182857142857142,0.6862857142857143,0.688,0.0,0.0,,0.4532971428571428,0.7533312901862517,0.0012635893748875,1.350275770084508e-07,0.0012635893748875,1.0,0.0,1.0,0.2487823428571428,0.7611739450510254,1,0.7611739450510254,4.467222197900529e-08,0.3201142857142857,0.029716187931472,0.0017199612737889,0.000627826127369,1.0986957228958183,0.9451428571428572,0.3740817901993886,0.643182742857143,0.0439311011078744,0.0001767593750644,0.7637201240802629,0.0579890534623943,1.0,0.0002959477991754,0.0002959477991754,0.992,0.7085714285714285,0.8645428571428572,0.919554285714286,-0.0458518275004828,0.1008794285714285,2.0,1.0,1.0,0.5783132530120482,-0.47243956847967067,-0.881363066014649,-0.9955262728085589,-0.09448513188803238,5.0,0.6956521739130435,24.0,0.0,0.0,1.0,0.0,0.0,0.0,0.0,0.0,0.0,0.0,1.0,1.0,0.0,0.0,0.0,0.0,0.0,0.0,0.0,0.0,0.0,1.0,0.0,1.0,0.0,1.0,0.0,0.794994089469388,0.7304870285714288,-2.2194546337737835,2.2194546337737835,14.610509212882812,12.0,0.9999999999995494,0.0,12.0,0.1843660595264805,-0.1367172862554965,1.0,0.0,1.0,1.0,1.0,1.0,1.3082824946331837
h106_kernel_seed_expand_c44_a090_64df3d49,947,135,id06,2024-07-14,2024-07-13,Q3,2,0.8233562803446187,0.8211995281478749,1.5940535035174896e-05,0.2876571428571428,0.4153771428571429,-0.0838771142857143,0.9258,0.964,0.3306977142857142,1.0,1.0,0,0.0,0.0,0.0,0.0,0.0,0.0,0.0,0.0,0.0,0.0,0.0,0.2445756176535394,0.0,0.9285714285714286,0.0777142857142857,0.1788571428571428,0.0,0.0,,-0.7948314285714286,0.8212701536208874,-0.0142775087436182,1.3569943485169931e-05,0.0142775087436182,0.0,0.0,0.0,0.0141144571428571,0.8135768926925118,0,0.8135768926925118,6.984182582356931e-08,0.3558057142857143,0.0404020375392994,0.0006730519548812,0.0005742784329964,1.0049872577438463,0.7342857142857143,0.3838669842879127,0.360628,-0.0658326085220084,0.0003241510323629,0.8192405880794565,-0.0280433228436189,1.0,-9.664076740523164e-07,0.0,0.4542857142857143,0.5822857142857143,0.4927714285714286,0.93888,0.1062346460613079,-0.0398117714285714,6.0,5.0,1.0,0.5421686746987951,-0.2618644849608063,-0.9651046531419334,-0.7137661126871386,-0.7003841348713511,5.0,0.30434782608695654,24.0,0.0,0.0,1.0,0.0,0.0,0.0,0.0,0.0,0.0,0.0,0.0,0.0,0.0,0.0,0.0,0.0,0.0,0.0,1.0,1.0,0.0,1.0,0.0,1.0,0.0,1.0,0.0,0.4626532388571429,0.4524815657142857,1.5724984260863273,1.5724984260863273,6.80236941188132,7.0,0.9999999999993641,7.0,0.0,0.3179282648503024,0.20805229733709413,0.0,9.0,0.0,1.0,1.0,1.0,1.2598944250123862
h106_kernel_seed_expand_c44_a090_64df3d49,958,136,id06,2024-07-16,2024-07-15,S4,6,0.8793211893789878,0.8800493904202091,2.5029338155957426e-06,0.3645828571428571,0.5588971428571429,0.1084819428571429,0.7967428571428572,0.7268571428571429,0.3787347428571428,1.0,1.0,0,0.0,0.0,0.0,0.0,0.0,0.0,0.0,0.0,0.0,0.0,0.0,0.1594115670323823,0.0,0.8822857142857143,0.0777142857142857,0.1788571428571428,0.0,0.0,,-0.7095342857142858,0.8799999511198453,0.0064120263061722,1.9788838113155016e-06,0.0064120263061722,0.0,0.0,0.0,0.0212581142857142,0.8834973597348148,1,0.8834973597348148,8.471331549768475e-09,0.3511542857142857,-0.0171551486596812,0.0031343608795367,0.0005683629451615,0.9946351540327674,0.5531428571428572,0.5888697722476787,0.1944567999999999,0.039956691866398,8.300913775149965e-05,0.8807134130136618,0.0131857083159114,1.0,2.441039736456041e-07,2.441039736456041e-07,0.9085714285714286,0.5165714285714286,0.7216285714285715,0.9087942857142858,-0.0571118405260793,-0.0966108571428571,1.0,0.0,1.0,0.5461847389558233,-0.2861316735085688,-0.9581903075147368,-0.7646910926171749,-0.6443970304648767,5.0,0.34782608695652173,24.0,0.0,0.0,0.0,0.0,0.0,0.0,1.0,0.0,1.0,1.0,0.0,0.0,0.0,0.0,0.0,0.0,0.0,0.0,0.0,0.0,0.0,0.0,1.0,0.0,1.0,1.0,0.0,0.6558119221224491,0.47814422857142863,-2.3393413061555672,2.3393413061555672,14.774026075731031,15.0,0.9999999999995725,0.0,15.0,0.1896535594502595,-0.1425073412452124,0.0,8.0,1.0,1.0,1.0,1.0,1.1914225694001388
h106_kernel_seed_expand_c44_a090_64df3d49,1154,164,id07,2024-07-26,2024-07-25,S4,6,0.3773264958983826,0.3806992444389726,2.417989854019975e-05,0.3498857142857143,0.5277371428571428,-0.0450253714285713,0.9542,0.92,0.3851811428571428,1.0,1.0,0,4.0,7.150759261260218,1.0,1.0,0.006397676751739,-1.1884740666293036e-08,-1.652587185190865e-05,0.0,0.0,0.0,1.0,0.3149601376641728,0.0,0.9497142857142856,0.0777142857142857,0.1788571428571428,1.0,1.0,seed_q061_companion,0.2868685714285713,0.3806108503006162,0.0139551743480836,2.086447315363671e-05,0.0139551743480836,0.0,1.0,1.0,0.2017081142857142,0.3827457929282127,0,0.6172542070717872,4.143843838059222e-07,0.6303542857142858,-0.0798121694974146,0.0046721907240113,0.0005578411478312,0.9762220087046362,0.1765714285714285,0.6369021237462911,0.1225257142857142,0.0230015601792245,6.238347097342611e-05,0.3820022291534626,0.0198530550945121,1.0,-1.8827635697604705e-05,0.0,0.4542857142857143,0.5508571428571428,0.4944,0.9444742857142856,-0.1028137296766391,0.088597257142857,4.0,3.0,1.0,0.6586345381526104,-0.839699808785118,-0.5430508550092121,-0.15082429716137438,0.9885605855918884,6.0,0.41379310344827586,30.0,0.0,0.0,0.0,0.0,0.0,0.0,1.0,0.0,0.0,0.0,0.0,0.0,0.0,0.0,1.0,1.0,0.0,0.0,0.0,0.0,0.0,0.0,1.0,0.0,1.0,1.0,0.0,0.4669480868571428,0.39203521142857145,-0.7995159401798686,0.7995159401798686,3.9507382397950694,3.0,0.9999999999987492,0.0,3.0,0.31036696989556745,-0.18213414873039638,1.0,0.0,1.0,1.0,1.0,1.0,1.0368770070356765
h106_kernel_seed_expand_c44_a090_64df3d49,979,139,id06,2024-07-19,2024-07-18,S4,6,0.8268174475003207,0.8280647752584297,5.443071396993293e-06,0.2987828571428571,0.5280971428571429,-0.0621637714285713,0.8908857142857144,0.8897142857142857,0.3496909714285714,1.0,1.0,0,0.0,0.0,0.0,0.0,0.0,0.0,0.0,0.0,0.0,0.0,0.0,0.3410531498239687,0.0,0.9548571428571428,0.0777142857142857,0.1788571428571428,0.0,0.0,,-0.7669400000000001,0.8279578930664663,0.0079853695822413,4.14051900110568e-06,0.0079853695822413,0.0,0.0,0.0,0.0013515428571428,0.8320067417020486,0,0.8320067417020486,8.242813150596908e-08,0.4974857142857143,-0.0463207552654163,0.0051338467753729,0.0005824135970977,1.0192237949209952,0.8422857142857143,0.7491083425639209,0.3983379428571428,0.0366790192570158,9.478581098798512e-05,0.8300902641257938,0.0230294411245872,1.0,1.1516764712005134e-05,1.1516764712005134e-05,0.9228571428571428,0.5622857142857143,0.7513428571428572,0.9256342857142856,-0.0829997745224322,-0.1207928,4.0,3.0,1.0,0.5582329317269076,-0.3577789366275639,-0.9338063142352645,-0.8901457403773956,-0.4556759384562435,5.0,0.4782608695652174,24.0,0.0,0.0,0.0,0.0,0.0,0.0,1.0,0.0,0.0,0.0,0.0,0.0,0.0,0.0,1.0,1.0,0.0,0.0,0.0,0.0,0.0,0.0,1.0,0.0,1.0,1.0,0.0,0.6954687088979592,0.4912916914285715,-0.9618554028678765,0.9618554028678765,4.892636124094599,5.0,0.9999999999989604,0.0,5.0,0.26245316145770603,-0.17693321976628854,0.0,5.0,1.0,1.0,1.0,1.0,1.0155945122727397
h106_kernel_seed_expand_c44_a090_64df3d49,951,135,id06,2024-07-14,2024-07-13,S4,6,0.8326790220313127,0.833879711711521,5.183653563278767e-06,0.2921257142857143,0.4153771428571429,-0.1112793428571428,0.8874,0.9285714285714286,0.3429414857142857,1.0,1.0,0,0.0,0.0,0.0,0.0,0.0,0.0,0.0,0.0,0.0,0.0,0.0,0.3617674279706701,0.0,0.9582857142857144,0.0777142857142857,0.1788571428571428,0.0,0.0,,-0.7936942857142857,0.8337650677901544,0.0078153785157646,3.859087214619361e-06,0.0078153785157646,0.0,0.0,0.0,-0.0153674857142856,0.8312358502886998,1,0.8312358502886998,3.840924880026521e-07,0.6961371428571429,-0.0989839981964375,0.0011361898931917,0.0005810148178281,1.016775931199321,0.8325714285714285,0.5783184363674189,0.3844385142857142,-0.010322855520866,7.457335124527731e-06,0.8329793279449548,0.0021569871909787,1.0,-2.0186312811865115e-06,0.0,0.4542857142857143,0.4594285714285714,0.4581428571428572,0.9290628571428572,-0.0886611426755714,-0.0597717714285714,6.0,5.0,1.0,0.5421686746987951,-0.2618644849608063,-0.9651046531419334,-0.7137661126871386,-0.7003841348713511,5.0,0.30434782608695654,24.0,0.0,0.0,0.0,0.0,0.0,0.0,1.0,0.0,0.0,0.0,0.0,0.0,0.0,0.0,0.0,0.0,0.0,0.0,1.0,1.0,0.0,0.0,1.0,0.0,1.0,1.0,0.0,0.42564351183673477,0.4147663657142857,-0.8529659984074138,0.8529659984074138,3.890075406904872,4.0,0.9999999999988276,0.0,4.0,0.2768576546782779,-0.19734049298989534,0.0,9.0,0.0,1.0,1.0,1.0,0.9636941348282702
h106_kernel_seed_expand_c44_a090_64df3d49,949,135,id06,2024-07-14,2024-07-13,S2,4,0.9120002370412033,0.9128559625035724,4.575502052239777e-06,0.3906628571428571,0.4153771428571429,0.2220676,0.6870285714285714,0.6325714285714286,0.400656,0.0,1.0,0,0.0,0.0,0.0,0.0,0.0,0.0,0.0,0.0,0.0,0.0,0.0,0.0306072182800029,0.0387905347810696,0.6485714285714286,0.4114285714285714,0.3845714285714285,0.0,0.0,,-0.6916942857142857,0.9128484616979826,0.0106153362211465,4.091754492618893e-06,0.0106153362211465,0.0,0.0,0.0,0.0204137714285714,0.9250982584531292,1,0.9250982584531292,2.2462660630838865e-07,0.7114057142857144,0.1055641087159346,0.0028894661390598,0.0005657735831001,0.9901037704252228,0.4017142857142857,0.1604154161182626,0.1480686857142857,0.1754166861823174,0.0011206919463118,0.916900949362351,0.062660043836634,1.0,0.0001017187385513,0.0001017187385513,0.9645714285714284,0.7251428571428571,0.8401142857142857,0.9117314285714286,-0.0698525774663827,-0.1410235428571428,6.0,5.0,1.0,0.5421686746987951,-0.2618644849608063,-0.9651046531419334,-0.7137661126871386,-0.7003841348713511,5.0,0.30434782608695654,24.0,0.0,0.0,0.0,0.0,1.0,0.0,0.0,0.0,0.0,0.0,0.0,0.0,0.0,0.0,0.0,0.0,0.0,0.0,1.0,1.0,0.0,0.0,1.0,0.0,1.0,1.0,0.0,0.765958597877551,0.5573068457142858,-0.7292503721499536,0.7292503721499536,3.8199321027852746,4.0,0.9999999999986288,0.0,4.0,0.22685691824016388,-0.17181596878547442,0.0,9.0,0.0,1.0,1.0,1.0,0.8644638895567293
h106_kernel_seed_expand_c44_a090_64df3d49,1151,164,id07,2024-07-26,2024-07-25,S1,3,0.9223507042282848,0.9216005296464892,3.917279624177095e-06,0.2585542857142857,0.5277371428571428,-0.1077577142857144,0.9476857142857142,0.9794285714285714,0.3269070857142857,1.0,1.0,0,4.0,7.150759261260218,1.0,1.0,-0.0046557360965975,-2.455648310831864e-09,-2.6763739925174846e-06,0.0,0.0,0.0,1.0,0.580049688553327,0.0,0.9822857142857144,0.0777142857142857,0.1788571428571428,1.0,1.0,seed_q061_companion,0.24256,0.9217729289840444,-0.0080398963166077,2.11564951174692e-06,0.0080398963166077,0.0,1.0,1.0,0.1396150285714285,0.934273302796362,1,0.934273302796362,1.2071833231409308e-06,0.8719085714285715,0.2506320694487556,0.0026125534551015,0.0005915360823307,1.035188144078876,0.8891428571428571,0.8372818556296139,0.4899545142857143,0.1795407734626453,0.0010428642033394,0.9220945637329848,-0.0035709979341165,1.0,-1.6061254654586854e-06,0.0,0.4542857142857143,0.4657142857142857,0.4590857142857142,0.9133771428571428,0.0710912959861103,0.0364342857142856,4.0,3.0,1.0,0.6586345381526104,-0.839699808785118,-0.5430508550092121,-0.15082429716137438,0.9885605855918884,6.0,0.41379310344827586,30.0,0.0,0.0,0.0,1.0,0.0,0.0,0.0,0.0,0.0,0.0,0.0,0.0,0.0,0.0,1.0,1.0,0.0,0.0,0.0,0.0,0.0,0.0,1.0,0.0,1.0,1.0,0.0,0.4193183980408162,0.3923701142857143,0.627429161390421,0.627429161390421,3.9507382397950694,3.0,0.9999999999984063,3.0,0.0,0.2303355317051339,0.1429318296928037,1.0,0.0,1.0,1.0,1.0,1.0,0.806793726853482
h106_kernel_seed_expand_c44_a090_64df3d49,1057,151,id06,2024-08-25,2024-08-24,Q1,0,0.2931200235617892,0.2940047415236316,1.8877009515527732e-06,0.3332628571428572,0.7080171428571429,0.4039888571428572,0.5654857142857144,0.4817142857142857,0.3501362285714285,1.0,1.0,0,1.0,0.98640079466928,1.0,1.0,0.0042660984396376,-1.0020730809332893e-08,-1.8877009515527732e-06,1.0,0.0,0.0,0.0,0.0069087191295727,0.1085813693048932,0.46,0.5908571428571429,0.5965714285714285,0.0,0.0,,0.4900228571428571,0.2940407945891951,0.0044397867305515,1.860541860465581e-06,0.0044397867305515,1.0,0.0,1.0,0.2779978285714286,0.3160480568474452,1,0.6839519431525547,3.543989487264716e-07,0.5622057142857144,0.0767078893727275,0.0004647756016188,0.000563572964942,0.9862526886486588,0.3011428571428571,0.2390823668590611,0.2716846857142857,0.1082853490810346,0.001250143867855,0.2941165191992924,0.0048045551477717,1.0,-2.0308272858926557e-06,0.0,0.4542857142857143,0.4708571428571428,0.4616571428571429,0.8998400000000001,-0.0315774597083073,0.2318356571428572,6.0,5.0,1.0,0.606425702811245,-0.6199605408122385,-0.7846329892604547,-0.9067516281939827,0.42166513345018397,5.0,1.0,24.0,1.0,0.0,0.0,0.0,0.0,0.0,0.0,0.0,0.0,0.0,0.0,0.0,0.0,0.0,0.0,0.0,0.0,0.0,1.0,1.0,0.0,1.0,0.0,1.0,0.0,1.0,0.0,0.4154175634285715,0.5168146514285716,-1.018152310148583,1.018152310148583,11.74689253346193,8.0,0.9999999999990178,0.0,8.0,0.10831198261532259,-0.0780067644718286,1.0,0.0,1.0,1.0,1.0,1.0,0.6956937927207619
h106_kernel_seed_expand_c44_a090_64df3d49,975,139,id06,2024-07-19,2024-07-18,Q3,2,0.7439595438752091,0.7399677023608381,4.16859280448767e-05,0.3280228571428571,0.5280971428571429,-0.0332376571428571,0.9586285714285714,0.9811428571428572,0.3647565714285714,0.0,1.0,0,0.0,0.0,0.0,0.0,0.0,0.0,0.0,0.0,0.0,0.0,0.0,0.3736466735880533,0.0,0.9617142857142856,0.0777142857142857,0.1788571428571428,0.0,0.0,,-0.8055971428571429,0.7400840689307989,-0.020245643390468,3.5750219449570686e-05,0.020245643390468,0.0,0.0,0.0,0.0240670285714286,0.7314817680775492,1,0.7314817680775492,5.469611738723606e-07,0.7339085714285715,0.0994963433248757,0.0056064356772304,0.0005687243082713,0.9952675394748086,0.5782857142857143,0.415144879432044,0.2598524571428571,-0.0644977115049467,0.0004044507406137,0.7354432689956294,-0.0442335008621266,1.0,1.6260783992305683e-05,1.6260783992305683e-05,0.9297142857142856,0.6497142857142857,0.784,0.973,0.1639940548298225,-0.1154598857142857,4.0,3.0,1.0,0.5582329317269076,-0.3577789366275639,-0.9338063142352645,-0.8901457403773956,-0.4556759384562435,5.0,0.4782608695652174,24.0,0.0,0.0,1.0,0.0,0.0,0.0,0.0,0.0,0.0,0.0,0.0,0.0,0.0,0.0,1.0,1.0,0.0,0.0,0.0,0.0,0.0,1.0,0.0,1.0,0.0,1.0,0.0,0.7628320000000001,0.44296686857142864,0.271286678673206,0.271286678673206,2.971552713505406,3.0,0.999999999996314,3.0,0.0,0.10628115668614298,0.08216512858618655,0.0,5.0,1.0,1.0,1.0,1.0,0.3865324136021687
h106_kernel_seed_expand_c44_a090_64df3d49,1001,143,id06,2024-08-13,2024-08-12,Q1,0,0.2092269005697418,0.2089219578518885,2.8112041883243677e-07,0.2036971428571428,0.7239771428571429,0.4493369714285714,0.4697285714285715,0.1785714285714285,0.2708112,1.0,1.0,0,11.0,8.46508252903368,2.0,1.0,-0.001844088639247,-2.5733492812731393e-10,-2.811204188324367e-07,1.0,1.0,0.0,0.0,0.0,0.2475444819520837,0.1785714285714285,0.8182857142857143,0.8182857142857143,0.0,0.0,,0.5362942857142857,0.2088731251040907,-0.0021395802130861,3.443420287796428e-07,0.0021395802130861,0.0,0.0,1.0,0.2474148,0.1954998359663392,0,0.8045001640336608,2.029760534566282e-07,0.5569485714285715,-0.0679898442374993,0.0026140759999864,0.0005749680522457,1.006194091430059,0.748,0.6201089184571771,0.5372242285714286,-0.0850698678716392,0.0005789513017284,0.2002522879358252,-0.0551265446534379,1.0,0.0002292094574748,0.0002292094574748,0.9862857142857144,0.6948571428571428,0.8541142857142858,0.8878,0.0170800236341399,0.0637723428571428,1.0,0.0,1.0,0.5742971887550201,-0.4500514963711879,-0.8930026039234458,-0.9855293386108991,-0.16950493425609692,5.0,0.6521739130434783,24.0,1.0,0.0,0.0,0.0,0.0,0.0,0.0,0.0,1.0,1.0,0.0,0.0,0.0,0.0,0.0,0.0,0.0,0.0,0.0,0.0,0.0,1.0,0.0,1.0,0.0,1.0,0.0,0.758282662857143,0.46207152000000007,0.37001712551727584,0.37001712551727584,6.402001538901983,6.0,0.9999999999972975,6.0,0.0,0.059197460129195315,0.05201739033361936,0.0,1.0,1.0,1.0,1.0,1.0,0.36269506109125726
h106_kernel_seed_expand_c44_a090_64df3d49,1150,164,id07,2024-07-26,2024-07-25,Q3,2,0.4259565486750093,0.4269931880734391,2.196973457047058e-06,0.2573485714285714,0.5277371428571428,0.3815033714285714,0.4755571428571428,0.1785714285714285,0.3029848571428571,1.0,1.0,0,4.0,7.150759261260218,1.0,1.0,0.0018921461975348,-3.1386519561959727e-09,-1.501803454773649e-06,0.0,0.0,0.0,1.0,0.0,0.1449356177140495,0.1785714285714285,0.6674285714285715,0.6782857142857143,1.0,1.0,seed_q061_companion,0.4895571428571429,0.4270190049503677,0.0043437215818961,2.100024117157595e-06,0.0043437215818961,1.0,0.0,1.0,0.2906211428571428,0.4461046069309509,0,0.5538953930690491,3.0615352131698396e-07,0.5612685714285714,0.0658539470598237,0.0014462362567198,0.0005931515106564,1.0380151436487377,0.8931428571428571,0.3058667154411794,0.6421355428571428,0.0819453714389487,0.0008269628319164,0.4365566105950964,0.043218942955514,1.0,0.0001829166359995,0.0001829166359995,0.9805714285714284,0.6462857142857142,0.8331428571428572,0.8843714285714287,-0.0160914243791249,0.1454114285714285,4.0,3.0,1.0,0.6586345381526104,-0.839699808785118,-0.5430508550092121,-0.15082429716137438,0.9885605855918884,6.0,0.41379310344827586,30.0,0.0,0.0,1.0,0.0,0.0,0.0,0.0,0.0,0.0,0.0,0.0,0.0,0.0,0.0,1.0,1.0,0.0,0.0,0.0,0.0,0.0,1.0,0.0,1.0,0.0,1.0,0.0,0.7368077387755103,0.5973442857142858,-0.41465595299658486,0.41465595299658486,8.518706264653822,6.0,0.9999999999975884,0.0,6.0,0.055798254557179135,-0.04380833733466546,1.0,0.0,1.0,1.0,1.0,1.0,0.36082458411870894
h106_kernel_seed_expand_c44_a090_64df3d49,950,135,id06,2024-07-14,2024-07-13,S3,5,0.9998174319302912,0.9999690243965154,9.66556169085143e-05,0.41248,0.4153771428571429,0.4060846285714286,0.1434428571428571,0.1785714285714285,0.4921344,1.0,1.0,0,10.0,8.8123413858064,2.0,1.0,1.7740747865535766,-2.262030586979623e-08,-9.66556169085143e-05,1.0,1.0,0.0,0.0,0.0,5.8767346452884475,0.1785714285714285,0.9777142857142858,0.9777142857142858,0.0,0.0,,0.6325457142857144,0.999999,5.2073046728950665,0.0001106688193046,5.2073046728950665,1.0,0.0,1.0,0.5681642857142857,0.999999,1,0.999999,1.5611654156441006e-08,0.5173485714285715,3.3098046728945274,8.273637275291179e-08,0.0006977555522572,1.221072216450262,0.9817142857142858,0.9460383938620918,0.760486742857143,2.5,0.0001650960133852,0.9999740212292776,1.9499999999975175,1.0,-0.0001546556291109,0.0,0.4542857142857143,0.9914285714285714,0.6443142857142858,0.7002114285714286,-1.897500000000539,0.4285694857142857,6.0,5.0,1.0,0.5421686746987951,-0.2618644849608063,-0.9651046531419334,-0.7137661126871386,-0.7003841348713511,5.0,0.30434782608695654,24.0,0.0,0.0,0.0,0.0,0.0,1.0,0.0,0.0,0.0,0.0,0.0,0.0,0.0,0.0,0.0,0.0,0.0,0.0,1.0,1.0,0.0,0.0,1.0,0.0,1.0,1.0,0.0,0.4511562264489797,0.4576712342857143,-0.40956691364081255,0.8854051942620531,3.7073593742692372,4.0,0.46257568432462864,2.0,2.0,0.3536,-0.09942662285047268,0.0,9.0,0.0,1.0,1.0,1.0,0.35823756327941036
h106_kernel_seed_expand_c44_a090_64df3d49,948,135,id06,2024-07-14,2024-07-13,S1,3,0.9734003575300472,0.973869257464141,4.27031754200724e-06,0.2894857142857143,0.4153771428571429,0.3433262285714286,0.4297285714285715,0.1785714285714285,0.3458441142857142,1.0,1.0,0,2.0,1.93657810305736,1.0,1.0,0.0182668759527704,-6.783755927062974e-09,-4.27031754200724e-06,1.0,0.0,0.0,0.0,0.0,0.6721905000622236,0.1785714285714285,0.9554285714285714,0.9554285714285714,0.0,0.0,,0.5057228571428571,0.974056188023359,0.0256381782046499,7.623804536976975e-06,0.0256381782046499,1.0,0.0,1.0,0.3323978857142857,0.980817671875396,1,0.980817671875396,7.548363998751178e-07,0.7854285714285714,0.3446132577608978,0.0004295859545019,0.0005796575197187,1.0144006595078832,0.816,0.6653164722172068,0.6087560000000001,0.3344994478363832,0.0011746399717037,0.9765267673632434,0.1282437362729367,1.0,0.000120434605223,0.000120434605223,0.9697142857142858,0.8891428571428571,0.8942,0.8769542857142857,0.0101138099245203,0.1683793142857143,6.0,5.0,1.0,0.5421686746987951,-0.2618644849608063,-0.9651046531419334,-0.7137661126871386,-0.7003841348713511,5.0,0.30434782608695654,24.0,0.0,0.0,0.0,1.0,0.0,0.0,0.0,0.0,0.0,0.0,0.0,0.0,0.0,0.0,0.0,0.0,0.0,0.0,1.0,1.0,0.0,0.0,1.0,0.0,1.0,0.0,1.0,0.0,0.4472482171428571,-0.11986594223221869,0.11986594223221869,0.886584014171012,1.0,0.9999999999916573,0.0,1.0,0.13519975582268723,-0.12167978024028127,0.0,9.0,0.0,1.0,1.0,0.0,0.23565531865792608
h106_kernel_seed_expand_c44_a090_64df3d49,1025,146,id06,2024-08-20,2024-08-19,S1,3,0.8954549884000682,0.8959698352864354,1.417783483670387e-06,0.3377485714285714,0.7720971428571428,0.5372021142857144,0.4566714285714286,0.1785714285714285,0.3825,1.0,1.0,0,2.0,1.93657810305736,1.0,1.0,0.0055115996762786,-7.210063458333783e-09,-1.417783483614876e-06,1.0,0.0,0.0,0.0,0.0,0.1814867640869667,0.1785714285714285,0.7262857142857143,0.7297142857142858,0.0,0.0,,0.5688714285714286,0.8960266401379597,0.0061211893265373,1.5910230796167824e-06,0.0061211893265373,0.0,0.0,1.0,0.2748399428571428,0.9013371564884484,1,0.9013371564884484,9.526538141963833e-08,0.5840571428571429,0.0605883148573789,0.0025008685591644,0.0005691878083733,0.996078664653354,0.5982857142857143,0.5025209256459693,0.4072595428571429,0.0644567290925564,0.0001879499485854,0.8960564726868825,0.006441449137962,1.0,-1.7434042313135834e-06,0.0,0.4542857142857143,0.4811428571428571,0.4641428571428571,0.6506171428571429,-0.0038684142351774,0.1833594285714285,1.0,0.0,1.0,0.5863453815261044,-0.51629923627004,-0.8564082546466804,-0.9983886888289513,0.05674527309307293,5.0,0.782608695652174,24.0,0.0,0.0,0.0,1.0,0.0,0.0,0.0,0.0,1.0,1.0,0.0,0.0,0.0,0.0,0.0,0.0,0.0,0.0,0.0,0.0,0.0,0.0,1.0,0.0,1.0,1.0,0.0,0.3019792995918367,0.4251408571428571,-0.23203491920516517,0.23203491920516517,18.056207045720036,14.0,0.9999999999956902,0.0,14.0,0.015711517677710493,-0.011565630963128416,1.0,0.0,1.0,1.0,1.0,1.0,0.1188774923195615
h106_kernel_seed_expand_c44_a090_64df3d49,1003,143,id06,2024-08-13,2024-08-12,Q3,2,0.7974211568605402,0.7976028404050293,1.0219184443105437e-07,0.1975142857142857,0.7239771428571429,0.3612903428571428,0.4418571428571428,0.428,0.2734751428571428,1.0,1.0,0,9.0,6.528504425976319,2.0,1.0,0.0011250688438861,-5.3973778056587786e-11,-1.0219184443105437e-07,1.0,1.0,0.0,0.0,0.0036869899416043,0.2033244741112442,0.4194285714285714,0.7645714285714286,0.7622857142857142,0.0,0.0,,0.4938285714285715,0.7976486346250319,0.0014087668147091,1.4579317042517914e-07,0.0014087668147091,0.0,0.0,1.0,0.2141395999999999,0.8042915887861274,0,0.8042915887861274,6.427869809191278e-08,0.4171542857142857,0.038301195431796,0.0034032669145295,0.000583616319535,1.02132855918633,0.8502857142857143,0.3996342215272672,0.5556594285714285,0.0430822151337688,0.0001473572723578,0.801907638378985,0.02800623506122,1.0,5.662968595832041e-05,5.662968595832041e-05,0.9542857142857144,0.5817142857142857,0.7860285714285715,0.8718800000000001,-0.0047810197019728,0.0492705142857143,1.0,0.0,1.0,0.5742971887550201,-0.4500514963711879,-0.8930026039234458,-0.9855293386108991,-0.16950493425609692,5.0,0.6521739130434783,24.0,0.0,0.0,1.0,0.0,0.0,0.0,0.0,0.0,1.0,1.0,0.0,0.0,0.0,0.0,0.0,0.0,0.0,0.0,0.0,0.0,0.0,1.0,0.0,1.0,0.0,1.0,0.0,0.685322590857143,0.32353276571428574,-0.13726769775929218,0.13726769775929218,8.574774156156407,8.0,0.9999999999927149,0.0,8.0,0.0166369471915352,-0.01440748476094268,0.0,1.0,1.0,1.0,1.0,1.0,0.10721650590105324
h106_kernel_seed_expand_c44_a090_64df3d49,978,139,id06,2024-07-19,2024-07-18,S3,5,0.9998322183658211,0.999999,0.0001616728804585,0.4656228571428571,0.5280971428571429,0.4865783428571429,0.1508142857142857,0.1785714285714285,0.5339149714285715,1.0,0.0,0,20.0,17.52959496159584,3.0,1.0,4.949453310907217,-4.8125692751349655e-08,-0.0001614180034248,1.0,1.0,1.0,0.0,0.0,5.6968126966891885,0.1785714285714285,0.9765714285714284,0.9765714285714284,0.0,0.0,,0.707,0.999999,5.1228301330624095,0.0001016286010929,5.1228301330624095,0.0,0.0,1.0,0.5420378857142857,0.999999,1,0.999999,1.39734928052286e-08,0.5102685714285714,3.225330133061135,0.0,0.0006646334757489,1.1631085825605856,0.9657142857142856,0.9670264094251232,0.7171987428571429,2.5,0.0001515211396148,0.9999761255879857,1.9500000000024809,1.0,-0.0001419710140791,0.0,0.4542857142857143,0.9948571428571428,0.6441428571428571,0.7005885714285714,-1.8975000000012745,0.3646849142857143,4.0,3.0,1.0,0.5582329317269076,-0.3577789366275639,-0.9338063142352645,-0.8901457403773956,-0.4556759384562435,5.0,0.4782608695652174,24.0,0.0,0.0,0.0,0.0,0.0,1.0,0.0,0.0,0.0,0.0,0.0,0.0,0.0,0.0,1.0,1.0,0.0,0.0,0.0,0.0,0.0,0.0,1.0,0.0,1.0,1.0,0.0,0.4512791240816327,0.40608277714285723,-0.16930747912139177,0.949438931816201,4.716971240912617,5.0,0.17832371672113945,3.0,2.0,0.3536,-0.03230393475533236,0.0,5.0,1.0,1.0,1.0,1.0,0.09713555909963668
h106_kernel_seed_expand_c44_a090_64df3d49,1012,144,id06,2024-08-14,2024-08-13,S2,4,0.9999959292610848,0.999999,1.666919095250906e-06,0.2473999999999999,0.670817142857143,0.4452796,0.1277285714285714,0.1785714285714285,0.36927,1.0,1.0,0,6.0,4.40455491164904,2.0,1.0,1.4038276053337364,-3.885961219697539e-10,-1.666919095250906e-06,1.0,1.0,0.0,0.0,0.0,9.635517453110577,0.1785714285714285,0.9965714285714286,0.9965714285714286,0.0,0.0,,0.6091914285714287,0.999999,1.4038276053337366,1.543528956725406e-06,1.4038276053337366,1.0,0.0,1.0,0.4963339428571429,0.999999,1,0.999999,1.6045441135884457e-08,0.5168628571428572,3.301327605306856,0.0,0.0006418679262943,1.1232688710151584,0.9514285714285714,0.909933617216266,0.7047982857142859,1.4038276053337366,1.666919095250906e-06,0.999999,1.4038276053337366,1.0,-1.666919095250906e-06,0.0,0.4542857142857143,0.984,0.6147428571428571,0.9294514285714288,1.8974999999731192,0.3850804571428571,2.0,1.0,1.0,0.5783132530120482,-0.47243956847967067,-0.881363066014649,-0.9955262728085589,-0.09448513188803238,5.0,0.6956521739130435,24.0,0.0,0.0,0.0,0.0,1.0,0.0,0.0,0.0,0.0,0.0,1.0,1.0,0.0,0.0,0.0,0.0,0.0,0.0,0.0,0.0,0.0,0.0,1.0,0.0,1.0,0.0,1.0,0.0,0.32724907428571437,0.08673912287588983,0.08673912287588983,3.4853869025730306,3.0,0.9999999999884711,3.0,0.0,0.02528117569636652,0.022397860774265282,1.0,0.0,1.0,1.0,0.0,1.0,0.0905120612229912
h106_kernel_seed_expand_c44_a090_64df3d49,1045,149,id06,2024-08-23,2024-08-22,Q3,2,0.777022604386795,0.7775838198432127,9.094835523582034e-07,0.2452285714285714,0.7814571428571429,0.4971077142857142,0.4000428571428572,0.1785714285714285,0.3107259999999999,1.0,1.0,0,3.0,2.92297889772664,1.0,1.0,0.0032420924210658,-3.0912470261600027e-10,-9.094835523582034e-07,1.0,0.0,0.0,0.0,0.0,0.1858537712571854,0.1785714285714285,0.7365714285714285,0.7382857142857143,0.0,0.0,,0.5425857142857142,0.777621434684161,0.0034595987301866,9.42369486445216e-07,0.0034595987301866,1.0,0.0,1.0,0.3223777142857142,0.7843226988551862,1,0.7843226988551862,2.080929065056975e-08,0.3280685714285714,0.0209077107112019,0.0025222814853955,0.0005842227835737,1.0223898712541133,0.8554285714285714,0.4169258789693721,0.6592931428571428,0.0426381864788305,0.0001550105418142,0.7798976448569017,0.0166709572629812,1.0,1.4018847457442083e-05,1.4018847457442083e-05,0.9257142857142856,0.5342857142857143,0.7458,0.8927142857142858,-0.0217304757676286,0.1976028571428571,4.0,3.0,1.0,0.5983935742971888,-0.5795896608992377,-0.8149084764430339,-0.9599762679439228,0.2800813542249068,5.0,0.9130434782608695,24.0,0.0,0.0,1.0,0.0,0.0,0.0,0.0,0.0,0.0,0.0,0.0,0.0,0.0,0.0,1.0,1.0,0.0,0.0,0.0,0.0,0.0,1.0,0.0,1.0,0.0,1.0,0.0,0.6657863142857143,0.4611345714285715,0.06954429207340876,0.34271527923313294,3.9988341291411187,4.0,0.20292148114557262,1.0,3.0,0.17750776854454015,0.01565202777728004,0.0,2.0,1.0,1.0,0.0,0.0,0.027149225968304047
h106_kernel_seed_expand_c44_a090_64df3d49,1168,166,id07,2024-07-28,2024-07-27,S4,6,0.3835559021110223,0.3580812239736613,0.0013846229171905,0.6026171428571429,0.616657142857143,0.4521977714285715,0.4126428571428572,0.1785714285714285,0.3893893714285714,1.0,1.0,1,0.0,0.0,0.0,0.0,0.0,0.0,0.0,0.0,0.0,0.0,0.0,0.0,0.1974370752348368,0.1785714285714285,0.7594285714285715,0.7611428571428571,0.0,0.0,,-0.5230542857142859,0.3580293007399143,-0.109445570659614,0.0012660272371051,0.109445570659614,0.0,0.0,0.0,0.0679713714285714,0.3608604477350215,1,0.6391395522649784,6.284534714027365e-07,0.6933371428571429,-0.0971492464474823,0.0014170807632976,0.0005603248295453,0.9805684517044184,0.2142857142857142,0.529313581319482,0.2017797714285714,-0.0971492464474827,0.0010978597004569,0.3835559021110223,0.0,0.0,0.0,0.0,0.4542857142857143,0.2202857142857142,0.0,0.0,0.0,0.2977357714285714,6.0,5.0,1.0,0.6666666666666666,-0.8660254037844384,-0.5000000000000004,-4.898587196589413e-16,1.0,6.0,0.4827586206896552,30.0,0.0,0.0,0.0,0.0,0.0,0.0,1.0,0.0,0.0,0.0,0.0,0.0,0.0,0.0,0.0,0.0,0.0,0.0,1.0,1.0,0.0,0.0,1.0,0.0,1.0,0.0,0.0,0.0,-0.011412137142857132,0.0,0.0,0.0,0.0,0.0,0.0,0.0,0.0,0.0,0.0,2.0,1.0,1.0,0.0,0.0,0.0
h106_kernel_seed_expand_c44_a090_64df3d49,1171,167,id07,2024-08-15,2024-08-14,Q3,2,0.6622282680507035,0.6593671945468277,1.8272572976041342e-05,0.28656,0.6460971428571429,0.0097151142857142,0.9285714285714286,0.9325714285714286,0.3243517142857142,1.0,1.0,0,0.0,0.0,0.0,0.0,0.0,0.0,0.0,0.0,0.0,0.0,0.0,0.2411467115143672,0.0022711868523263,0.9262857142857144,0.184,0.1788571428571428,0.0,0.0,,-0.7406828571428573,0.6594319821196599,-0.0124760273743058,1.5882525844168605e-05,0.0124760273743058,0.0,0.0,0.0,0.0457197142857142,0.6523399386994059,1,0.6523399386994059,1.7175302543279741e-07,0.4842057142857143,0.0519347606544551,0.0025725301137093,0.0005616930367444,0.9829628143028276,0.2531428571428571,0.5385106948574682,0.0955969142857143,-0.0438993568060119,0.0002175452194616,0.6622282680507035,0.0,0.0,0.0,0.0,0.4542857142857143,0.2202857142857142,0.0,0.9387542857142858,0.0958341174604671,0.1176191999999999,3.0,2.0,1.0,0.6706827309236948,-0.8783652016699012,-0.4779901384917829,0.07562874588445713,0.997136045279652,6.0,0.5172413793103449,30.0,0.0,0.0,1.0,0.0,0.0,0.0,0.0,0.0,0.0,0.0,0.0,0.0,1.0,1.0,0.0,0.0,0.0,0.0,0.0,0.0,0.0,1.0,0.0,1.0,0.0,0.0,0.0,0.0,0.2272872914285714,0.0,0.0,0.0,0.0,0.0,0.0,0.0,0.0,0.0,0.0,3.0,1.0,1.0,0.0,0.0,0.0
h106_kernel_seed_expand_c44_a090_64df3d49,1169,167,id07,2024-08-15,2024-08-14,Q1,0,0.1647731313648371,0.16955528225438,8.245002283902014e-05,0.3733828571428571,0.6460971428571429,0.010278857142857,0.9819428571428572,0.9702857142857144,0.3762905142857142,0.0,1.0,0,0.0,0.0,0.0,0.0,0.0,0.0,0.0,0.0,0.0,0.0,0.0,0.3707005717670846,0.0,0.9605714285714284,0.0777142857142857,0.1788571428571428,0.0,0.0,,-0.77646,0.16945211794197,0.033618635571607,7.180199451334301e-05,0.033618635571607,0.0,0.0,0.0,0.0727952571428571,0.1903249847441018,1,0.8096750152558982,1.7471686055652549e-07,0.6090057142857144,-0.0633874329836676,0.0058823107838218,0.0004267069860478,0.7467372255837849,0.0108571428571428,0.5361968854677784,0.0065185142857143,0.1752339261738353,0.0022809588384993,0.1647731313648371,0.0,0.0,0.0,0.0,0.4542857142857143,0.2202857142857142,0.0,0.9814114285714286,-0.2228761221544036,0.1348905142857142,3.0,2.0,1.0,0.6706827309236948,-0.8783652016699012,-0.4779901384917829,0.07562874588445713,0.997136045279652,6.0,0.5172413793103449,30.0,1.0,0.0,0.0,0.0,0.0,0.0,0.0,0.0,0.0,0.0,0.0,0.0,1.0,1.0,0.0,0.0,0.0,0.0,0.0,0.0,0.0,1.0,0.0,1.0,0.0,0.0,0.0,0.0,0.20920328000000005,0.0,0.0,0.0,0.0,0.0,0.0,0.0,0.0,0.0,0.0,3.0,1.0,1.0,0.0,0.0,0.0
h106_kernel_seed_expand_c44_a090_64df3d49,1177,168,id07,2024-08-16,2024-08-15,Q2,1,0.427742815510214,0.3492402460578029,0.0128438130005216,0.7973257142857144,0.5014971428571429,0.5421977714285714,0.1492714285714285,0.1785714285714285,0.3999566857142858,1.0,0.0,0,15.0,13.71596294242416,3.0,1.0,-0.3436553158315241,-3.871954154359201e-06,-0.0125552571490903,1.0,1.0,1.0,0.0,0.0,0.3558172649140635,0.1785714285714285,0.8902857142857142,0.892,0.0,0.0,,0.7940142857142857,0.3491498348715466,-0.3317119013426209,0.0117376776236083,0.3317119013426209,1.0,0.0,1.0,0.7986041142857143,0.4346013253294609,1,0.5653986746705391,4.207848149862528e-07,0.6175542857142857,-0.0781537572538792,0.0035621388634405,0.0006777687953824,1.186095391919355,0.9725714285714284,0.7111408632623581,0.9045773714285714,0.0279644130898951,9.595862786859756e-05,0.427742815510214,0.0,0.0,0.0,0.0,0.4542857142857143,0.2202857142857142,0.0,0.0,0.0,0.7437901714285714,4.0,3.0,1.0,0.6746987951807228,-0.8901457403773966,-0.4556759384562417,0.15082429716137163,0.9885605855918889,6.0,0.5517241379310345,30.0,0.0,1.0,0.0,0.0,0.0,0.0,0.0,0.0,0.0,0.0,0.0,0.0,0.0,0.0,1.0,1.0,0.0,0.0,0.0,0.0,0.0,1.0,0.0,0.0,0.0,0.0,0.0,0.0,0.3395133028571429,0.0,0.0,0.0,0.0,0.0,0.0,0.0,0.0,0.0,0.0,4.0,1.0,1.0,0.0,0.0,0.0
h106_kernel_seed_expand_c44_a090_64df3d49,1167,166,id07,2024-07-28,2024-07-27,S3,5,0.78496572983817,0.7855980238074883,1.1851113628225107e-06,0.1321199999999999,0.616657142857143,-0.2670326857142856,0.9689428571428572,0.9542857142857144,0.0214457142857143,1.0,1.0,1,0.0,0.0,0.0,0.0,0.0,0.0,0.0,0.0,0.0,0.0,0.0,0.409814650690152,0.0,0.968,0.0777142857142857,0.1788571428571428,0.0,0.0,,-0.896577142857143,0.7855045344167187,0.0031949826110999,7.8306443174192e-07,0.0031949826110999,0.0,0.0,0.0,-0.4383046857142857,0.7664154641156825,1,0.7664154641156825,5.7256106081898e-07,0.7148914285714285,-0.1066622946257538,0.000978507915703,0.0005657951171741,0.9901414550547571,0.4028571428571428,0.510722971273249,0.0176572571428571,-0.1066622946257538,0.0009990060712304,0.78496572983817,0.0,0.0,0.0,0.0,0.4542857142857143,0.2202857142857142,0.0,0.0,0.0,-0.1765410285714285,6.0,5.0,1.0,0.6666666666666666,-0.8660254037844384,-0.5000000000000004,-4.898587196589413e-16,1.0,6.0,0.4827586206896552,30.0,0.0,0.0,0.0,0.0,0.0,1.0,0.0,0.0,0.0,0.0,0.0,0.0,0.0,0.0,0.0,0.0,0.0,0.0,1.0,1.0,0.0,0.0,1.0,0.0,1.0,0.0,0.0,0.0,-0.22877410285714284,0.0,0.0,0.0,0.0,0.0,0.0,0.0,0.0,0.0,0.0,2.0,1.0,1.0,0.0,0.0,0.0
h106_kernel_seed_expand_c44_a090_64df3d49,1166,166,id07,2024-07-28,2024-07-27,S2,4,0.687843943118029,0.699563535632062,0.0003220842785971,0.4739085714285714,0.616657142857143,0.3864850857142858,0.5295285714285715,0.1785714285714285,0.293814,1.0,1.0,1,0.0,0.0,0.0,0.0,0.0,0.0,0.0,0.0,0.0,0.0,0.0,0.0,0.1646713945902295,0.1785714285714285,0.7022857142857143,0.7057142857142857,0.0,0.0,,-0.577517142857143,0.699602702994693,0.0553479446343648,0.0002952136568427,0.0553479446343648,0.0,0.0,0.0,-0.0672350285714285,0.6914137701234012,1,0.6914137701234012,1.6882089942455438e-08,0.3755771428571428,0.0166783856478289,0.0045141456616271,0.0005680565846134,0.994099023073461,0.5348571428571428,0.649059361583703,0.2896947428571428,0.0166783856478289,2.973809151229911e-05,0.687843943118029,0.0,0.0,0.0,0.0,0.4542857142857143,0.2202857142857142,0.0,0.0,0.0,0.1700907428571428,6.0,5.0,1.0,0.6666666666666666,-0.8660254037844384,-0.5000000000000004,-4.898587196589413e-16,1.0,6.0,0.4827586206896552,30.0,0.0,0.0,0.0,0.0,1.0,0.0,0.0,0.0,0.0,0.0,0.0,0.0,0.0,0.0,0.0,0.0,0.0,0.0,1.0,1.0,0.0,0.0,1.0,0.0,1.0,0.0,0.0,0.0,-0.020176639999999982,0.0,0.0,0.0,0.0,0.0,0.0,0.0,0.0,0.0,0.0,2.0,1.0,1.0,0.0,0.0,0.0
h106_kernel_seed_expand_c44_a090_64df3d49,1172,167,id07,2024-08-15,2024-08-14,S1,3,0.3015200201273463,0.3032899224644574,7.4287743706547005e-06,0.2511885714285714,0.6460971428571429,0.1518918,0.7788571428571429,0.7371428571428571,0.3169985142857143,1.0,1.0,0,0.0,0.0,0.0,0.0,0.0,0.0,0.0,0.0,0.0,0.0,0.0,0.1039040619725408,0.0273932604993417,0.82,0.3577142857142857,0.1788571428571428,0.0,0.0,,-0.6898314285714287,0.3032553567834103,0.0082263351320291,6.498367508767089e-06,0.0082263351320291,0.0,0.0,0.0,0.0429442857142857,0.308692032129006,0,0.6913079678709939,8.45107085067326e-08,0.4600457142857143,-0.0370586853092125,0.002316884970054,0.0005470300963756,0.9573026686573,0.088,0.1938168849984478,0.0103923428571428,0.0338288122918607,0.0001215769326667,0.3015200201273463,0.0,0.0,0.0,0.0,0.4542857142857143,0.2202857142857142,0.0,0.9238857142857144,-0.0708874976010736,0.1127108571428571,3.0,2.0,1.0,0.6706827309236948,-0.8783652016699012,-0.4779901384917829,0.07562874588445713,0.997136045279652,6.0,0.5172413793103449,30.0,0.0,0.0,0.0,1.0,0.0,0.0,0.0,0.0,0.0,0.0,0.0,0.0,1.0,1.0,0.0,0.0,0.0,0.0,0.0,0.0,0.0,0.0,1.0,0.0,1.0,0.0,0.0,0.0,0.15781165714285716,0.0,0.0,0.0,0.0,0.0,0.0,0.0,0.0,0.0,0.0,3.0,1.0,1.0,0.0,0.0,0.0
h106_kernel_seed_expand_c44_a090_64df3d49,1173,167,id07,2024-08-15,2024-08-14,S2,4,0.5887897802641952,0.5843132682887072,4.133867305666783e-05,0.32436,0.6460971428571429,-0.0154002285714285,0.9708285714285714,0.9748571428571428,0.381282,1.0,1.0,0,0.0,0.0,0.0,0.0,0.0,0.0,0.0,0.0,0.0,0.0,0.0,0.5604509116827857,0.0,0.9811428571428572,0.0777142857142857,0.1788571428571428,0.0,0.0,,-0.7465914285714287,0.5844596925726677,-0.0178564441345801,3.5196234297263373e-05,0.0178564441345801,0.0,0.0,0.0,0.0713651428571429,0.5810951247646348,0,0.5810951247646348,1.1011067597323203e-06,0.6252685714285714,0.1264245979650153,0.0004401889294229,0.0005440616847588,0.9521079483279284,0.08,0.7362309678426668,0.0300014857142857,-0.0316940397909474,0.0001220467876403,0.5887897802641952,0.0,0.0,0.0,0.0,0.4542857142857143,0.2202857142857142,0.0,0.97392,0.1581186377559628,0.1451570285714285,3.0,2.0,1.0,0.6706827309236948,-0.8783652016699012,-0.4779901384917829,0.07562874588445713,0.997136045279652,6.0,0.5172413793103449,30.0,0.0,0.0,0.0,0.0,1.0,0.0,0.0,0.0,0.0,0.0,0.0,0.0,1.0,1.0,0.0,0.0,0.0,0.0,0.0,0.0,0.0,0.0,1.0,0.0,1.0,0.0,0.0,0.0,-0.04929572571428571,0.0,0.0,0.0,0.0,0.0,0.0,0.0,0.0,0.0,0.0,3.0,1.0,1.0,0.0,0.0,0.0
h106_kernel_seed_expand_c44_a090_64df3d49,1174,167,id07,2024-08-15,2024-08-14,S3,5,0.7722241432679042,0.7711755576943448,3.1221789483781848e-06,0.2317314285714286,0.6460971428571429,-0.0588174857142856,0.9247714285714286,0.9617142857142856,0.3159833142857142,1.0,1.0,0,0.0,0.0,0.0,0.0,0.0,0.0,0.0,0.0,0.0,0.0,0.0,0.5134044704270241,0.0,0.976,0.0777142857142857,0.1788571428571428,0.0,0.0,,-0.7682371428571428,0.7713083858268329,-0.0051989457833034,2.167121824103724e-06,0.0051989457833034,0.0,0.0,0.0,-0.0086879999999999,0.7872302156139718,0,0.7872302156139718,1.0263590487625962e-06,0.8358514285714286,0.1424864796383005,0.0028562295591054,0.0005737732842484,1.0041032474348348,0.7222857142857143,0.7913652114986713,0.3573603428571429,0.0873971839356679,0.000650399770852,0.7722241432679042,0.0,0.0,0.0,0.0,0.4542857142857143,0.2202857142857142,0.0,0.9126857142857144,0.0550892957026325,0.0640457142857142,3.0,2.0,1.0,0.6706827309236948,-0.8783652016699012,-0.4779901384917829,0.07562874588445713,0.997136045279652,6.0,0.5172413793103449,30.0,0.0,0.0,0.0,0.0,0.0,1.0,0.0,0.0,0.0,0.0,0.0,0.0,1.0,1.0,0.0,0.0,0.0,0.0,0.0,0.0,0.0,0.0,1.0,0.0,1.0,0.0,0.0,0.0,-0.13119542857142857,0.0,0.0,0.0,0.0,0.0,0.0,0.0,0.0,0.0,0.0,3.0,1.0,1.0,0.0,0.0,0.0
h106_kernel_seed_expand_c44_a090_64df3d49,1170,167,id07,2024-08-15,2024-08-14,Q2,1,0.2585691541490846,0.2656770629503839,0.0001309932058867,0.3634057142857143,0.6160971428571429,0.015473657142857,0.9244,0.9474285714285714,0.1863294857142857,1.0,1.0,0,0.0,0.0,0.0,0.0,0.0,0.0,0.0,0.0,0.0,0.0,0.0,0.2431035113946808,0.0,0.928,0.0777142857142857,0.1788571428571428,0.0,0.0,,-0.8061657142857144,0.2656212524374888,0.0364652463893921,0.0001172978222279,0.0364652463893921,0.0,0.0,0.0,0.1339982285714285,0.2437316668342044,1,0.7562683331657956,2.262064050041485e-07,0.5965714285714286,-0.0647693111962839,0.0011915399036031,0.0005602798533651,0.9804897433889596,0.2131428571428571,0.4372368655949322,0.1128355428571429,-0.0789096415282653,0.0005815780733707,0.2585691541490846,0.0,0.0,0.0,0.0,0.4542857142857143,0.2202857142857142,0.0,0.0,0.0,0.1264089142857142,3.0,2.0,1.0,0.6706827309236948,-0.8783652016699012,-0.4779901384917829,0.07562874588445713,0.997136045279652,6.0,0.5172413793103449,30.0,0.0,1.0,0.0,0.0,0.0,0.0,0.0,0.0,0.0,0.0,0.0,0.0,1.0,1.0,0.0,0.0,0.0,0.0,0.0,0.0,0.0,1.0,0.0,0.0,0.0,0.0,0.0,0.0,0.13296089142857148,0.0,0.0,0.0,0.0,0.0,0.0,0.0,0.0,0.0,0.0,3.0,1.0,1.0,0.0,0.0,0.0
h106_kernel_seed_expand_c44_a090_64df3d49,1175,167,id07,2024-08-15,2024-08-14,S4,6,0.4187952550026659,0.4153738905065821,2.406423207745867e-05,0.3569657142857143,0.6460971428571429,0.1602490857142856,0.8935428571428572,0.8211428571428572,0.3810195428571428,1.0,1.0,0,0.0,0.0,0.0,0.0,0.0,0.0,0.0,0.0,0.0,0.0,0.0,0.1786892572201537,0.0,0.8977142857142857,0.0777142857142857,0.1788571428571428,0.0,0.0,,-0.7058085714285716,0.4154237161616416,-0.0138673346538145,2.1266172281819703e-05,0.0138673346538145,0.0,0.0,0.0,0.0724438857142857,0.397893060653096,0,0.6021069393469041,3.735135839635843e-08,0.2687657142857143,0.023777535904542,0.0024743494451238,0.0005553987812059,0.97194786711036,0.1428571428571428,0.4706968753010347,0.0426798857142857,-0.0865308454366386,0.0009019509107703,0.4187952550026659,0.0,0.0,0.0,0.0,0.4542857142857143,0.2202857142857142,0.0,0.9521142857142858,0.1103083813411807,0.1436223999999999,3.0,2.0,1.0,0.6706827309236948,-0.8783652016699012,-0.4779901384917829,0.07562874588445713,0.997136045279652,6.0,0.5172413793103449,30.0,0.0,0.0,0.0,0.0,0.0,0.0,1.0,0.0,0.0,0.0,0.0,0.0,1.0,1.0,0.0,0.0,0.0,0.0,0.0,0.0,0.0,0.0,1.0,0.0,1.0,0.0,0.0,0.0,0.0435450971428572,0.0,0.0,0.0,0.0,0.0,0.0,0.0,0.0,0.0,0.0,3.0,1.0,1.0,0.0,0.0,0.0
h106_kernel_seed_expand_c44_a090_64df3d49,1176,168,id07,2024-08-16,2024-08-15,Q1,0,0.7095773537492385,0.7110860103831336,5.5279749872072514e-06,0.27996,0.5314971428571429,0.0481714857142857,0.8554571428571427,0.8857142857142857,0.3114489142857142,1.0,1.0,0,0.0,0.0,0.0,0.0,0.0,0.0,0.0,0.0,0.0,0.0,0.0,0.1885389035538449,0.0,0.9028571428571428,0.0777142857142857,0.1788571428571428,0.0,0.0,,-0.7543742857142858,0.7110475597069048,0.0071449572345133,4.77751187077935e-06,0.0071449572345133,0.0,0.0,0.0,0.0084665714285714,0.7135056531940354,1,0.7135056531940354,8.599781773341545e-08,0.3934285714285714,-0.0388429263563437,0.0016390838054395,0.0005719826778082,1.000969686164396,0.6857142857142857,0.3921741145446478,0.3324877714285715,0.019139302517699,3.75417210366491e-05,0.7095773537492385,0.0,0.0,0.0,0.0,0.4542857142857143,0.2202857142857142,0.0,0.9143314285714288,-0.0579822288740428,0.0801556571428571,4.0,3.0,1.0,0.6746987951807228,-0.8901457403773966,-0.4556759384562417,0.15082429716137163,0.9885605855918889,6.0,0.5517241379310345,30.0,1.0,0.0,0.0,0.0,0.0,0.0,0.0,0.0,0.0,0.0,0.0,0.0,0.0,0.0,1.0,1.0,0.0,0.0,0.0,0.0,0.0,1.0,0.0,1.0,0.0,0.0,0.0,0.0,0.19010333714285718,0.0,0.0,0.0,0.0,0.0,0.0,0.0,0.0,0.0,0.0,4.0,1.0,1.0,0.0,0.0,0.0
h106_kernel_seed_expand_c44_a090_64df3d49,1181,168,id07,2024-08-16,2024-08-15,S3,5,0.7431536737216731,0.7435108192474427,3.342260201932845e-07,0.2160228571428571,0.5314971428571429,-0.1188369142857143,0.8553428571428572,0.9502857142857144,0.3093181714285714,0.0,1.0,0,0.0,0.0,0.0,0.0,0.0,0.0,0.0,0.0,0.0,0.0,0.0,0.4242798197271744,0.0,0.9708571428571428,0.0777142857142857,0.1788571428571428,0.0,0.0,,-0.82474,0.743414734920727,0.0013681536146239,1.6249764556164337e-07,0.0013681536146239,0.0,0.0,0.0,-0.0793424,0.7326922149519417,1,0.7326922149519417,2.572607634345479e-07,0.6981714285714286,-0.0682815987415768,0.0052702016640162,0.0005576233671474,0.9758408925080948,0.1731428571428571,0.6414996808881369,0.0094038857142857,-0.054099929723397,0.0002841963158095,0.7431536737216731,0.0,0.0,0.0,0.0,0.4542857142857143,0.2202857142857142,0.0,0.8836457142857144,-0.0141816690181797,-0.0173716571428571,4.0,3.0,1.0,0.6746987951807228,-0.8901457403773966,-0.4556759384562417,0.15082429716137163,0.9885605855918889,6.0,0.5517241379310345,30.0,0.0,0.0,0.0,0.0,0.0,1.0,0.0,0.0,0.0,0.0,0.0,0.0,0.0,0.0,1.0,1.0,0.0,0.0,0.0,0.0,0.0,0.0,1.0,0.0,1.0,0.0,0.0,0.0,0.06669403428571435,0.0,0.0,0.0,0.0,0.0,0.0,0.0,0.0,0.0,0.0,4.0,1.0,1.0,0.0,0.0,0.0
h106_kernel_seed_expand_c44_a090_64df3d49,1178,168,id07,2024-08-16,2024-08-15,Q3,2,0.7963151305670723,0.7924641971256944,4.550272634740171e-05,0.3957428571428571,0.5314971428571429,-0.0401911999999999,0.9882857142857144,0.9891428571428572,0.39691,1.0,1.0,0,0.0,0.0,0.0,0.0,0.0,0.0,0.0,0.0,0.0,0.0,0.0,0.8109518692540728,0.0,0.9908571428571428,0.0777142857142857,0.1788571428571428,0.0,0.0,,-0.7563000000000001,0.7927128196677758,-0.0220651229017241,3.623336490987672e-05,0.0220651229017241,0.0,0.0,0.0,0.0689011999999999,0.812574737635354,1,0.812574737635354,3.805839610786119e-06,0.7760914285714287,0.273374404779904,0.0001077634273227,0.000571287842616,0.9997537245781276,0.6714285714285714,0.8393981511383376,0.311976,0.103406771151753,0.0008318533703707,0.7963151305670723,0.0,0.0,0.0,0.0,0.4542857142857143,0.2202857142857142,0.0,0.9720228571428572,0.1065682438824953,0.1428934857142856,4.0,3.0,1.0,0.6746987951807228,-0.8901457403773966,-0.4556759384562417,0.15082429716137163,0.9885605855918889,6.0,0.5517241379310345,30.0,0.0,0.0,1.0,0.0,0.0,0.0,0.0,0.0,0.0,0.0,0.0,0.0,0.0,0.0,1.0,1.0,0.0,0.0,0.0,0.0,0.0,1.0,0.0,1.0,0.0,0.0,0.0,0.0,0.23922466285714286,0.0,0.0,0.0,0.0,0.0,0.0,0.0,0.0,0.0,0.0,4.0,1.0,1.0,0.0,0.0,0.0
h106_kernel_seed_expand_c44_a090_64df3d49,1179,168,id07,2024-08-16,2024-08-15,S1,3,0.8741951130670589,0.8757769725265523,1.1417354937370838e-05,0.3808971428571428,0.5314971428571429,-0.0281363428571427,0.9427428571428572,0.916,0.3962554285714285,1.0,1.0,0,0.0,0.0,0.0,0.0,0.0,0.0,0.0,0.0,0.0,0.0,0.0,0.3538458134596141,0.0,0.9571428571428572,0.0777142857142857,0.1788571428571428,0.0,0.0,,-0.7480028571428572,0.8756690395189441,0.013469762708723,9.020211450605498e-06,0.013469762708723,0.0,0.0,0.0,0.0281312571428571,0.8821835079013307,1,0.8821835079013307,1.8896283928059906e-07,0.6237828571428571,-0.0803335615048244,0.0010795150096962,0.0005745176927884,1.0054059623797924,0.7394285714285714,0.6318127205648422,0.3589545142857143,0.0747004290739126,0.0002955584624924,0.8741951130670589,0.0,0.0,0.0,0.0,0.4542857142857143,0.2202857142857142,0.0,0.9585485714285714,-0.155033990578737,0.1025712,4.0,3.0,1.0,0.6746987951807228,-0.8901457403773966,-0.4556759384562417,0.15082429716137163,0.9885605855918889,6.0,0.5517241379310345,30.0,0.0,0.0,0.0,1.0,0.0,0.0,0.0,0.0,0.0,0.0,0.0,0.0,0.0,0.0,1.0,1.0,0.0,0.0,0.0,0.0,0.0,0.0,1.0,0.0,1.0,0.0,0.0,0.0,0.1297989485714286,0.0,0.0,0.0,0.0,0.0,0.0,0.0,0.0,0.0,0.0,4.0,1.0,1.0,0.0,0.0,0.0
h106_kernel_seed_expand_c44_a090_64df3d49,1200,171,id07,2024-08-20,2024-08-19,S1,3,0.5616206369018019,0.5273065016905316,0.0023795350826157,0.1503542857142857,0.3664571428571429,-0.1077878285714284,0.8585142857142858,0.6411428571428571,0.1688129142857143,1.0,1.0,1,2.0,3.6,1.0,1.0,-0.022145143052078,3.358487581408311e-06,-0.0006956848702167,0.0,0.0,0.0,1.0,0.047393899600972,0.0,0.7154285714285714,0.0777142857142857,0.1788571428571428,1.0,1.0,episode_neighbor_q061,0.0970257142857142,0.527314664790632,-0.1383743939660565,0.0021638167751778,0.1383743939660565,0.0,0.0,1.0,0.0077026285714286,0.5490579602208501,1,0.5490579602208501,1.7848971336330317e-07,0.4324114285714286,-0.05087674358765,0.0020394602045039,0.0005614034817032,0.9824560929807415,0.2445714285714285,-0.5254412742051521,0.1169510857142856,-0.05087674358765,0.0003198739839959,0.5616206369018019,0.0,0.0,0.0,0.0,0.4542857142857143,0.2202857142857142,0.0,0.0,0.0,0.2454745142857143,1.0,0.0,1.0,0.6867469879518072,-0.9220586030376134,-0.38705029720221723,0.36953183094075576,0.9292180723175657,6.0,0.6551724137931034,30.0,0.0,0.0,0.0,1.0,0.0,0.0,0.0,0.0,1.0,1.0,0.0,0.0,0.0,0.0,0.0,0.0,0.0,0.0,0.0,0.0,0.0,0.0,1.0,0.0,1.0,0.0,0.0,0.0,-0.0605268342857143,0.0,0.0,0.0,0.0,0.0,0.0,0.0,0.0,0.0,0.0,7.0,1.0,1.0,0.0,0.0,0.0
h106_kernel_seed_expand_c44_a090_64df3d49,1199,171,id07,2024-08-20,2024-08-19,Q3,2,0.3784121529456276,0.3418481097294042,0.002881241055227,0.5200857142857144,0.3664571428571429,0.294330342857143,0.4134714285714286,0.1785714285714285,0.3520808571428571,1.0,1.0,1,2.0,3.6,1.0,1.0,-0.0254041490698209,-1.0069721700134994e-07,-0.0008484216054982,0.0,0.0,0.0,1.0,0.0,0.5887286564134788,0.1785714285714285,0.9491428571428572,0.9491428571428572,1.0,1.0,episode_neighbor_q061,0.5107314285714287,0.3416590566611447,-0.1596163241673376,0.0026521755434663,0.1596163241673376,0.0,0.0,1.0,0.1850962857142857,0.3296708156448698,0,0.6703291843551302,3.041513534179243e-06,0.7483085714285714,-0.2133809889452266,0.0005995067205482,0.0004034579399398,0.7060513948947409,0.0091428571428571,0.7938109337043127,0.1709874285714286,-0.2133809889452269,0.0051461791997575,0.3784121529456276,0.0,0.0,0.0,0.0,0.4542857142857143,0.2202857142857142,0.0,0.6829085714285714,0.0811304878837815,0.4628749714285715,1.0,0.0,1.0,0.6867469879518072,-0.9220586030376134,-0.38705029720221723,0.36953183094075576,0.9292180723175657,6.0,0.6551724137931034,30.0,0.0,0.0,1.0,0.0,0.0,0.0,0.0,0.0,1.0,1.0,0.0,0.0,0.0,0.0,0.0,0.0,0.0,0.0,0.0,0.0,0.0,1.0,0.0,1.0,0.0,0.0,0.0,0.0,0.36215624000000013,0.0,0.0,0.0,0.0,0.0,0.0,0.0,0.0,0.0,0.0,7.0,1.0,1.0,0.0,0.0,0.0
h106_kernel_seed_expand_c44_a090_64df3d49,1198,171,id07,2024-08-20,2024-08-19,Q2,1,0.3148151714415448,0.3059566993335749,0.00018283699556,0.35848,0.3664571428571429,-0.0123721142857142,0.7678285714285714,0.424,0.0806673142857142,1.0,1.0,1,1.0,1.8,1.0,1.0,-0.0049665419599086,-3.1758494573968415e-08,-4.133723886123875e-05,0.0,0.0,0.0,1.0,0.003393019811309,0.115763383074495,0.4131428571428571,0.6074285714285714,0.6148571428571429,1.0,1.0,episode_neighbor_q061,0.2380371428571429,0.3059434878531817,-0.0414500668274905,0.0001669406509452,0.0414500668274905,0.0,0.0,1.0,-0.0946238857142857,0.3156782524897545,0,0.6843217475102454,9.731409779742178e-10,0.2492114285714285,0.0039982237292468,0.0021629436439478,0.0005696985916753,0.9969725354318544,0.616,0.3645950330632614,0.3285890285714286,0.0039982237292467,1.7258204050296657e-06,0.3148151714415448,0.0,0.0,0.0,0.0,0.4542857142857143,0.2202857142857142,0.0,0.0,0.0,0.1455353142857143,1.0,0.0,1.0,0.6867469879518072,-0.9220586030376134,-0.38705029720221723,0.36953183094075576,0.9292180723175657,6.0,0.6551724137931034,30.0,0.0,1.0,0.0,0.0,0.0,0.0,0.0,0.0,1.0,1.0,0.0,0.0,0.0,0.0,0.0,0.0,0.0,0.0,0.0,0.0,0.0,1.0,0.0,0.0,0.0,0.0,0.0,0.0,0.16250210285714287,0.0,0.0,0.0,0.0,0.0,0.0,0.0,0.0,0.0,0.0,7.0,1.0,1.0,0.0,0.0,0.0
h106_kernel_seed_expand_c44_a090_64df3d49,1197,171,id07,2024-08-20,2024-08-19,Q1,0,0.2391801122305973,0.2278273726133861,0.0003580802201473,0.4024685714285714,0.3664571428571429,0.0131001714285713,0.8145714285714286,0.7137142857142857,0.2382274285714286,1.0,1.0,1,2.0,3.6,1.0,1.0,-0.010150424862754,-5.269928667211088e-08,-0.000105294444963,0.0,0.0,0.0,1.0,0.0456010510387457,0.0658887592454424,0.7074285714285714,0.488,0.4114285714285714,1.0,1.0,episode_neighbor_q061,0.2646942857142857,0.2278293412784211,-0.0634289648739265,0.0003259953320206,0.0634289648739265,0.0,0.0,1.0,-0.0891682285714285,0.2301493424201021,0,0.7698506575798979,1.2708965071431917e-07,0.5154514285714286,-0.0502883560428251,0.0025132467960961,0.0005687287091934,0.9952752410885172,0.5788571428571428,0.1949230676593773,0.2794962285714287,-0.0502883560428251,0.0002260612764484,0.2391801122305973,0.0,0.0,0.0,0.0,0.4542857142857143,0.2202857142857142,0.0,0.0,0.0,0.1518482285714285,1.0,0.0,1.0,0.6867469879518072,-0.9220586030376134,-0.38705029720221723,0.36953183094075576,0.9292180723175657,6.0,0.6551724137931034,30.0,1.0,0.0,0.0,0.0,0.0,0.0,0.0,0.0,1.0,1.0,0.0,0.0,0.0,0.0,0.0,0.0,0.0,0.0,0.0,0.0,0.0,1.0,0.0,1.0,0.0,0.0,0.0,0.0,-0.011569462857142845,0.0,0.0,0.0,0.0,0.0,0.0,0.0,0.0,0.0,0.0,7.0,1.0,1.0,0.0,0.0,0.0
h106_kernel_seed_expand_c44_a090_64df3d49,1196,170,id07,2024-08-18,2024-08-17,S4,6,0.5636181146079399,0.5830059696401174,0.000766913444385,0.64944,0.5759571428571428,0.3518137142857142,0.6135142857142858,0.4405714285714285,0.3994028571428571,1.0,1.0,1,0.0,0.0,0.0,0.0,0.0,0.0,0.0,0.0,0.0,0.0,0.0,0.0061147813062941,0.0797305673386158,0.4497142857142857,0.5217142857142857,0.5325714285714286,0.0,0.0,,-0.6098800000000001,0.5830286572382981,0.0793596663929256,0.0006997253017292,0.0793596663929256,0.0,0.0,0.0,-0.0389212285714285,0.5716627481108069,1,0.5716627481108069,7.469264633779841e-08,0.3626514285714286,0.0327791828040964,0.001666004030307,0.0005584407259491,0.9772712704109352,0.1851428571428571,0.3238575655439936,0.1178370857142856,0.0327791828040964,0.0001317508081308,0.5636181146079399,0.0,0.0,0.0,0.0,0.4542857142857143,0.2202857142857142,0.0,0.0,0.0,0.1982419428571429,6.0,5.0,1.0,0.6827309236947792,-0.9119993982236606,-0.41019153774752704,0.2981979110466651,0.9545040627715553,6.0,0.6206896551724138,30.0,0.0,0.0,0.0,0.0,0.0,0.0,1.0,0.0,0.0,0.0,0.0,0.0,0.0,0.0,0.0,0.0,0.0,0.0,1.0,1.0,0.0,0.0,1.0,0.0,1.0,0.0,0.0,0.0,-0.014832948571428528,0.0,0.0,0.0,0.0,0.0,0.0,0.0,0.0,0.0,0.0,6.0,1.0,1.0,0.0,0.0,0.0
h106_kernel_seed_expand_c44_a090_64df3d49,1195,170,id07,2024-08-18,2024-08-17,S3,5,0.7855412665097083,0.7791418349272402,0.0001206811264744,0.4029314285714286,0.5759571428571428,0.2129979428571428,0.7118857142857143,0.4977142857142857,0.247480457142857,0.0,1.0,1,0.0,0.0,0.0,0.0,0.0,0.0,0.0,0.0,0.0,0.0,0.0,0.007646834753274,0.0329802892824369,0.4697142857142857,0.3805714285714285,0.4262857142857142,0.0,0.0,,-0.7455771428571429,0.7791386151247062,-0.037601973564691,0.0001098763099247,0.037601973564691,0.0,0.0,0.0,-0.2291273428571428,0.7742671709864297,1,0.7742671709864297,2.0963758686754e-07,0.5352800000000001,-0.0656907877245571,0.0008146162273997,0.0005656500903422,0.9898876580988724,0.3948571428571428,0.3401293821911747,0.1292903428571429,-0.0656907877245571,0.0003725718783585,0.7855412665097083,0.0,0.0,0.0,0.0,0.4542857142857143,0.2202857142857142,0.0,0.0,0.0,0.0067066285714285,6.0,5.0,1.0,0.6827309236947792,-0.9119993982236606,-0.41019153774752704,0.2981979110466651,0.9545040627715553,6.0,0.6206896551724138,30.0,0.0,0.0,0.0,0.0,0.0,1.0,0.0,0.0,0.0,0.0,0.0,0.0,0.0,0.0,0.0,0.0,0.0,0.0,1.0,1.0,0.0,0.0,1.0,0.0,1.0,0.0,0.0,0.0,-0.11010648,0.0,0.0,0.0,0.0,0.0,0.0,0.0,0.0,0.0,0.0,6.0,1.0,1.0,0.0,0.0,0.0
h106_kernel_seed_expand_c44_a090_64df3d49,1194,170,id07,2024-08-18,2024-08-17,S2,4,0.5535009853463879,0.5305720405334972,0.0010605217884496,0.6000342857142857,0.5759571428571428,0.4305255428571428,0.4468142857142857,0.1785714285714285,0.3920339999999999,1.0,1.0,1,0.0,0.0,0.0,0.0,0.0,0.0,0.0,0.0,0.0,0.0,0.0,0.0,0.1857396060694532,0.1785714285714285,0.7354285714285714,0.7377142857142858,0.0,0.0,,-0.53634,0.5305107123130185,-0.0926316701142953,0.0009700799930205,0.0926316701142953,0.0,0.0,0.0,0.0321674571428571,0.531446272655501,1,0.531446272655501,5.675979213520467e-07,0.6423085714285715,-0.0888750070491916,0.001356610021119,0.0005400113635995,0.9450198862991672,0.0685714285714285,0.4329374809530754,0.1162284,-0.0888750070491916,0.00098128988079,0.5535009853463879,0.0,0.0,0.0,0.0,0.4542857142857143,0.2202857142857142,0.0,0.0,0.0,0.2640161142857143,6.0,5.0,1.0,0.6827309236947792,-0.9119993982236606,-0.41019153774752704,0.2981979110466651,0.9545040627715553,6.0,0.6206896551724138,30.0,0.0,0.0,0.0,0.0,1.0,0.0,0.0,0.0,0.0,0.0,0.0,0.0,0.0,0.0,0.0,0.0,0.0,0.0,1.0,1.0,0.0,0.0,1.0,0.0,1.0,0.0,0.0,0.0,-0.08470410285714285,0.0,0.0,0.0,0.0,0.0,0.0,0.0,0.0,0.0,0.0,6.0,1.0,1.0,0.0,0.0,0.0
h106_kernel_seed_expand_c44_a090_64df3d49,1193,170,id07,2024-08-18,2024-08-17,S1,3,0.6940083360321347,0.7075295471558947,0.000434107118477,0.6470000000000001,0.5759571428571428,0.3749250857142857,0.6112285714285715,0.396,0.3853559999999999,1.0,1.0,1,0.0,0.0,0.0,0.0,0.0,0.0,0.0,0.0,0.0,0.0,0.0,0.0017025757853978,0.0744358181778094,0.3937142857142857,0.5114285714285715,0.5314285714285715,0.0,0.0,,-0.6035657142857145,0.7075533173636496,0.064604506075667,0.0003966738012397,0.064604506075667,0.0,0.0,0.0,-0.0697069999999999,0.7045264875659707,0,0.7045264875659707,1.4817704618461432e-07,0.4933485714285714,0.0500206195549243,0.0015232129398213,0.0005660115169039,0.9905201545819766,0.4114285714285714,0.2367729198191563,0.2102014285714286,0.0500206195549243,0.0002621881501757,0.6940083360321347,0.0,0.0,0.0,0.0,0.4542857142857143,0.2202857142857142,0.0,0.0,0.0,0.1686062857142857,6.0,5.0,1.0,0.6827309236947792,-0.9119993982236606,-0.41019153774752704,0.2981979110466651,0.9545040627715553,6.0,0.6206896551724138,30.0,0.0,0.0,0.0,1.0,0.0,0.0,0.0,0.0,0.0,0.0,0.0,0.0,0.0,0.0,0.0,0.0,0.0,0.0,1.0,1.0,0.0,0.0,1.0,0.0,1.0,0.0,0.0,0.0,-0.08523651428571428,0.0,0.0,0.0,0.0,0.0,0.0,0.0,0.0,0.0,0.0,6.0,1.0,1.0,0.0,0.0,0.0
h106_kernel_seed_expand_c44_a090_64df3d49,1192,170,id07,2024-08-18,2024-08-17,Q3,2,0.6396250376949962,0.6475097471021488,0.0001352907929288,0.3386628571428572,0.5759571428571428,0.1516969714285714,0.7596857142857142,0.4691428571428571,0.187692857142857,1.0,1.0,1,0.0,0.0,0.0,0.0,0.0,0.0,0.0,0.0,0.0,0.0,0.0,0.0074088767360692,0.0409714684305328,0.4662857142857143,0.4188571428571429,0.4497142857142857,0.0,0.0,,-0.7307657142857144,0.6475138939905016,0.0343919706452248,0.0001232727262182,0.0343919706452248,0.0,0.0,0.0,-0.2018993999999999,0.6376261890924968,0,0.6376261890924968,4.82192399130599e-09,0.1167657142857142,-0.008661179429959,0.0001088707105971,0.0005702095527333,0.9978667172833144,0.636,0.3370590583098,0.2494066857142857,-0.008661179429959,8.659657592779979e-06,0.6396250376949962,0.0,0.0,0.0,0.0,0.4542857142857143,0.2202857142857142,0.0,0.0,0.0,0.0451429714285713,6.0,5.0,1.0,0.6827309236947792,-0.9119993982236606,-0.41019153774752704,0.2981979110466651,0.9545040627715553,6.0,0.6206896551724138,30.0,0.0,0.0,1.0,0.0,0.0,0.0,0.0,0.0,0.0,0.0,0.0,0.0,0.0,0.0,0.0,0.0,0.0,0.0,1.0,1.0,0.0,1.0,0.0,1.0,0.0,0.0,0.0,0.0,0.046411440000000026,0.0,0.0,0.0,0.0,0.0,0.0,0.0,0.0,0.0,0.0,6.0,1.0,1.0,0.0,0.0,0.0
h106_kernel_seed_expand_c44_a090_64df3d49,1191,170,id07,2024-08-18,2024-08-17,Q2,1,0.3653782265559202,0.3470172120060635,0.0007323547992014,0.4767657142857143,0.5759571428571428,0.2706994857142857,0.5880714285714286,0.1785714285714285,0.1446513142857142,1.0,1.0,1,0.0,0.0,0.0,0.0,0.0,0.0,0.0,0.0,0.0,0.0,0.0,0.0,0.2129547510269516,0.1785714285714285,0.776,0.7777142857142857,0.0,0.0,,-0.6635457142857143,0.3469650059340713,-0.0803106552560463,0.0006706180868848,0.0803106552560463,0.0,0.0,0.0,-0.0247374571428571,0.3493998237301206,1,0.6506001762698794,3.20052526648555e-07,0.6823657142857142,-0.0695822569039678,0.0036789339728707,0.000549306486399,0.9612863511983104,0.0965714285714285,0.610845179280648,0.1099047428571428,-0.0695822569039678,0.0005540676148284,0.3653782265559202,0.0,0.0,0.0,0.0,0.4542857142857143,0.2202857142857142,0.0,0.0,0.0,0.2111438857142856,6.0,5.0,1.0,0.6827309236947792,-0.9119993982236606,-0.41019153774752704,0.2981979110466651,0.9545040627715553,6.0,0.6206896551724138,30.0,0.0,1.0,0.0,0.0,0.0,0.0,0.0,0.0,0.0,0.0,0.0,0.0,0.0,0.0,0.0,0.0,0.0,0.0,1.0,1.0,0.0,1.0,0.0,0.0,0.0,0.0,0.0,0.0,0.15128867428571433,0.0,0.0,0.0,0.0,0.0,0.0,0.0,0.0,0.0,0.0,6.0,1.0,1.0,0.0,0.0,0.0
h106_kernel_seed_expand_c44_a090_64df3d49,1190,170,id07,2024-08-18,2024-08-17,Q1,0,0.6074184689486233,0.5934468905576782,0.0004076496751119,0.4200057142857143,0.5759571428571428,0.3415577714285714,0.5742142857142857,0.1785714285714285,0.2454507428571428,1.0,1.0,1,0.0,0.0,0.0,0.0,0.0,0.0,0.0,0.0,0.0,0.0,0.0,0.0,0.2463543496954725,0.1785714285714285,0.8177142857142857,0.8177142857142857,0.0,0.0,,-0.6012371428571429,0.5933874137848659,-0.0584870788472872,0.0003740211416424,0.0584870788472872,0.0,0.0,0.0,-0.0718933999999999,0.5904508031407348,0,0.5904508031407348,3.273573721901605e-07,0.5014171428571429,-0.0706444373041575,0.0015040558555204,0.0005333459012878,0.9333553272536504,0.0542857142857142,0.5826628237427306,0.0680249714285713,-0.0706444373041575,0.0006007321087921,0.6074184689486233,0.0,0.0,0.0,0.0,0.4542857142857143,0.2202857142857142,0.0,0.6599028571428572,0.0403838934264991,0.2191077714285714,6.0,5.0,1.0,0.6827309236947792,-0.9119993982236606,-0.41019153774752704,0.2981979110466651,0.9545040627715553,6.0,0.6206896551724138,30.0,1.0,0.0,0.0,0.0,0.0,0.0,0.0,0.0,0.0,0.0,0.0,0.0,0.0,0.0,0.0,0.0,0.0,0.0,1.0,1.0,0.0,1.0,0.0,1.0,0.0,0.0,0.0,0.0,0.016885062857142863,0.0,0.0,0.0,0.0,0.0,0.0,0.0,0.0,0.0,0.0,6.0,1.0,1.0,0.0,0.0,0.0
h106_kernel_seed_expand_c44_a090_64df3d49,1189,169,id07,2024-08-17,2024-08-16,S4,6,0.4629773685611164,0.4823778552251216,0.000755643891166,0.69656,0.5428571428571428,0.6080142285714285,0.1277857142857142,0.1785714285714285,0.6244498285714286,1.0,0.0,0,21.0,18.02115831398056,3.0,1.0,0.0793888261796314,-1.1392206111733183e-06,-0.0007510622245772,1.0,1.0,1.0,0.0,0.0,0.1417789009378461,0.1785714285714285,0.66,0.6708571428571428,0.0,0.0,,0.7974485714285715,0.4823955904660225,0.0779153071367481,0.0006888335863648,0.0779153071367481,1.0,0.0,1.0,0.6403156571428572,0.4760130825344299,0,0.52398691746557,1.9307284898278885e-07,0.4702971428571428,0.0523406857624825,0.0017072740352812,0.0005650533652277,0.9888433891485876,0.3611428571428571,0.6489047331156543,0.4681929142857142,0.0523406857624825,0.0003413306850658,0.4823636244775861,0.0777872841896048,1.0,-0.0007570230618575,0.0,0.4542857142857143,0.7777142857142857,0.6036,0.0,0.0,0.4362626285714284,5.0,4.0,1.0,0.678714859437751,-0.9013595191835571,-0.4330716074475291,0.22515594052269275,0.9743227403932136,6.0,0.5862068965517241,30.0,0.0,0.0,0.0,0.0,0.0,0.0,1.0,0.0,0.0,0.0,0.0,0.0,0.0,0.0,0.0,0.0,1.0,1.0,0.0,0.0,0.0,0.0,1.0,0.0,1.0,0.0,0.0,0.0,0.2604485485714285,0.0,0.0,0.0,0.0,0.0,0.0,0.0,0.0,0.0,0.0,5.0,1.0,1.0,0.0,0.0,0.0
h106_kernel_seed_expand_c44_a090_64df3d49,1188,169,id07,2024-08-17,2024-08-16,S3,5,0.7994116795180602,0.8238132653272896,0.0019170543777541,0.8152457142857142,0.5428571428571428,0.6676812000000001,0.0725,0.1785714285714285,0.7702930285714286,1.0,0.0,0,21.0,18.02115831398056,3.0,1.0,0.162948291934045,-2.4326182585986864e-06,-0.0019058886730727,1.0,1.0,1.0,0.0,0.0,0.2133841699540335,0.1785714285714285,0.7771428571428571,0.7788571428571428,0.0,0.0,,0.8719342857142857,0.8238294579576622,0.159889619627594,0.0017509452253977,0.159889619627594,1.0,0.0,1.0,0.7496676571428571,0.8146091782151268,1,0.8146091782151268,4.15165470350828e-07,0.7297257142857143,0.0976209097094349,0.0024551195319789,0.0005723513799467,1.0016149149068765,0.6925714285714286,0.7367575644464935,0.7318352000000001,0.0976209097094349,0.0007343850941234,0.8233309878794017,0.1564588926615673,1.0,-0.0019187877670169,0.0,0.4542857142857143,0.9222857142857144,0.6622285714285715,0.0,0.0,0.5241757714285713,5.0,4.0,1.0,0.678714859437751,-0.9013595191835571,-0.4330716074475291,0.22515594052269275,0.9743227403932136,6.0,0.5862068965517241,30.0,0.0,0.0,0.0,0.0,0.0,1.0,0.0,0.0,0.0,0.0,0.0,0.0,0.0,0.0,0.0,0.0,1.0,1.0,0.0,0.0,0.0,0.0,1.0,0.0,1.0,0.0,0.0,0.0,0.3012318628571429,0.0,0.0,0.0,0.0,0.0,0.0,0.0,0.0,0.0,0.0,5.0,1.0,1.0,0.0,0.0,0.0
h106_kernel_seed_expand_c44_a090_64df3d49,1187,169,id07,2024-08-17,2024-08-16,S2,4,0.4008156217552586,0.3865669726163243,0.0004244089897591,0.4949142857142857,0.5428571428571428,0.5097104571428572,0.1531571428571428,0.1785714285714285,0.506436,1.0,0.0,0,21.0,18.02115831398056,3.0,1.0,-0.0608826262740634,-1.1177078623793413e-07,-0.0004218518212367,1.0,1.0,1.0,0.0,0.0,0.22734470989448,0.1785714285714285,0.7914285714285715,0.7931428571428571,0.0,0.0,,0.7160771428571427,0.3865114094961545,-0.0599324435620611,0.0003893537730124,0.0599324435620611,1.0,0.0,1.0,0.5717074285714286,0.3817161972798287,0,0.6182838027201714,4.729865189256099e-07,0.7061028571428573,-0.0802023509182556,0.0025374240883664,0.0005124604653811,0.8968058144170515,0.0342857142857142,0.3148753033722998,0.290304,-0.0802023509182556,0.0007636824990138,0.3834258980465542,-0.0729643010962097,1.0,-0.0004076174944005,0.0,0.4542857142857143,0.7651428571428571,0.5901428571428572,0.0,0.0,0.3752668571428571,5.0,4.0,1.0,0.678714859437751,-0.9013595191835571,-0.4330716074475291,0.22515594052269275,0.9743227403932136,6.0,0.5862068965517241,30.0,0.0,0.0,0.0,0.0,1.0,0.0,0.0,0.0,0.0,0.0,0.0,0.0,0.0,0.0,0.0,0.0,1.0,1.0,0.0,0.0,0.0,0.0,1.0,0.0,1.0,0.0,0.0,0.0,0.31208668571428577,0.0,0.0,0.0,0.0,0.0,0.0,0.0,0.0,0.0,0.0,5.0,1.0,1.0,0.0,0.0,0.0
h106_kernel_seed_expand_c44_a090_64df3d49,1186,169,id07,2024-08-17,2024-08-16,S1,3,0.4401726677284749,0.4456627951858518,6.110559031413665e-05,0.4788342857142856,0.5428571428571428,0.4984400571428571,0.2217285714285714,0.1785714285714285,0.4481122285714286,1.0,1.0,0,21.0,18.02115831398056,3.0,1.0,0.0226922398288366,-1.4084522928999332e-07,-6.073522004502898e-05,1.0,1.0,1.0,0.0,0.0,0.2218994519577111,0.1785714285714285,0.7874285714285715,0.788,0.0,0.0,,0.6823571428571429,0.4457140663446027,0.0224582846065134,5.664578297559508e-05,0.0224582846065134,1.0,0.0,1.0,0.4629941714285714,0.4598228005832986,1,0.5401771994167014,4.53523153712318e-07,0.5950971428571429,0.0794052907132392,0.0007973981832331,0.0005914826098097,1.0350945671671092,0.8885714285714286,0.9016272176905844,0.6991744,0.0794052907132392,0.0007811950000096,0.4509411653977672,0.0435925990748798,1.0,-7.0362619563058e-06,0.0,0.4542857142857143,0.648,0.5169428571428571,0.0,0.0,0.2912778285714285,5.0,4.0,1.0,0.678714859437751,-0.9013595191835571,-0.4330716074475291,0.22515594052269275,0.9743227403932136,6.0,0.5862068965517241,30.0,0.0,0.0,0.0,1.0,0.0,0.0,0.0,0.0,0.0,0.0,0.0,0.0,0.0,0.0,0.0,0.0,1.0,1.0,0.0,0.0,0.0,0.0,1.0,0.0,1.0,0.0,0.0,0.0,0.20114206857142855,0.0,0.0,0.0,0.0,0.0,0.0,0.0,0.0,0.0,0.0,5.0,1.0,1.0,0.0,0.0,0.0
h106_kernel_seed_expand_c44_a090_64df3d49,1185,169,id07,2024-08-17,2024-08-16,Q3,2,0.5647956175468157,0.5297963890696967,0.0024785803144239,0.7756228571428572,0.5428571428571428,0.4956619428571429,0.4061142857142857,0.6211428571428571,0.6628285714285714,1.0,1.0,0,21.0,18.02115831398056,3.0,1.0,-0.1441252424007455,-1.7953286139373937e-06,-0.0024635112729012,1.0,1.0,1.0,0.0,0.0168395284671378,0.1041983057920189,0.5622857142857143,0.5782857142857143,0.5651428571428572,0.0,0.0,,0.7411314285714286,0.5298004342907153,-0.1413049772941566,0.0022543818337454,0.1413049772941566,1.0,0.0,1.0,0.6665224,0.5507211907397133,0,0.5507211907397133,2.252029869090531e-07,0.4231885714285714,-0.0570631372752062,0.0006635074186984,0.0005520971642727,0.966170037477252,0.1108571428571428,0.3885651153665713,0.3428518857142857,-0.0570631372752062,0.0004020066913776,0.5329581122551421,-0.1286242779753405,1.0,-0.0024579852337978,0.0,0.4542857142857143,0.8897142857142857,0.6564000000000001,0.0,0.0,0.4503250285714285,5.0,4.0,1.0,0.678714859437751,-0.9013595191835571,-0.4330716074475291,0.22515594052269275,0.9743227403932136,6.0,0.5862068965517241,30.0,0.0,0.0,1.0,0.0,0.0,0.0,0.0,0.0,0.0,0.0,0.0,0.0,0.0,0.0,0.0,0.0,1.0,1.0,0.0,0.0,0.0,1.0,0.0,1.0,0.0,0.0,0.0,0.0,0.4344416457142857,0.0,0.0,0.0,0.0,0.0,0.0,0.0,0.0,0.0,0.0,5.0,1.0,1.0,0.0,0.0,0.0
h106_kernel_seed_expand_c44_a090_64df3d49,1184,169,id07,2024-08-17,2024-08-16,Q2,1,0.279365532705393,0.2697227602101059,0.000232595632452,0.4492514285714286,0.5428571428571428,0.2964830285714286,0.3917142857142857,0.3577142857142857,0.2488077714285714,1.0,1.0,0,6.0,5.71228967627096,1.0,1.0,-0.0484186739836393,-2.6770223851371676e-07,-0.000232595632452,1.0,0.0,0.0,0.0,1.0045630993715804e-11,0.1015616947347083,0.3582857142857142,0.572,0.596,0.0,0.0,,0.4981571428571428,0.2697205087980046,-0.0484301041033371,0.0002118687393581,0.0484301041033371,1.0,0.0,1.0,0.4616226857142856,0.2741724013100657,0,0.7258275986899343,3.7887697732179615e-08,0.4092,-0.0259444577031136,0.0038687875711955,0.0005661171901252,0.9907050827191902,0.4194285714285714,0.4087488973516628,0.4177616,-0.0259444577031136,6.723643343664598e-05,0.2702244208715773,-0.0458733076926358,1.0,-0.0002320605817088,0.0,0.4542857142857143,0.6571428571428571,0.5503714285714286,0.0,0.0,0.3104193142857142,5.0,4.0,1.0,0.678714859437751,-0.9013595191835571,-0.4330716074475291,0.22515594052269275,0.9743227403932136,6.0,0.5862068965517241,30.0,0.0,1.0,0.0,0.0,0.0,0.0,0.0,0.0,0.0,0.0,0.0,0.0,0.0,0.0,0.0,0.0,1.0,1.0,0.0,0.0,0.0,1.0,0.0,0.0,0.0,0.0,0.0,0.0,0.3343390742857143,0.0,0.0,0.0,0.0,0.0,0.0,0.0,0.0,0.0,0.0,5.0,1.0,1.0,0.0,0.0,0.0
h106_kernel_seed_expand_c44_a090_64df3d49,1183,169,id07,2024-08-17,2024-08-16,Q1,0,0.1274544003561906,0.1168156129966419,0.0005215103908087,0.5925714285714286,0.5428571428571428,0.5570341142857143,0.1725,0.1785714285714285,0.5119090285714286,1.0,0.0,0,20.0,17.09019982354792,3.0,1.0,-0.1020071737969828,-4.482423496364393e-07,-0.0005186751080142,1.0,1.0,1.0,0.0,0.0,0.3233160308777463,0.1785714285714285,0.8714285714285714,0.8731428571428571,0.0,0.0,,0.7593628571428573,0.1167553763098277,-0.0998649944566389,0.0004808723802615,0.0998649944566389,1.0,0.0,1.0,0.6179971428571429,0.1164254915770122,0,0.8835745084229877,3.159108494636005e-07,0.62232,-0.1030678507775402,0.0002153999101432,0.0005615668317439,0.982741955551965,0.2502857142857143,0.6893570565334828,0.40296,-0.1030678507775411,0.0005609803445251,0.1155371874785612,-0.1117317620110323,1.0,-0.0005202693804681,0.0,0.4542857142857143,0.8594285714285714,0.6223714285714286,0.0,0.0,0.4103948571428572,5.0,4.0,1.0,0.678714859437751,-0.9013595191835571,-0.4330716074475291,0.22515594052269275,0.9743227403932136,6.0,0.5862068965517241,30.0,1.0,0.0,0.0,0.0,0.0,0.0,0.0,0.0,0.0,0.0,0.0,0.0,0.0,0.0,0.0,0.0,1.0,1.0,0.0,0.0,0.0,1.0,0.0,1.0,0.0,0.0,0.0,0.0,0.26028062857142864,0.0,0.0,0.0,0.0,0.0,0.0,0.0,0.0,0.0,0.0,5.0,1.0,1.0,0.0,0.0,0.0
h106_kernel_seed_expand_c44_a090_64df3d49,1182,168,id07,2024-08-16,2024-08-15,S4,6,0.6608021779332724,0.657041181037364,3.149750687769792e-05,0.36816,0.5314971428571429,-0.0323346285714285,0.9573428571428572,0.9142857142857144,0.3996826285714285,1.0,1.0,0,0.0,0.0,0.0,0.0,0.0,0.0,0.0,0.0,0.0,0.0,0.0,0.3795718325931641,0.0,0.9622857142857144,0.0777142857142857,0.1788571428571428,0.0,0.0,,-0.7514542857142857,0.657149126134697,-0.0162556444093758,2.7039195820144357e-05,0.0162556444093758,0.0,0.0,0.0,0.0568754285714285,0.6456750084797447,1,0.6456750084797447,3.113029189577304e-07,0.6694628571428572,0.0679564316609948,0.0032737919816324,0.0005259045472873,0.920332957752807,0.0474285714285714,0.8055239724666647,-0.0022253714285714,-0.0667892877774949,0.0005068900654802,0.6608021779332724,0.0,0.0,0.0,0.0,0.4542857142857143,0.2202857142857142,0.0,0.9624228571428572,0.1347457194384897,0.1305526857142857,4.0,3.0,1.0,0.6746987951807228,-0.8901457403773966,-0.4556759384562417,0.15082429716137163,0.9885605855918889,6.0,0.5517241379310345,30.0,0.0,0.0,0.0,0.0,0.0,0.0,1.0,0.0,0.0,0.0,0.0,0.0,0.0,0.0,1.0,1.0,0.0,0.0,0.0,0.0,0.0,0.0,1.0,0.0,1.0,0.0,0.0,0.0,0.04615241142857143,0.0,0.0,0.0,0.0,0.0,0.0,0.0,0.0,0.0,0.0,4.0,1.0,1.0,0.0,0.0,0.0
h106_kernel_seed_expand_c44_a090_64df3d49,1164,166,id07,2024-07-28,2024-07-27,Q3,2,0.5218569492920868,0.5587579913046895,0.002736993412975,0.6339428571428573,0.616657142857143,0.4689678285714287,0.3860428571428572,0.1785714285714285,0.3975722857142856,1.0,1.0,1,0.0,0.0,0.0,0.0,0.0,0.0,0.0,0.0,0.0,0.0,0.0,0.0,0.2184035969806677,0.1785714285714285,0.7834285714285715,0.7845714285714286,0.0,0.0,,-0.50926,0.5588162138354947,0.1488755552705747,0.0024993495458942,0.1488755552705747,0.0,0.0,0.0,0.1217351428571428,0.5436767179659624,0,0.5436767179659624,5.381180469433033e-07,0.6956114285714285,0.0876697417664116,0.0046707900138768,0.0003800858037427,0.6651501565498965,0.0068571428571428,0.6886474790795702,0.1294302857142858,0.0876697417664116,0.000955550641508,0.5218569492920868,0.0,0.0,0.0,0.0,0.4542857142857143,0.2202857142857142,0.0,0.6802685714285714,-0.0733848399575346,0.4030592,6.0,5.0,1.0,0.6666666666666666,-0.8660254037844384,-0.5000000000000004,-4.898587196589413e-16,1.0,6.0,0.4827586206896552,30.0,0.0,0.0,1.0,0.0,0.0,0.0,0.0,0.0,0.0,0.0,0.0,0.0,0.0,0.0,0.0,0.0,0.0,0.0,1.0,1.0,0.0,1.0,0.0,1.0,0.0,0.0,0.0,0.0,0.13352020571428574,0.0,0.0,0.0,0.0,0.0,0.0,0.0,0.0,0.0,0.0,2.0,1.0,1.0,0.0,0.0,0.0
h106_kernel_seed_expand_c44_a090_64df3d49,1180,168,id07,2024-08-16,2024-08-15,S2,4,0.5898403719175291,0.5917140514685947,7.258983856783807e-06,0.28656,0.5314971428571429,0.1714520571428571,0.7445142857142857,0.6497142857142857,0.351642,1.0,1.0,0,0.0,0.0,0.0,0.0,0.0,0.0,0.0,0.0,0.0,0.0,0.0,0.0544671811234915,0.0153485670582932,0.7314285714285714,0.2891428571428571,0.1788571428571428,0.0,0.0,,-0.6847628571428572,0.5916974343709548,0.0076814081432589,6.489209959825715e-06,0.0076814081432589,0.0,0.0,0.0,0.0455702857142857,0.5988786747045748,1,0.5988786747045748,4.4163290868100857e-08,0.3583885714285715,-0.0256742677986474,0.0054848445337225,0.0005573582661362,0.9753769657384338,0.1668571428571428,0.189348276677796,0.0255140571428571,0.0374895692972698,0.0001692212549501,0.5898403719175291,0.0,0.0,0.0,0.0,0.4542857142857143,0.2202857142857142,0.0,0.9201085714285716,-0.0631638370959172,0.1147069714285714,4.0,3.0,1.0,0.6746987951807228,-0.8901457403773966,-0.4556759384562417,0.15082429716137163,0.9885605855918889,6.0,0.5517241379310345,30.0,0.0,0.0,0.0,0.0,1.0,0.0,0.0,0.0,0.0,0.0,0.0,0.0,0.0,0.0,1.0,1.0,0.0,0.0,0.0,0.0,0.0,0.0,1.0,0.0,1.0,0.0,0.0,0.0,0.19417486857142863,0.0,0.0,0.0,0.0,0.0,0.0,0.0,0.0,0.0,0.0,4.0,1.0,1.0,0.0,0.0,0.0
h106_kernel_seed_expand_c44_a090_64df3d49,1165,166,id07,2024-07-28,2024-07-27,S1,3,0.8205125702353004,0.8072475147185486,0.0005863393644514,0.1458571428571428,0.616657142857143,-0.0481444857142857,0.9175142857142856,0.852,0.1208554285714285,1.0,1.0,1,0.0,0.0,0.0,0.0,0.0,0.0,0.0,0.0,0.0,0.0,0.0,0.0598741763540013,0.0396711927925013,0.7485714285714286,0.4142857142857143,0.1788571428571428,0.0,0.0,,-0.8266800000000001,0.8072463139864761,-0.0876083463719761,0.0005329918530519,0.0876083463719761,0.0,0.0,0.0,-0.1729074285714285,0.822920879374616,1,0.822920879374616,1.1072216029700533e-08,0.2461371428571429,0.0164393630140253,0.0009157950973214,0.0005572789186875,0.9752381077032032,0.1628571428571428,0.2706613997864033,0.0009399999999999,0.0164393630140253,1.9760635650678537e-05,0.8205125702353004,0.0,0.0,0.0,0.0,0.4542857142857143,0.2202857142857142,0.0,0.0,0.0,0.0750274285714285,6.0,5.0,1.0,0.6666666666666666,-0.8660254037844384,-0.5000000000000004,-4.898587196589413e-16,1.0,6.0,0.4827586206896552,30.0,0.0,0.0,0.0,1.0,0.0,0.0,0.0,0.0,0.0,0.0,0.0,0.0,0.0,0.0,0.0,0.0,0.0,0.0,1.0,1.0,0.0,0.0,1.0,0.0,1.0,0.0,0.0,0.0,-0.12126297142857144,0.0,0.0,0.0,0.0,0.0,0.0,0.0,0.0,0.0,0.0,2.0,1.0,1.0,0.0,0.0,0.0
h106_kernel_seed_expand_c44_a090_64df3d49,0,0,id01,2024-07-31,2024-07-30,Q1,0,0.1839999885504578,0.1859798815132273,1.3017998536424267e-05,0.1591257142857143,0.5036571428571429,-0.1510166,0.9116857142857144,0.9942857142857144,0.2134978285714286,1.0,1.0,0,0.0,0.0,0.0,0.0,0.0,0.0,0.0,0.0,0.0,0.0,0.0,0.4499457217892925,0.0,0.9737142857142858,0.0777142857142857,0.1788571428571428,0.0,0.0,,-0.8172142857142858,0.1858619952198355,0.0123532200779004,1.04775064904139e-05,0.0123532200779004,0.0,0.0,0.0,-0.0034667999999999,0.1740280510468655,0,0.8259719489531344,8.340373967629908e-07,0.8519771428571429,-0.1410307038891238,0.0049244316366865,0.0005836784565496,1.0214372989619325,0.8514285714285714,0.2036628993139571,0.4128265142857142,-0.0678656400928148,0.0003359187653473,0.1839999885504578,0.0,0.0,0.0,0.0,0.4542857142857143,0.2202857142857142,0.0,0.9185085714285716,-0.0477935952200724,0.0701917714285714,2.0,1.0,1.0,0.0,0.0,1.0,0.0,1.0,0.0,0.0,27.0,1.0,0.0,0.0,0.0,0.0,0.0,0.0,0.0,0.0,0.0,1.0,1.0,0.0,0.0,0.0,0.0,0.0,0.0,0.0,0.0,0.0,1.0,0.0,1.0,0.0,0.0,0.0,0.0,0.20094849142857155,0.0,0.0,0.0,0.0,0.0,0.0,0.0,0.0,0.0,0.0,144.0,0.0,0.0,0.0,0.0,0.0
h106_kernel_seed_expand_c44_a090_64df3d49,1163,166,id07,2024-07-28,2024-07-27,Q2,1,0.2878381236546914,0.2762224889315308,0.0003318077692083,0.3016057142857142,0.616657142857143,0.2042304571428571,0.6355000000000001,0.1785714285714285,0.0629813714285714,0.0,1.0,1,0.0,0.0,0.0,0.0,0.0,0.0,0.0,0.0,0.0,0.0,0.0,0.0,0.2446929419914872,0.1785714285714285,0.816,0.816,0.0,0.0,,-0.7395114285714286,0.2761892167019579,-0.05753682209176,0.0003038620513836,0.05753682209176,0.0,0.0,0.0,-0.1386115428571428,0.2895931819414545,0,0.7104068180585454,4.335761234363461e-09,0.3344685714285714,0.0085463166072055,0.0031092194349588,0.0005729188457616,1.0026079800829582,0.7057142857142857,0.3521427102951141,0.4352298285714285,0.0085463166072052,7.504155941195911e-06,0.2878381236546914,0.0,0.0,0.0,0.0,0.4542857142857143,0.2202857142857142,0.0,0.0,0.0,0.0915801142857142,6.0,5.0,1.0,0.6666666666666666,-0.8660254037844384,-0.5000000000000004,-4.898587196589413e-16,1.0,6.0,0.4827586206896552,30.0,0.0,1.0,0.0,0.0,0.0,0.0,0.0,0.0,0.0,0.0,0.0,0.0,0.0,0.0,0.0,0.0,0.0,0.0,1.0,1.0,0.0,1.0,0.0,0.0,0.0,0.0,0.0,0.0,0.1426922971428572,0.0,0.0,0.0,0.0,0.0,0.0,0.0,0.0,0.0,0.0,2.0,1.0,1.0,0.0,0.0,0.0
h106_kernel_seed_expand_c44_a090_64df3d49,1162,166,id07,2024-07-28,2024-07-27,Q1,0,0.6603015989224541,0.6646797785828436,4.281888396173717e-05,0.2981142857142857,0.616657142857143,0.0687659714285715,0.8675714285714287,0.8182857142857143,0.1401817142857142,1.0,1.0,1,0.0,0.0,0.0,0.0,0.0,0.0,0.0,0.0,0.0,0.0,0.0,0.049038024357768,0.1363179993983213,0.7194285714285714,0.6468571428571429,0.5645714285714286,0.0,0.0,,-0.7704742857142858,0.6647179026028602,0.0197519543694679,3.965337031752725e-05,0.0197519543694679,0.0,0.0,0.0,-0.2891311428571428,0.6746298727098902,1,0.6746298727098902,2.576884042411952e-07,0.48344,0.0645622858087272,0.0005754672633231,0.0005545690217737,0.9704957881040294,0.1365714285714285,0.5453255325907687,-0.0351834285714285,0.0645622858087272,0.0004608658964663,0.6603015989224541,0.0,0.0,0.0,0.0,0.4542857142857143,0.2202857142857142,0.0,0.0,0.0,-0.0364274285714285,6.0,5.0,1.0,0.6666666666666666,-0.8660254037844384,-0.5000000000000004,-4.898587196589413e-16,1.0,6.0,0.4827586206896552,30.0,1.0,0.0,0.0,0.0,0.0,0.0,0.0,0.0,0.0,0.0,0.0,0.0,0.0,0.0,0.0,0.0,0.0,0.0,1.0,1.0,0.0,1.0,0.0,1.0,0.0,0.0,0.0,0.0,-0.07299702857142856,0.0,0.0,0.0,0.0,0.0,0.0,0.0,0.0,0.0,0.0,2.0,1.0,1.0,0.0,0.0,0.0
h106_kernel_seed_expand_c44_a090_64df3d49,1130,161,id07,2024-07-23,2024-07-22,S1,3,0.6759591193035365,0.6791750512648661,2.3649185079688273e-05,0.2596514285714285,0.4408971428571428,0.27019,0.3976285714285714,0.3857142857142857,0.2948674285714285,0.0,1.0,0,2.0,1.7425793721668,1.0,1.0,0.0147203414623585,-1.4960359509056562e-08,-2.3649185079688273e-05,0.0,1.0,0.0,0.0,0.001158437527098,0.0613633612599628,0.3834285714285714,0.48,0.5074285714285715,0.0,0.0,,0.40998,0.679181846381247,0.0147515267294727,2.161449990734088e-05,0.0147515267294727,0.0,0.0,1.0,0.2172913142857143,0.6742482878916282,1,0.6742482878916282,3.734209506998404e-09,0.2319885714285714,-0.0077999661388026,0.0024513652672408,0.0005647994919179,0.9883991108563878,0.3525714285714286,0.3419368161449438,0.2526021714285714,-0.0077999661388026,6.675251189025566e-06,0.6768471089357344,0.0040569361044072,1.0,-1.1272709542486936e-05,0.0,0.4542857142857143,0.4674285714285714,0.465,0.0,0.0,0.0664229714285714,1.0,0.0,1.0,0.6465863453815262,-0.7962246914382439,-0.605001025407456,-0.36953183094075664,0.9292180723175653,6.0,0.3103448275862069,30.0,0.0,0.0,0.0,1.0,0.0,0.0,0.0,0.0,1.0,1.0,0.0,0.0,0.0,0.0,0.0,0.0,0.0,0.0,0.0,0.0,0.0,0.0,1.0,0.0,1.0,0.0,0.0,0.0,0.12322801142857143,0.0,0.0,0.0,0.0,0.0,0.0,0.0,0.0,0.0,0.0,3.0,1.0,1.0,0.0,0.0,0.0
h106_kernel_seed_expand_c44_a090_64df3d49,1129,161,id07,2024-07-23,2024-07-22,Q3,2,0.4822015382383871,0.4932858406766353,0.0002459259275361,0.4375828571428571,0.4408971428571428,0.3487933142857143,0.3761714285714286,0.4228571428571429,0.3980662857142856,1.0,1.0,0,7.0,6.604305936875679,3.0,1.0,0.0450097184019205,-1.7012969944722984e-07,-0.0002455759672594,1.0,1.0,1.0,0.0,0.0032045432239707,0.0825037212698365,0.4125714285714286,0.5285714285714286,0.5462857142857143,0.0,0.0,,0.5855657142857142,0.493287294015751,0.0443715034855151,0.0002238465438686,0.0443715034855151,0.0,0.0,1.0,0.4095624,0.4994036167547339,1,0.5005963832452661,3.330881013248758e-07,0.5290971428571428,0.0688384066972329,0.0017985006799611,0.0005756928578256,1.0074625011948355,0.7588571428571429,0.4149823030401752,0.5691196571428572,0.0688384066972329,0.0005922068142928,0.4964734822988005,0.0571176360941975,1.0,-0.0002256850626555,0.0,0.4542857142857143,0.7034285714285714,0.5636571428571429,0.0,0.0,0.207632457142857,1.0,0.0,1.0,0.6465863453815262,-0.7962246914382439,-0.605001025407456,-0.36953183094075664,0.9292180723175653,6.0,0.3103448275862069,30.0,0.0,0.0,1.0,0.0,0.0,0.0,0.0,0.0,1.0,1.0,0.0,0.0,0.0,0.0,0.0,0.0,0.0,0.0,0.0,0.0,0.0,1.0,0.0,1.0,0.0,0.0,0.0,0.0,0.24879753142857144,0.0,0.0,0.0,0.0,0.0,0.0,0.0,0.0,0.0,0.0,3.0,1.0,1.0,0.0,0.0,0.0
h106_kernel_seed_expand_c44_a090_64df3d49,1128,161,id07,2024-07-23,2024-07-22,Q2,1,0.3265602941958641,0.3211516802177298,6.670034846900652e-05,0.2193257142857143,0.4408971428571428,0.1520624571428571,0.4347714285714286,0.388,0.1279113142857143,1.0,1.0,0,2.0,1.7425793721668,1.0,1.0,-0.0247003111685848,-1.2301657681288432e-08,-6.670034846900652e-05,0.0,1.0,0.0,0.0,0.0012762766737201,0.2291802401379845,0.3857142857142857,0.7931428571428571,0.7942857142857143,0.0,0.0,,0.3882314285714286,0.3211233383922647,-0.024830314646683,6.134848949790328e-05,0.024830314646683,0.0,0.0,1.0,0.2850146857142857,0.3074236332768366,1,0.6925763667231635,4.846606144489992e-07,0.7805828571428571,-0.0884079312899298,0.0049657986236889,0.0005715989601804,1.0002981803157325,0.6777142857142857,0.3434180001015602,0.5060259428571428,-0.0884079312899298,0.0008413532235432,0.3265602941958641,0.0,0.0,0.0,0.0,0.4542857142857143,0.2202857142857142,0.0,0.0,0.0,0.2641638857142857,1.0,0.0,1.0,0.6465863453815262,-0.7962246914382439,-0.605001025407456,-0.36953183094075664,0.9292180723175653,6.0,0.3103448275862069,30.0,0.0,1.0,0.0,0.0,0.0,0.0,0.0,0.0,1.0,1.0,0.0,0.0,0.0,0.0,0.0,0.0,0.0,0.0,0.0,0.0,0.0,1.0,0.0,0.0,0.0,0.0,0.0,0.0,0.2805592457142858,0.0,0.0,0.0,0.0,0.0,0.0,0.0,0.0,0.0,0.0,3.0,1.0,1.0,0.0,0.0,0.0
h106_kernel_seed_expand_c44_a090_64df3d49,1127,161,id07,2024-07-23,2024-07-22,Q1,0,0.2924573499947055,0.284803587614213,0.0001422851638951,0.3640285714285713,0.4408971428571428,0.3957287428571428,0.2719,0.1785714285714285,0.3450157714285714,1.0,1.0,0,7.0,6.604305936875679,3.0,1.0,-0.0378195118623776,-6.76314505490545e-08,-0.0001420839253384,1.0,1.0,1.0,0.0,0.0,0.2151902378590627,0.1785714285714285,0.78,0.7805714285714286,0.0,0.0,,0.6131342857142856,0.2847603169958085,-0.0374908077293455,0.0001309997644174,0.0374908077293455,0.0,0.0,1.0,0.4114203428571428,0.2812736723428918,0,0.7187263276571081,1.649232827649986e-07,0.4674971428571429,-0.0546734714915689,0.0020343609261812,0.0005748636559556,1.0060113979223966,0.7451428571428571,0.4892730619016366,0.5890988571428571,-0.0546734714915693,0.0003045376359602,0.2828191060452031,-0.0470415432527393,1.0,-0.0001346264410402,0.0,0.4542857142857143,0.6617142857142857,0.5435142857142857,0.0,0.0,0.2133859428571428,1.0,0.0,1.0,0.6465863453815262,-0.7962246914382439,-0.605001025407456,-0.36953183094075664,0.9292180723175653,6.0,0.3103448275862069,30.0,1.0,0.0,0.0,0.0,0.0,0.0,0.0,0.0,1.0,1.0,0.0,0.0,0.0,0.0,0.0,0.0,0.0,0.0,0.0,0.0,0.0,1.0,0.0,1.0,0.0,0.0,0.0,0.0,0.11343288000000001,0.0,0.0,0.0,0.0,0.0,0.0,0.0,0.0,0.0,0.0,3.0,1.0,1.0,0.0,0.0,0.0
h106_kernel_seed_expand_c44_a090_64df3d49,1126,160,id07,2024-07-22,2024-07-21,S4,6,0.6001110938525364,0.6164696563714561,0.0005602164545412,0.6381028571428572,0.3448171428571429,0.2916794857142857,0.3743142857142857,0.6205714285714286,0.568495542857143,1.0,1.0,0,15.0,14.1017354165084,3.0,1.0,0.0712578189634365,-8.787691839989822e-07,-0.0005541912151908,1.0,1.0,1.0,0.0,0.0285951895035255,0.0301227269146048,0.6354285714285715,0.3697142857142857,0.3611428571428571,0.0,0.0,,0.6047657142857142,0.6164780209559566,0.068697719160314,0.0005104996157172,0.068697719160314,1.0,0.0,1.0,0.5038481714285714,0.5927673148479011,0,0.5927673148479011,6.364462380297304e-08,0.36688,-0.0305108151011983,0.0019042189446885,0.0005625751111369,0.9845064444896128,0.2685714285714285,0.1690875248311592,0.3260940571428571,-0.0305108151011983,0.0001121422276637,0.6073462431849552,0.0302428273237781,1.0,-0.0003854620573486,0.0,0.4542857142857143,0.5908571428571429,0.5371714285714286,0.0,0.0,0.3275601142857142,0.0,6.0,1.0,0.642570281124498,-0.7807064317219091,-0.6248979656456276,-0.43874910597176575,0.8986096048946819,6.0,0.27586206896551724,30.0,0.0,0.0,0.0,0.0,0.0,0.0,1.0,1.0,0.0,0.0,0.0,0.0,0.0,0.0,0.0,0.0,0.0,0.0,0.0,0.0,1.0,0.0,1.0,0.0,1.0,0.0,0.0,0.0,0.21837258285714287,0.0,0.0,0.0,0.0,0.0,0.0,0.0,0.0,0.0,0.0,4.0,1.0,1.0,0.0,0.0,0.0
h106_kernel_seed_expand_c44_a090_64df3d49,1125,160,id07,2024-07-22,2024-07-21,S3,5,0.7873493704769046,0.7849368745331005,1.7333092482751944e-05,0.1707885714285714,0.3448171428571429,0.1449756,0.4488285714285714,0.4205714285714286,0.2766774857142857,1.0,1.0,0,6.0,4.08543225768272,1.0,1.0,-0.0143497866671233,2.6992843788274386e-08,-1.733309248275194e-05,0.0,1.0,0.0,0.0,0.0076770623269129,0.0863610808594576,0.4702857142857143,0.536,0.5428571428571428,0.0,0.0,,0.2928714285714285,0.7849411466594841,-0.0143244793248364,1.5714407383349283e-05,0.0143244793248364,0.0,1.0,1.0,0.2556801714285714,0.7764553881817003,1,0.7764553881817003,1.9631147657639385e-07,0.5426857142857143,-0.0638933058382575,0.0016404192628637,0.0005630085485411,0.98526495994708,0.2845714285714286,0.0707069012568237,0.1780163428571428,-0.0638933058382575,0.0003501159320429,0.780518390153392,-0.0403316400437092,1.0,4.009886447098321e-05,4.009886447098321e-05,0.948,0.6365714285714286,0.7969714285714286,0.0,0.0,-0.0177398857142857,0.0,6.0,1.0,0.642570281124498,-0.7807064317219091,-0.6248979656456276,-0.43874910597176575,0.8986096048946819,6.0,0.27586206896551724,30.0,0.0,0.0,0.0,0.0,0.0,1.0,0.0,1.0,0.0,0.0,0.0,0.0,0.0,0.0,0.0,0.0,0.0,0.0,0.0,0.0,1.0,0.0,1.0,0.0,1.0,0.0,0.0,0.0,0.27849801142857145,0.0,0.0,0.0,0.0,0.0,0.0,0.0,0.0,0.0,0.0,4.0,1.0,1.0,0.0,0.0,0.0
h106_kernel_seed_expand_c44_a090_64df3d49,1124,160,id07,2024-07-22,2024-07-21,S2,4,0.7302171983665348,0.717620684386029,0.0003988783726533,0.5922857142857143,0.3448171428571429,0.3418689714285715,0.2844285714285714,0.5474285714285714,0.549168,1.0,1.0,0,18.0,15.696127977510322,3.0,1.0,-0.0651756697121552,-5.602531333928754e-07,-0.0003949602355109,1.0,1.0,1.0,0.0,0.0110671709417821,0.1969701525244909,0.5074285714285715,0.7582857142857143,0.7388571428571429,0.0,0.0,,0.6434114285714285,0.7175904343012016,-0.0631842224152142,0.0003644807027815,0.0631842224152142,1.0,0.0,1.0,0.504611942857143,0.7059606158085532,1,0.7059606158085532,8.145081695820332e-07,0.744,-0.119879092266145,0.0045547680286136,0.0005799088318485,1.0148404557349409,0.8211428571428572,0.5460249735423365,0.6543502857142859,-0.119879092266145,0.0014666035333307,0.7105558313834544,-0.0976397240595297,1.0,-0.0002798950319856,0.0,0.4542857142857143,0.8314285714285714,0.6048857142857144,0.0,0.0,0.3098220571428571,0.0,6.0,1.0,0.642570281124498,-0.7807064317219091,-0.6248979656456276,-0.43874910597176575,0.8986096048946819,6.0,0.27586206896551724,30.0,0.0,0.0,0.0,0.0,1.0,0.0,0.0,1.0,0.0,0.0,0.0,0.0,0.0,0.0,0.0,0.0,0.0,0.0,0.0,0.0,1.0,0.0,1.0,0.0,1.0,0.0,0.0,0.0,0.21310734857142857,0.0,0.0,0.0,0.0,0.0,0.0,0.0,0.0,0.0,0.0,4.0,1.0,1.0,0.0,0.0,0.0
h106_kernel_seed_expand_c44_a090_64df3d49,1123,160,id07,2024-07-22,2024-07-21,S1,3,0.8683793927817264,0.8768686255452399,0.0003212120887838,0.5856971428571428,0.3448171428571429,0.4576181142857142,0.1632428571428571,0.1785714285714285,0.5313908571428572,1.0,1.0,0,19.0,16.192323443285442,3.0,1.0,0.0789153076373011,-5.536956496989033e-07,-0.0003182510744502,1.0,1.0,1.0,0.0,0.0,0.2108811485247577,0.1785714285714285,0.7731428571428571,0.7742857142857142,0.0,0.0,,0.7076428571428571,0.8769011387189393,0.076701365380696,0.0002949578830326,0.076701365380696,1.0,0.0,1.0,0.5588954285714286,0.8786886014391222,1,0.8786886014391222,2.669228031204287e-07,0.6836000000000001,0.0933646776237857,0.0028093592721012,0.0005741739426562,1.0048043996484577,0.732,0.6372827449699376,0.6503825142857144,0.0933646776237857,0.0004756631023281,0.8786228697768366,0.0927481725955681,1.0,-0.0003098589410749,0.0,0.4542857142857143,0.816,0.6019714285714286,0.0,0.0,0.3602005714285713,0.0,6.0,1.0,0.642570281124498,-0.7807064317219091,-0.6248979656456276,-0.43874910597176575,0.8986096048946819,6.0,0.27586206896551724,30.0,0.0,0.0,0.0,1.0,0.0,0.0,0.0,1.0,0.0,0.0,0.0,0.0,0.0,0.0,0.0,0.0,0.0,0.0,0.0,0.0,1.0,0.0,1.0,0.0,1.0,0.0,0.0,0.0,0.16723434285714286,0.0,0.0,0.0,0.0,0.0,0.0,0.0,0.0,0.0,0.0,4.0,1.0,1.0,0.0,0.0,0.0
h106_kernel_seed_expand_c44_a090_64df3d49,1122,160,id07,2024-07-22,2024-07-21,Q3,2,0.5483114560994912,0.5738251754853934,0.0013191342030502,0.58804,0.3448171428571429,0.4625653142857143,0.2056428571428571,0.1785714285714285,0.531316,1.0,0.0,0,20.0,17.52496284820544,3.0,1.0,0.1067764649857001,-4.3261756567894707e-07,-0.0013077121621902,1.0,1.0,1.0,0.0,0.0,0.2099582167292024,0.1785714285714285,0.772,0.7731428571428571,0.0,0.0,,0.7214142857142857,0.573851448532278,0.103731968617879,0.0012032685110909,0.103731968617879,1.0,0.0,1.0,0.6400457142857143,0.5571032036096399,0,0.5571032036096399,9.022981604376789e-08,0.4069257142857143,0.0355631339836695,0.0019563506137577,0.0006171250466981,1.079968831721707,0.9291428571428572,0.3150306707225828,0.8045493714285714,0.0355631339836695,0.0001562333656678,0.5681390008903715,0.0804117376202515,1.0,-0.0012552871071375,0.0,0.4542857142857143,0.7828571428571428,0.6140571428571429,0.0,0.0,0.4349565714285714,0.0,6.0,1.0,0.642570281124498,-0.7807064317219091,-0.6248979656456276,-0.43874910597176575,0.8986096048946819,6.0,0.27586206896551724,30.0,0.0,0.0,1.0,0.0,0.0,0.0,0.0,1.0,0.0,0.0,0.0,0.0,0.0,0.0,0.0,0.0,0.0,0.0,0.0,0.0,1.0,1.0,0.0,1.0,0.0,0.0,0.0,0.0,0.36958994285714286,0.0,0.0,0.0,0.0,0.0,0.0,0.0,0.0,0.0,0.0,4.0,1.0,1.0,0.0,0.0,0.0
