kbsooo/etri/hitl/h106_route_consensus_kernel_expansion_hsjepa/h106_selected_cells.csv
candidate_id,flat_index,row,subject_id,sleep_date,lifelog_date,target,target_index,h057_prob,q061,cell_q061_gain,public_score,invariant_score,private_safe_score,latent_shortcut_energy,bad_pressure_rank,h068_cell_health,outside_h069_cell,outside_h070_cell,is_h050_null,source_count,source_weight,source_family_count,source_consensus,source_mean_move,source_action_delta,source_posterior_delta,hit_h071,hit_h074,hit_h076,hit_h079,h080_bad_same_raw,h080_bad_opp_raw,h080_bad_same_rank,h080_bad_opp_rank,h080_bad_margin_rank,h079_cell,h079_row,h079_role,h080_cell_score,h085_q,h085_q_move,h085_q_gain,h085_abs_q_move,h082_cell,h084_dark_cell,source_agrees_h085,h085_cell_score,q_hard,best_world_y,confidence,hard_gain,combined_score,hard_logit_delta,binary_shock,h086_resp_weight,h086_resp_lift,h086_resp_rank,h086_equation_alignment,h086_resp_action_score,hard_logit_move,hard_diag_gain,h088_prob,h088_logit_move,h088_active,h088_q_delta,h088_q_bad,h088_bad_rank,h088_move_abs_rank,h088_toxicity,h057_positive_weight,h057_positive_logit_move,h095_safe_cell_score,sleep_dow,lifelog_dow,date_gap_days,row_norm,row_sin1,row_cos1,row_sin3,row_cos3,subject_idx,within_subject_norm,subject_block_size,target_Q1,target_Q2,target_Q3,target_S1,target_S2,target_S3,target_S4,sleep_dow_0,lifelog_dow_0,sleep_dow_1,lifelog_dow_1,sleep_dow_2,lifelog_dow_2,sleep_dow_3,lifelog_dow_3,sleep_dow_4,lifelog_dow_4,sleep_dow_5,lifelog_dow_5,sleep_dow_6,lifelog_dow_6,is_q,is_s,is_subjective_quality,is_objective_stage,h057_h088_anti_conflict,h057_h088_same_conflict,conflict_strength,h098_frontier_cell_score,h106_vote_sum,h106_vote_abs,h106_vote_weight,h106_vote_count,h106_vote_consensus,h106_pos_count,h106_neg_count,h106_max_abs_component,h106_move,h106_seed_row,h106_seed_distance,h106_seed_neighbor,h106_seed_subject,h106_anti_h088,h106_align_h057,h106_score,h097_move_col
h106_kernel_seed_expand_c44_a090_64df3d49,945,135,id06,2024-07-14,2024-07-13,Q1,0,0.3265168623517541,0.332467224835243,8.025667657762803e-05,0.3744571428571428,0.4153771428571429,-0.0994901714285714,0.9742571428571428,0.9685714285714284,0.3800493714285714,0.0,1.0,0,0.0,0.0,0.0,0.0,0.0,0.0,0.0,0.0,0.0,0.0,0.0,0.5725434492673942,0.0,0.9817142857142858,0.0777142857142857,0.1788571428571428,0.0,0.0,,-0.8262657142857144,0.3323169909206154,0.0262571471809444,6.938334396489054e-05,0.0262571471809444,0.0,0.0,0.0,0.0315527428571428,0.344659554634995,1,0.655340445365005,9.866239582278026e-07,0.6901028571428571,-0.123946419174583,0.0014640261314393,0.0003771091657354,0.6599410400369783,0.0062857142857142,0.7984103847618609,-0.0157502857142857,0.081383632605916,0.0007415524517681,0.335027405247487,0.0384478717404617,1.0,-5.975131469893036e-05,0.0,0.4542857142857143,0.6268571428571429,0.5252571428571429,0.9829828571428572,-0.1743681471515381,-0.0398052571428571,6.0,5.0,1.0,0.5421686746987951,-0.2618644849608063,-0.9651046531419334,-0.7137661126871386,-0.7003841348713511,5.0,0.30434782608695654,24.0,1.0,0.0,0.0,0.0,0.0,0.0,0.0,0.0,0.0,0.0,0.0,0.0,0.0,0.0,0.0,0.0,0.0,0.0,1.0,1.0,0.0,1.0,0.0,1.0,0.0,1.0,0.0,0.5163187670204081,0.42969570285714287,-1.5412246785276373,1.5412246785276373,5.808110867929352,6.0,0.9999999999993511,0.0,6.0,0.3536,-0.2388215793768328,0.0,9.0,0.0,1.0,1.0,1.0,1.3567254155416113,h106_move
h106_kernel_seed_expand_c44_a090_64df3d49,947,135,id06,2024-07-14,2024-07-13,Q3,2,0.8233562803446187,0.8211995281478749,1.5940535035174896e-05,0.2876571428571428,0.4153771428571429,-0.0838771142857143,0.9258,0.964,0.3306977142857142,1.0,1.0,0,0.0,0.0,0.0,0.0,0.0,0.0,0.0,0.0,0.0,0.0,0.0,0.2445756176535394,0.0,0.9285714285714286,0.0777142857142857,0.1788571428571428,0.0,0.0,,-0.7948314285714286,0.8212701536208874,-0.0142775087436182,1.3569943485169931e-05,0.0142775087436182,0.0,0.0,0.0,0.0141144571428571,0.8135768926925118,0,0.8135768926925118,6.984182582356931e-08,0.3558057142857143,0.0404020375392994,0.0006730519548812,0.0005742784329964,1.0049872577438463,0.7342857142857143,0.3838669842879127,0.360628,-0.0658326085220084,0.0003241510323629,0.8192405880794565,-0.0280433228436189,1.0,-9.664076740523164e-07,0.0,0.4542857142857143,0.5822857142857143,0.4927714285714286,0.93888,0.1062346460613079,-0.0398117714285714,6.0,5.0,1.0,0.5421686746987951,-0.2618644849608063,-0.9651046531419334,-0.7137661126871386,-0.7003841348713511,5.0,0.30434782608695654,24.0,0.0,0.0,1.0,0.0,0.0,0.0,0.0,0.0,0.0,0.0,0.0,0.0,0.0,0.0,0.0,0.0,0.0,0.0,1.0,1.0,0.0,1.0,0.0,1.0,0.0,1.0,0.0,0.4626532388571429,0.4524815657142857,1.5724984260863273,1.5724984260863273,6.80236941188132,7.0,0.9999999999993641,7.0,0.0,0.3179282648503024,0.20805229733709413,0.0,9.0,0.0,1.0,1.0,1.0,1.2598944250123862,h106_move
h106_kernel_seed_expand_c44_a090_64df3d49,948,135,id06,2024-07-14,2024-07-13,S1,3,0.9734003575300472,0.973869257464141,4.27031754200724e-06,0.2894857142857143,0.4153771428571429,0.3433262285714286,0.4297285714285715,0.1785714285714285,0.3458441142857142,1.0,1.0,0,2.0,1.93657810305736,1.0,1.0,0.0182668759527704,-6.783755927062974e-09,-4.27031754200724e-06,1.0,0.0,0.0,0.0,0.0,0.6721905000622236,0.1785714285714285,0.9554285714285714,0.9554285714285714,0.0,0.0,,0.5057228571428571,0.974056188023359,0.0256381782046499,7.623804536976975e-06,0.0256381782046499,1.0,0.0,1.0,0.3323978857142857,0.980817671875396,1,0.980817671875396,7.548363998751178e-07,0.7854285714285714,0.3446132577608978,0.0004295859545019,0.0005796575197187,1.0144006595078832,0.816,0.6653164722172068,0.6087560000000001,0.3344994478363832,0.0011746399717037,0.9765267673632434,0.1282437362729367,1.0,0.000120434605223,0.000120434605223,0.9697142857142858,0.8891428571428571,0.8942,0.8769542857142857,0.0101138099245203,0.1683793142857143,6.0,5.0,1.0,0.5421686746987951,-0.2618644849608063,-0.9651046531419334,-0.7137661126871386,-0.7003841348713511,5.0,0.30434782608695654,24.0,0.0,0.0,0.0,1.0,0.0,0.0,0.0,0.0,0.0,0.0,0.0,0.0,0.0,0.0,0.0,0.0,0.0,0.0,1.0,1.0,0.0,0.0,1.0,0.0,1.0,0.0,1.0,0.0,0.4472482171428571,-0.11986594223221869,0.11986594223221869,0.886584014171012,1.0,0.9999999999916573,0.0,1.0,0.13519975582268723,-0.12167978024028127,0.0,9.0,0.0,1.0,1.0,0.0,0.23565531865792608,h106_move
h106_kernel_seed_expand_c44_a090_64df3d49,949,135,id06,2024-07-14,2024-07-13,S2,4,0.9120002370412033,0.9128559625035724,4.575502052239777e-06,0.3906628571428571,0.4153771428571429,0.2220676,0.6870285714285714,0.6325714285714286,0.400656,0.0,1.0,0,0.0,0.0,0.0,0.0,0.0,0.0,0.0,0.0,0.0,0.0,0.0,0.0306072182800029,0.0387905347810696,0.6485714285714286,0.4114285714285714,0.3845714285714285,0.0,0.0,,-0.6916942857142857,0.9128484616979826,0.0106153362211465,4.091754492618893e-06,0.0106153362211465,0.0,0.0,0.0,0.0204137714285714,0.9250982584531292,1,0.9250982584531292,2.2462660630838865e-07,0.7114057142857144,0.1055641087159346,0.0028894661390598,0.0005657735831001,0.9901037704252228,0.4017142857142857,0.1604154161182626,0.1480686857142857,0.1754166861823174,0.0011206919463118,0.916900949362351,0.062660043836634,1.0,0.0001017187385513,0.0001017187385513,0.9645714285714284,0.7251428571428571,0.8401142857142857,0.9117314285714286,-0.0698525774663827,-0.1410235428571428,6.0,5.0,1.0,0.5421686746987951,-0.2618644849608063,-0.9651046531419334,-0.7137661126871386,-0.7003841348713511,5.0,0.30434782608695654,24.0,0.0,0.0,0.0,0.0,1.0,0.0,0.0,0.0,0.0,0.0,0.0,0.0,0.0,0.0,0.0,0.0,0.0,0.0,1.0,1.0,0.0,0.0,1.0,0.0,1.0,1.0,0.0,0.765958597877551,0.5573068457142858,-0.7292503721499536,0.7292503721499536,3.8199321027852746,4.0,0.9999999999986288,0.0,4.0,0.22685691824016388,-0.17181596878547442,0.0,9.0,0.0,1.0,1.0,1.0,0.8644638895567293,h106_move
h106_kernel_seed_expand_c44_a090_64df3d49,951,135,id06,2024-07-14,2024-07-13,S4,6,0.8326790220313127,0.833879711711521,5.183653563278767e-06,0.2921257142857143,0.4153771428571429,-0.1112793428571428,0.8874,0.9285714285714286,0.3429414857142857,1.0,1.0,0,0.0,0.0,0.0,0.0,0.0,0.0,0.0,0.0,0.0,0.0,0.0,0.3617674279706701,0.0,0.9582857142857144,0.0777142857142857,0.1788571428571428,0.0,0.0,,-0.7936942857142857,0.8337650677901544,0.0078153785157646,3.859087214619361e-06,0.0078153785157646,0.0,0.0,0.0,-0.0153674857142856,0.8312358502886998,1,0.8312358502886998,3.840924880026521e-07,0.6961371428571429,-0.0989839981964375,0.0011361898931917,0.0005810148178281,1.016775931199321,0.8325714285714285,0.5783184363674189,0.3844385142857142,-0.010322855520866,7.457335124527731e-06,0.8329793279449548,0.0021569871909787,1.0,-2.0186312811865115e-06,0.0,0.4542857142857143,0.4594285714285714,0.4581428571428572,0.9290628571428572,-0.0886611426755714,-0.0597717714285714,6.0,5.0,1.0,0.5421686746987951,-0.2618644849608063,-0.9651046531419334,-0.7137661126871386,-0.7003841348713511,5.0,0.30434782608695654,24.0,0.0,0.0,0.0,0.0,0.0,0.0,1.0,0.0,0.0,0.0,0.0,0.0,0.0,0.0,0.0,0.0,0.0,0.0,1.0,1.0,0.0,0.0,1.0,0.0,1.0,1.0,0.0,0.42564351183673477,0.4147663657142857,-0.8529659984074138,0.8529659984074138,3.890075406904872,4.0,0.9999999999988276,0.0,4.0,0.2768576546782779,-0.19734049298989534,0.0,9.0,0.0,1.0,1.0,1.0,0.9636941348282702,h106_move
h106_kernel_seed_expand_c44_a090_64df3d49,958,136,id06,2024-07-16,2024-07-15,S4,6,0.8793211893789878,0.8800493904202091,2.5029338155957426e-06,0.3645828571428571,0.5588971428571429,0.1084819428571429,0.7967428571428572,0.7268571428571429,0.3787347428571428,1.0,1.0,0,0.0,0.0,0.0,0.0,0.0,0.0,0.0,0.0,0.0,0.0,0.0,0.1594115670323823,0.0,0.8822857142857143,0.0777142857142857,0.1788571428571428,0.0,0.0,,-0.7095342857142858,0.8799999511198453,0.0064120263061722,1.9788838113155016e-06,0.0064120263061722,0.0,0.0,0.0,0.0212581142857142,0.8834973597348148,1,0.8834973597348148,8.471331549768475e-09,0.3511542857142857,-0.0171551486596812,0.0031343608795367,0.0005683629451615,0.9946351540327674,0.5531428571428572,0.5888697722476787,0.1944567999999999,0.039956691866398,8.300913775149965e-05,0.8807134130136618,0.0131857083159114,1.0,2.441039736456041e-07,2.441039736456041e-07,0.9085714285714286,0.5165714285714286,0.7216285714285715,0.9087942857142858,-0.0571118405260793,-0.0966108571428571,1.0,0.0,1.0,0.5461847389558233,-0.2861316735085688,-0.9581903075147368,-0.7646910926171749,-0.6443970304648767,5.0,0.34782608695652173,24.0,0.0,0.0,0.0,0.0,0.0,0.0,1.0,0.0,1.0,1.0,0.0,0.0,0.0,0.0,0.0,0.0,0.0,0.0,0.0,0.0,0.0,0.0,1.0,0.0,1.0,1.0,0.0,0.6558119221224491,0.47814422857142863,-2.3393413061555672,2.3393413061555672,14.774026075731031,15.0,0.9999999999995725,0.0,15.0,0.1896535594502595,-0.1425073412452124,0.0,8.0,1.0,1.0,1.0,1.0,1.1914225694001388,h106_move
h106_kernel_seed_expand_c44_a090_64df3d49,975,139,id06,2024-07-19,2024-07-18,Q3,2,0.7439595438752091,0.7399677023608381,4.16859280448767e-05,0.3280228571428571,0.5280971428571429,-0.0332376571428571,0.9586285714285714,0.9811428571428572,0.3647565714285714,0.0,1.0,0,0.0,0.0,0.0,0.0,0.0,0.0,0.0,0.0,0.0,0.0,0.0,0.3736466735880533,0.0,0.9617142857142856,0.0777142857142857,0.1788571428571428,0.0,0.0,,-0.8055971428571429,0.7400840689307989,-0.020245643390468,3.5750219449570686e-05,0.020245643390468,0.0,0.0,0.0,0.0240670285714286,0.7314817680775492,1,0.7314817680775492,5.469611738723606e-07,0.7339085714285715,0.0994963433248757,0.0056064356772304,0.0005687243082713,0.9952675394748086,0.5782857142857143,0.415144879432044,0.2598524571428571,-0.0644977115049467,0.0004044507406137,0.7354432689956294,-0.0442335008621266,1.0,1.6260783992305683e-05,1.6260783992305683e-05,0.9297142857142856,0.6497142857142857,0.784,0.973,0.1639940548298225,-0.1154598857142857,4.0,3.0,1.0,0.5582329317269076,-0.3577789366275639,-0.9338063142352645,-0.8901457403773956,-0.4556759384562435,5.0,0.4782608695652174,24.0,0.0,0.0,1.0,0.0,0.0,0.0,0.0,0.0,0.0,0.0,0.0,0.0,0.0,0.0,1.0,1.0,0.0,0.0,0.0,0.0,0.0,1.0,0.0,1.0,0.0,1.0,0.0,0.7628320000000001,0.44296686857142864,0.271286678673206,0.271286678673206,2.971552713505406,3.0,0.999999999996314,3.0,0.0,0.10628115668614298,0.08216512858618655,0.0,5.0,1.0,1.0,1.0,1.0,0.3865324136021687,h106_move
h106_kernel_seed_expand_c44_a090_64df3d49,979,139,id06,2024-07-19,2024-07-18,S4,6,0.8268174475003207,0.8280647752584297,5.443071396993293e-06,0.2987828571428571,0.5280971428571429,-0.0621637714285713,0.8908857142857144,0.8897142857142857,0.3496909714285714,1.0,1.0,0,0.0,0.0,0.0,0.0,0.0,0.0,0.0,0.0,0.0,0.0,0.0,0.3410531498239687,0.0,0.9548571428571428,0.0777142857142857,0.1788571428571428,0.0,0.0,,-0.7669400000000001,0.8279578930664663,0.0079853695822413,4.14051900110568e-06,0.0079853695822413,0.0,0.0,0.0,0.0013515428571428,0.8320067417020486,0,0.8320067417020486,8.242813150596908e-08,0.4974857142857143,-0.0463207552654163,0.0051338467753729,0.0005824135970977,1.0192237949209952,0.8422857142857143,0.7491083425639209,0.3983379428571428,0.0366790192570158,9.478581098798512e-05,0.8300902641257938,0.0230294411245872,1.0,1.1516764712005134e-05,1.1516764712005134e-05,0.9228571428571428,0.5622857142857143,0.7513428571428572,0.9256342857142856,-0.0829997745224322,-0.1207928,4.0,3.0,1.0,0.5582329317269076,-0.3577789366275639,-0.9338063142352645,-0.8901457403773956,-0.4556759384562435,5.0,0.4782608695652174,24.0,0.0,0.0,0.0,0.0,0.0,0.0,1.0,0.0,0.0,0.0,0.0,0.0,0.0,0.0,1.0,1.0,0.0,0.0,0.0,0.0,0.0,0.0,1.0,0.0,1.0,1.0,0.0,0.6954687088979592,0.4912916914285715,-0.9618554028678765,0.9618554028678765,4.892636124094599,5.0,0.9999999999989604,0.0,5.0,0.26245316145770603,-0.17693321976628854,0.0,5.0,1.0,1.0,1.0,1.0,1.0155945122727397,h106_move
h106_kernel_seed_expand_c44_a090_64df3d49,1001,143,id06,2024-08-13,2024-08-12,Q1,0,0.2092269005697418,0.2089219578518885,2.8112041883243677e-07,0.2036971428571428,0.7239771428571429,0.4493369714285714,0.4697285714285715,0.1785714285714285,0.2708112,1.0,1.0,0,11.0,8.46508252903368,2.0,1.0,-0.001844088639247,-2.5733492812731393e-10,-2.811204188324367e-07,1.0,1.0,0.0,0.0,0.0,0.2475444819520837,0.1785714285714285,0.8182857142857143,0.8182857142857143,0.0,0.0,,0.5362942857142857,0.2088731251040907,-0.0021395802130861,3.443420287796428e-07,0.0021395802130861,0.0,0.0,1.0,0.2474148,0.1954998359663392,0,0.8045001640336608,2.029760534566282e-07,0.5569485714285715,-0.0679898442374993,0.0026140759999864,0.0005749680522457,1.006194091430059,0.748,0.6201089184571771,0.5372242285714286,-0.0850698678716392,0.0005789513017284,0.2002522879358252,-0.0551265446534379,1.0,0.0002292094574748,0.0002292094574748,0.9862857142857144,0.6948571428571428,0.8541142857142858,0.8878,0.0170800236341399,0.0637723428571428,1.0,0.0,1.0,0.5742971887550201,-0.4500514963711879,-0.8930026039234458,-0.9855293386108991,-0.16950493425609692,5.0,0.6521739130434783,24.0,1.0,0.0,0.0,0.0,0.0,0.0,0.0,0.0,1.0,1.0,0.0,0.0,0.0,0.0,0.0,0.0,0.0,0.0,0.0,0.0,0.0,1.0,0.0,1.0,0.0,1.0,0.0,0.758282662857143,0.46207152000000007,0.37001712551727584,0.37001712551727584,6.402001538901983,6.0,0.9999999999972975,6.0,0.0,0.059197460129195315,0.05201739033361936,0.0,1.0,1.0,1.0,1.0,1.0,0.36269506109125726,h106_move
h106_kernel_seed_expand_c44_a090_64df3d49,1003,143,id06,2024-08-13,2024-08-12,Q3,2,0.7974211568605402,0.7976028404050293,1.0219184443105437e-07,0.1975142857142857,0.7239771428571429,0.3612903428571428,0.4418571428571428,0.428,0.2734751428571428,1.0,1.0,0,9.0,6.528504425976319,2.0,1.0,0.0011250688438861,-5.3973778056587786e-11,-1.0219184443105437e-07,1.0,1.0,0.0,0.0,0.0036869899416043,0.2033244741112442,0.4194285714285714,0.7645714285714286,0.7622857142857142,0.0,0.0,,0.4938285714285715,0.7976486346250319,0.0014087668147091,1.4579317042517914e-07,0.0014087668147091,0.0,0.0,1.0,0.2141395999999999,0.8042915887861274,0,0.8042915887861274,6.427869809191278e-08,0.4171542857142857,0.038301195431796,0.0034032669145295,0.000583616319535,1.02132855918633,0.8502857142857143,0.3996342215272672,0.5556594285714285,0.0430822151337688,0.0001473572723578,0.801907638378985,0.02800623506122,1.0,5.662968595832041e-05,5.662968595832041e-05,0.9542857142857144,0.5817142857142857,0.7860285714285715,0.8718800000000001,-0.0047810197019728,0.0492705142857143,1.0,0.0,1.0,0.5742971887550201,-0.4500514963711879,-0.8930026039234458,-0.9855293386108991,-0.16950493425609692,5.0,0.6521739130434783,24.0,0.0,0.0,1.0,0.0,0.0,0.0,0.0,0.0,1.0,1.0,0.0,0.0,0.0,0.0,0.0,0.0,0.0,0.0,0.0,0.0,0.0,1.0,0.0,1.0,0.0,1.0,0.0,0.685322590857143,0.32353276571428574,-0.13726769775929218,0.13726769775929218,8.574774156156407,8.0,0.9999999999927149,0.0,8.0,0.0166369471915352,-0.01440748476094268,0.0,1.0,1.0,1.0,1.0,1.0,0.10721650590105324,h106_move
h106_kernel_seed_expand_c44_a090_64df3d49,1010,144,id06,2024-08-14,2024-08-13,Q3,2,0.7530964107373385,0.7533060688078742,1.1822187706567187e-07,0.1906514285714285,0.670817142857143,0.3328430285714286,0.4842571428571429,0.4268571428571429,0.2659077142857142,1.0,1.0,0,3.0,1.4815760139224,1.0,1.0,0.0011278662604456,-5.3211147464858437e-11,-1.1822187706567182e-07,0.0,1.0,0.0,0.0,0.00365308581125,0.156435418150198,0.4182857142857142,0.6862857142857143,0.688,0.0,0.0,,0.4532971428571428,0.7533312901862517,0.0012635893748875,1.350275770084508e-07,0.0012635893748875,1.0,0.0,1.0,0.2487823428571428,0.7611739450510254,1,0.7611739450510254,4.467222197900529e-08,0.3201142857142857,0.029716187931472,0.0017199612737889,0.000627826127369,1.0986957228958183,0.9451428571428572,0.3740817901993886,0.643182742857143,0.0439311011078744,0.0001767593750644,0.7637201240802629,0.0579890534623943,1.0,0.0002959477991754,0.0002959477991754,0.992,0.7085714285714285,0.8645428571428572,0.919554285714286,-0.0458518275004828,0.1008794285714285,2.0,1.0,1.0,0.5783132530120482,-0.47243956847967067,-0.881363066014649,-0.9955262728085589,-0.09448513188803238,5.0,0.6956521739130435,24.0,0.0,0.0,1.0,0.0,0.0,0.0,0.0,0.0,0.0,0.0,1.0,1.0,0.0,0.0,0.0,0.0,0.0,0.0,0.0,0.0,0.0,1.0,0.0,1.0,0.0,1.0,0.0,0.794994089469388,0.7304870285714288,-2.2194546337737835,2.2194546337737835,14.610509212882812,12.0,0.9999999999995494,0.0,12.0,0.1843660595264805,-0.1367172862554965,1.0,0.0,1.0,1.0,1.0,1.0,1.3082824946331837,h106_move
h106_kernel_seed_expand_c44_a090_64df3d49,1011,144,id06,2024-08-14,2024-08-13,S1,3,0.9371612173475234,0.938050068105242,6.737603625239785e-06,0.4181828571428572,0.670817142857143,0.3955945714285715,0.6061428571428571,0.5925714285714285,0.4131582857142857,1.0,1.0,0,6.0,4.40455491164904,2.0,1.0,0.0151939330276178,-6.324202084681502e-08,-6.737603625239785e-06,1.0,1.0,0.0,0.0,0.0138457385950436,0.1370545027048125,0.5348571428571428,0.6497142857142857,0.6337142857142857,0.0,0.0,,0.5285085714285714,0.9380567154476852,0.0153083269528511,6.2253993175220845e-06,0.0153083269528511,1.0,0.0,1.0,0.3138071428571428,0.9435072112803232,1,0.9435072112803232,4.9518479574132515e-08,0.518,0.0565603896332951,0.0020106260677631,0.0005674055906361,0.992959783613246,0.4982857142857143,0.487265744782802,0.3616179428571429,0.1132081278206009,0.0003532406767614,0.9454074004541292,0.1494347287231923,1.0,0.0004958561125027,0.0004958561125027,0.9994285714285714,0.9171428571428571,0.9388285714285716,0.9012857142857144,-0.0566477381873058,0.1303845714285714,2.0,1.0,1.0,0.5783132530120482,-0.47243956847967067,-0.881363066014649,-0.9955262728085589,-0.09448513188803238,5.0,0.6956521739130435,24.0,0.0,0.0,0.0,1.0,0.0,0.0,0.0,0.0,0.0,0.0,1.0,1.0,0.0,0.0,0.0,0.0,0.0,0.0,0.0,0.0,0.0,0.0,1.0,0.0,1.0,1.0,0.0,0.8461527795918369,0.7918176,-1.4991748092941082,1.4991748092941082,8.175040609973149,7.0,0.9999999999993329,0.0,7.0,0.23520000000000002,-0.16504594811657627,1.0,0.0,1.0,1.0,1.0,1.0,1.3112259257910992,h106_move
h106_kernel_seed_expand_c44_a090_64df3d49,1012,144,id06,2024-08-14,2024-08-13,S2,4,0.9999959292610848,0.999999,1.666919095250906e-06,0.2473999999999999,0.670817142857143,0.4452796,0.1277285714285714,0.1785714285714285,0.36927,1.0,1.0,0,6.0,4.40455491164904,2.0,1.0,1.4038276053337364,-3.885961219697539e-10,-1.666919095250906e-06,1.0,1.0,0.0,0.0,0.0,9.635517453110577,0.1785714285714285,0.9965714285714286,0.9965714285714286,0.0,0.0,,0.6091914285714287,0.999999,1.4038276053337366,1.543528956725406e-06,1.4038276053337366,1.0,0.0,1.0,0.4963339428571429,0.999999,1,0.999999,1.6045441135884457e-08,0.5168628571428572,3.301327605306856,0.0,0.0006418679262943,1.1232688710151584,0.9514285714285714,0.909933617216266,0.7047982857142859,1.4038276053337366,1.666919095250906e-06,0.999999,1.4038276053337366,1.0,-1.666919095250906e-06,0.0,0.4542857142857143,0.984,0.6147428571428571,0.9294514285714288,1.8974999999731192,0.3850804571428571,2.0,1.0,1.0,0.5783132530120482,-0.47243956847967067,-0.881363066014649,-0.9955262728085589,-0.09448513188803238,5.0,0.6956521739130435,24.0,0.0,0.0,0.0,0.0,1.0,0.0,0.0,0.0,0.0,0.0,1.0,1.0,0.0,0.0,0.0,0.0,0.0,0.0,0.0,0.0,0.0,0.0,1.0,0.0,1.0,0.0,1.0,0.0,0.32724907428571437,0.08673912287588983,0.08673912287588983,3.4853869025730306,3.0,0.9999999999884711,3.0,0.0,0.02528117569636652,0.022397860774265282,1.0,0.0,1.0,1.0,0.0,1.0,0.0905120612229912,h106_move
h106_kernel_seed_expand_c44_a090_64df3d49,1013,144,id06,2024-08-14,2024-08-13,S3,5,0.9522076528619444,0.951030851055967,1.509834010707256e-05,0.4260571428571428,0.670817142857143,0.0757880857142856,0.9469714285714286,0.9308571428571428,0.4453364571428572,1.0,1.0,0,0.0,0.0,0.0,0.0,0.0,0.0,0.0,0.0,0.0,0.0,0.0,0.337421922395201,0.0,0.9537142857142856,0.0777142857142857,0.1788571428571428,0.0,0.0,,-0.7011571428571429,0.9511648346262598,-0.0226808888572636,1.0793325352420611e-05,0.0226808888572636,0.0,0.0,0.0,0.0697650857142857,0.9463979428642126,1,0.9463979428642126,7.913949188770699e-08,0.5184228571428572,0.0736220453953238,0.0012356743014629,0.0005537828437696,0.969119976596906,0.1251428571428571,0.5912107460614958,0.0202428571428571,-0.1208419165152991,0.0003573805720112,0.9444020832456476,-0.1595113298001926,1.0,0.0004413604881809,0.0004413604881809,0.996,0.9268571428571428,0.9379714285714286,0.9526514285714286,0.1944639619106229,-0.1030012571428571,2.0,1.0,1.0,0.5783132530120482,-0.47243956847967067,-0.881363066014649,-0.9955262728085589,-0.09448513188803238,5.0,0.6956521739130435,24.0,0.0,0.0,0.0,0.0,0.0,1.0,0.0,0.0,0.0,0.0,1.0,1.0,0.0,0.0,0.0,0.0,0.0,0.0,0.0,0.0,0.0,0.0,1.0,0.0,1.0,1.0,0.0,0.8935598213877551,0.27296273142857147,1.295508827097103,1.295508827097103,3.6637693074013087,3.0,0.9999999999992281,3.0,0.0,0.3536,0.28,1.0,0.0,1.0,1.0,1.0,1.0,1.5048347951739824,h106_move
h106_kernel_seed_expand_c44_a090_64df3d49,1057,151,id06,2024-08-25,2024-08-24,Q1,0,0.2931200235617892,0.2940047415236316,1.8877009515527732e-06,0.3332628571428572,0.7080171428571429,0.4039888571428572,0.5654857142857144,0.4817142857142857,0.3501362285714285,1.0,1.0,0,1.0,0.98640079466928,1.0,1.0,0.0042660984396376,-1.0020730809332893e-08,-1.8877009515527732e-06,1.0,0.0,0.0,0.0,0.0069087191295727,0.1085813693048932,0.46,0.5908571428571429,0.5965714285714285,0.0,0.0,,0.4900228571428571,0.2940407945891951,0.0044397867305515,1.860541860465581e-06,0.0044397867305515,1.0,0.0,1.0,0.2779978285714286,0.3160480568474452,1,0.6839519431525547,3.543989487264716e-07,0.5622057142857144,0.0767078893727275,0.0004647756016188,0.000563572964942,0.9862526886486588,0.3011428571428571,0.2390823668590611,0.2716846857142857,0.1082853490810346,0.001250143867855,0.2941165191992924,0.0048045551477717,1.0,-2.0308272858926557e-06,0.0,0.4542857142857143,0.4708571428571428,0.4616571428571429,0.8998400000000001,-0.0315774597083073,0.2318356571428572,6.0,5.0,1.0,0.606425702811245,-0.6199605408122385,-0.7846329892604547,-0.9067516281939827,0.42166513345018397,5.0,1.0,24.0,1.0,0.0,0.0,0.0,0.0,0.0,0.0,0.0,0.0,0.0,0.0,0.0,0.0,0.0,0.0,0.0,0.0,0.0,1.0,1.0,0.0,1.0,0.0,1.0,0.0,1.0,0.0,0.4154175634285715,0.5168146514285716,-1.018152310148583,1.018152310148583,11.74689253346193,8.0,0.9999999999990178,0.0,8.0,0.10831198261532259,-0.0780067644718286,1.0,0.0,1.0,1.0,1.0,1.0,0.6956937927207619,h106_move
h106_kernel_seed_expand_c44_a090_64df3d49,1148,164,id07,2024-07-26,2024-07-25,Q1,0,0.5726236359257583,0.5785182382955152,7.107495999258973e-05,0.3531828571428571,0.5277371428571428,-0.0308976285714285,0.9647428571428572,0.9491428571428572,0.3696770285714286,1.0,1.0,0,4.0,7.150759261260218,1.0,1.0,0.0107728068932244,-1.2662505403575502e-08,-4.8598608335352806e-05,0.0,0.0,0.0,1.0,0.2847313265208278,0.0,0.9405714285714286,0.0777142857142857,0.1788571428571428,1.0,1.0,seed_q061_companion,0.2934971428571428,0.5784324143683724,0.023777970260246,6.281269137575762e-05,0.023777970260246,0.0,1.0,1.0,0.2427167428571428,0.6057356549616199,0,0.6057356549616199,2.395791371501162e-07,0.5222971428571428,-0.0601479714388651,0.0028665154478622,0.0005256559126248,0.919897847093514,0.0462857142857142,0.2934742653132805,0.0831499428571428,0.1368584367882453,0.0022566059611043,0.5926098562501864,0.082201326412172,1.0,0.0003458175576152,0.0003458175576152,0.9942857142857144,0.7868571428571428,0.8911714285714286,0.9825542857142858,-0.1970064082271105,0.0275415999999998,4.0,3.0,1.0,0.6586345381526104,-0.839699808785118,-0.5430508550092121,-0.15082429716137438,0.9885605855918884,6.0,0.41379310344827586,30.0,1.0,0.0,0.0,0.0,0.0,0.0,0.0,0.0,0.0,0.0,0.0,0.0,0.0,0.0,1.0,1.0,0.0,0.0,0.0,0.0,0.0,1.0,0.0,1.0,0.0,1.0,0.0,0.8756243064489797,0.6744735314285715,-1.5688571519989594,1.5688571519989594,4.887968748948608,3.0,0.9999999999993625,0.0,3.0,0.3536,-0.28,1.0,0.0,1.0,1.0,1.0,1.0,1.7525446273240763,h106_move
h106_kernel_seed_expand_c44_a090_64df3d49,1150,164,id07,2024-07-26,2024-07-25,Q3,2,0.4259565486750093,0.4269931880734391,2.196973457047058e-06,0.2573485714285714,0.5277371428571428,0.3815033714285714,0.4755571428571428,0.1785714285714285,0.3029848571428571,1.0,1.0,0,4.0,7.150759261260218,1.0,1.0,0.0018921461975348,-3.1386519561959727e-09,-1.501803454773649e-06,0.0,0.0,0.0,1.0,0.0,0.1449356177140495,0.1785714285714285,0.6674285714285715,0.6782857142857143,1.0,1.0,seed_q061_companion,0.4895571428571429,0.4270190049503677,0.0043437215818961,2.100024117157595e-06,0.0043437215818961,1.0,0.0,1.0,0.2906211428571428,0.4461046069309509,0,0.5538953930690491,3.0615352131698396e-07,0.5612685714285714,0.0658539470598237,0.0014462362567198,0.0005931515106564,1.0380151436487377,0.8931428571428571,0.3058667154411794,0.6421355428571428,0.0819453714389487,0.0008269628319164,0.4365566105950964,0.043218942955514,1.0,0.0001829166359995,0.0001829166359995,0.9805714285714284,0.6462857142857142,0.8331428571428572,0.8843714285714287,-0.0160914243791249,0.1454114285714285,4.0,3.0,1.0,0.6586345381526104,-0.839699808785118,-0.5430508550092121,-0.15082429716137438,0.9885605855918884,6.0,0.41379310344827586,30.0,0.0,0.0,1.0,0.0,0.0,0.0,0.0,0.0,0.0,0.0,0.0,0.0,0.0,0.0,1.0,1.0,0.0,0.0,0.0,0.0,0.0,1.0,0.0,1.0,0.0,1.0,0.0,0.7368077387755103,0.5973442857142858,-0.41465595299658486,0.41465595299658486,8.518706264653822,6.0,0.9999999999975884,0.0,6.0,0.055798254557179135,-0.04380833733466546,1.0,0.0,1.0,1.0,1.0,1.0,0.36082458411870894,h106_move
h106_kernel_seed_expand_c44_a090_64df3d49,1151,164,id07,2024-07-26,2024-07-25,S1,3,0.9223507042282848,0.9216005296464892,3.917279624177095e-06,0.2585542857142857,0.5277371428571428,-0.1077577142857144,0.9476857142857142,0.9794285714285714,0.3269070857142857,1.0,1.0,0,4.0,7.150759261260218,1.0,1.0,-0.0046557360965975,-2.455648310831864e-09,-2.6763739925174846e-06,0.0,0.0,0.0,1.0,0.580049688553327,0.0,0.9822857142857144,0.0777142857142857,0.1788571428571428,1.0,1.0,seed_q061_companion,0.24256,0.9217729289840444,-0.0080398963166077,2.11564951174692e-06,0.0080398963166077,0.0,1.0,1.0,0.1396150285714285,0.934273302796362,1,0.934273302796362,1.2071833231409308e-06,0.8719085714285715,0.2506320694487556,0.0026125534551015,0.0005915360823307,1.035188144078876,0.8891428571428571,0.8372818556296139,0.4899545142857143,0.1795407734626453,0.0010428642033394,0.9220945637329848,-0.0035709979341165,1.0,-1.6061254654586854e-06,0.0,0.4542857142857143,0.4657142857142857,0.4590857142857142,0.9133771428571428,0.0710912959861103,0.0364342857142856,4.0,3.0,1.0,0.6586345381526104,-0.839699808785118,-0.5430508550092121,-0.15082429716137438,0.9885605855918884,6.0,0.41379310344827586,30.0,0.0,0.0,0.0,1.0,0.0,0.0,0.0,0.0,0.0,0.0,0.0,0.0,0.0,0.0,1.0,1.0,0.0,0.0,0.0,0.0,0.0,0.0,1.0,0.0,1.0,1.0,0.0,0.4193183980408162,0.3923701142857143,0.627429161390421,0.627429161390421,3.9507382397950694,3.0,0.9999999999984063,3.0,0.0,0.2303355317051339,0.1429318296928037,1.0,0.0,1.0,1.0,1.0,1.0,0.806793726853482,h106_move
h106_kernel_seed_expand_c44_a090_64df3d49,1154,164,id07,2024-07-26,2024-07-25,S4,6,0.3773264958983826,0.3806992444389726,2.417989854019975e-05,0.3498857142857143,0.5277371428571428,-0.0450253714285713,0.9542,0.92,0.3851811428571428,1.0,1.0,0,4.0,7.150759261260218,1.0,1.0,0.006397676751739,-1.1884740666293036e-08,-1.652587185190865e-05,0.0,0.0,0.0,1.0,0.3149601376641728,0.0,0.9497142857142856,0.0777142857142857,0.1788571428571428,1.0,1.0,seed_q061_companion,0.2868685714285713,0.3806108503006162,0.0139551743480836,2.086447315363671e-05,0.0139551743480836,0.0,1.0,1.0,0.2017081142857142,0.3827457929282127,0,0.6172542070717872,4.143843838059222e-07,0.6303542857142858,-0.0798121694974146,0.0046721907240113,0.0005578411478312,0.9762220087046362,0.1765714285714285,0.6369021237462911,0.1225257142857142,0.0230015601792245,6.238347097342611e-05,0.3820022291534626,0.0198530550945121,1.0,-1.8827635697604705e-05,0.0,0.4542857142857143,0.5508571428571428,0.4944,0.9444742857142856,-0.1028137296766391,0.088597257142857,4.0,3.0,1.0,0.6586345381526104,-0.839699808785118,-0.5430508550092121,-0.15082429716137438,0.9885605855918884,6.0,0.41379310344827586,30.0,0.0,0.0,0.0,0.0,0.0,0.0,1.0,0.0,0.0,0.0,0.0,0.0,0.0,0.0,1.0,1.0,0.0,0.0,0.0,0.0,0.0,0.0,1.0,0.0,1.0,1.0,0.0,0.4669480868571428,0.39203521142857145,-0.7995159401798686,0.7995159401798686,3.9507382397950694,3.0,0.9999999999987492,0.0,3.0,0.31036696989556745,-0.18213414873039638,1.0,0.0,1.0,1.0,1.0,1.0,1.0368770070356765,h106_move
h106_broad_conflict_consensus_c96_a065_f315d99a,3,0,id01,2024-07-31,2024-07-30,S1,3,0.5202725253271271,0.5236101888857627,2.2320883022897146e-05,0.3296457142857143,0.5036571428571429,0.0592980571428572,0.8507142857142858,0.7537142857142857,0.3292734857142856,1.0,1.0,0,0.0,0.0,0.0,0.0,0.0,0.0,0.0,0.0,0.0,0.0,0.0,0.166282513857259,0.0,0.8897142857142857,0.0777142857142857,0.1788571428571428,0.0,0.0,,-0.7491228571428571,0.5235543310942848,0.013152533950614,1.963802934246139e-05,0.013152533950614,0.0,0.0,0.0,0.0526722285714286,0.5367598867796822,0,0.5367598867796822,8.669450489455988e-08,0.2992457142857143,-0.0351603363907305,0.0004641149697683,0.0005472298175587,0.95765218072781,0.0885714285714285,0.4134929081993978,-0.0102653714285714,0.0661707536831843,0.0005451474145004,0.523904797882171,0.0145575658103003,1.0,-2.1333746199614367e-05,0.0,0.4542857142857143,0.5245714285714286,0.4871142857142858,0.9440457142857144,-0.1013310900739148,-0.0021125714285714,2.0,1.0,1.0,0.0,0.0,1.0,0.0,1.0,0.0,0.0,27.0,0.0,0.0,0.0,1.0,0.0,0.0,0.0,0.0,0.0,0.0,1.0,1.0,0.0,0.0,0.0,0.0,0.0,0.0,0.0,0.0,0.0,0.0,1.0,0.0,1.0,1.0,0.0,0.4598581537959185,0.36753994285714287,-2.1041167319024296,2.1041167319024296,12.31797106000661,12.0,0.9999999999995247,0.0,12.0,0.30702481901054307,-0.11103093756868547,0.0,144.0,0.0,0.0,1.0,1.0,0.8177898724323432,h106_move
h106_broad_conflict_consensus_c96_a065_f315d99a,6,0,id01,2024-07-31,2024-07-30,S4,6,0.5084298008946088,0.5091151839410136,9.39781743536372e-07,0.1482914285714285,0.5036571428571429,0.3172508,0.4932142857142857,0.1785714285714285,0.2109301714285714,1.0,1.0,0,0.0,0.0,0.0,0.0,0.0,0.0,0.0,0.0,0.0,0.0,0.0,0.0,0.1856015952715258,0.1785714285714285,0.7337142857142858,0.736,0.0,0.0,,-0.5764400000000001,0.5091590368126224,0.0029178468760701,9.681413111195525e-07,0.0029178468760701,0.0,0.0,0.0,0.0957847428571428,0.5223625210687107,1,0.5223625210687107,1.4679869777242745e-07,0.45888,0.045010420029887,0.0019122187266242,0.000551777393772,0.9656104391011492,0.108,0.502682123038882,0.0688006857142857,0.0557874001969457,0.000388523838803,0.5114968799282992,0.0122732280433281,1.0,9.8721686667691e-06,9.8721686667691e-06,0.9217142857142856,0.5114285714285715,0.7346857142857143,0.8756571428571429,-0.0107769801670586,-0.0351718857142857,2.0,1.0,1.0,0.0,0.0,1.0,0.0,1.0,0.0,0.0,27.0,0.0,0.0,0.0,0.0,0.0,0.0,1.0,0.0,0.0,0.0,1.0,1.0,0.0,0.0,0.0,0.0,0.0,0.0,0.0,0.0,0.0,0.0,1.0,0.0,1.0,1.0,0.0,0.6433327934693878,0.57472224,-0.8046703425796364,0.8046703425796364,14.624286960576873,14.0,0.9999999999987573,0.0,14.0,0.11487069227873607,-0.03576487004711348,0.0,144.0,0.0,0.0,1.0,1.0,0.3033194861948564,h106_move
h106_broad_conflict_consensus_c96_a065_f315d99a,23,3,id01,2024-08-03,2024-08-02,Q3,2,0.5825405612758282,0.5795370659761659,1.8534940263270627e-05,0.2811657142857143,0.6352171428571428,0.1250753999999999,0.8544285714285714,0.9097142857142856,0.3286348571428571,0.0,1.0,0,3.0,5.4,1.0,1.0,-0.0020563557839757,-1.3985871682512395e-09,-5.640630085346209e-06,0.0,0.0,0.0,1.0,0.127484423230084,0.0059622151491581,0.8485714285714285,0.2148571428571428,0.1788571428571428,1.0,1.0,episode_neighbor_q061,0.28076,0.5795635192393868,-0.0122295736452776,1.6570339673616097e-05,0.0122295736452776,1.0,0.0,1.0,0.1879783428571428,0.5577169744059128,0,0.5577169744059128,8.511330267661373e-11,0.1802285714285714,0.0011137372782469,0.0033986064699007,0.0005605465865673,0.9809565264928056,0.22,0.1387492598971923,0.2050615999999999,-0.1013098164667343,0.0012604154204444,0.5729004845201093,-0.0395164455506682,1.0,7.263366103893443e-05,7.263366103893443e-05,0.9571428571428572,0.6308571428571429,0.8040571428571429,0.9461771428571428,0.1024235537449813,0.0526738285714285,5.0,4.0,1.0,0.012048192771084338,0.0756287458844567,0.997136045279652,0.225155940522694,0.9743227403932134,0.0,0.11538461538461539,27.0,0.0,0.0,1.0,0.0,0.0,0.0,0.0,0.0,0.0,0.0,0.0,0.0,0.0,0.0,0.0,0.0,1.0,1.0,0.0,0.0,0.0,1.0,0.0,1.0,0.0,1.0,0.0,0.760780490122449,0.5840420685714287,0.5298266774572289,0.5298266774572289,3.0061376520171494,3.0,0.9999999999981126,3.0,0.0,0.2552,0.1145614007781702,0.0,141.0,0.0,0.0,1.0,1.0,0.5243761754641578,h106_move
h106_broad_conflict_consensus_c96_a065_f315d99a,24,3,id01,2024-08-03,2024-08-02,S1,3,0.8856649411247233,0.884269699592085,9.57829480535688e-06,0.3897885714285715,0.6352171428571428,0.0773217714285714,0.9170857142857144,0.872,0.3982313142857143,1.0,1.0,0,3.0,5.4,1.0,1.0,-0.0022843066139102,-1.023657469904827e-08,-2.9117981057794986e-06,0.0,0.0,0.0,1.0,0.2406994082492063,0.0,0.9257142857142856,0.0777142857142857,0.1788571428571428,1.0,1.0,episode_neighbor_q061,0.3248571428571428,0.8843445253579758,-0.0129744625034478,7.806096574636268e-06,0.0129744625034478,0.0,1.0,1.0,0.2032936,0.8820840042998885,1,0.8820840042998885,9.344356289733132e-08,0.4318628571428572,0.0561513585022945,0.0001448418096032,0.0005651349325084,0.9889861318897074,0.3668571428571429,0.7227631446137076,0.1976734857142857,-0.0348906338605639,6.274948159712412e-05,0.8838282129387657,-0.0180127622696133,1.0,-7.28027584134816e-06,0.0,0.4542857142857143,0.5417142857142857,0.4852285714285714,0.9233085714285716,0.0910419923628584,0.0897802285714285,5.0,4.0,1.0,0.012048192771084338,0.0756287458844567,0.997136045279652,0.225155940522694,0.9743227403932134,0.0,0.11538461538461539,27.0,0.0,0.0,0.0,1.0,0.0,0.0,0.0,0.0,0.0,0.0,0.0,0.0,0.0,0.0,0.0,0.0,1.0,1.0,0.0,0.0,0.0,0.0,1.0,0.0,1.0,1.0,0.0,0.44801569910204087,0.43306448000000003,0.19430087319690503,0.19430087319690503,0.9833040141543777,1.0,0.9999999999948533,1.0,0.0,0.1976,0.12843999999986938,0.0,141.0,0.0,0.0,1.0,1.0,0.3572783414179953,h106_move
h106_broad_conflict_consensus_c96_a065_f315d99a,72,10,id01,2024-08-13,2024-08-12,Q3,2,0.6540271650616462,0.6541952273622312,6.241744099355628e-08,0.1664742857142857,0.602737142857143,0.2302518285714286,0.5890000000000001,0.4491428571428571,0.230052,1.0,1.0,0,0.0,0.0,0.0,0.0,0.0,0.0,0.0,0.0,0.0,0.0,0.0,0.0100850770282789,0.0408244641423714,0.4988571428571428,0.4182857142857142,0.4394285714285714,0.0,0.0,,-0.6395342857142857,0.6541978720697573,0.0007545083536356,5.860198104556958e-08,0.0007545083536356,0.0,0.0,0.0,0.0462374857142857,0.660758935028728,1,0.660758935028728,2.6109075210230136e-08,0.2374057142857142,0.0203862121377524,0.001085971111288,0.0005706359268388,0.9986128719680278,0.6548571428571428,0.3147640732580876,0.2738849142857143,0.029889488025075,0.0001004468135936,0.6540928845184623,0.0002904528282908,1.0,-4.00379900344916e-08,0.0,0.4542857142857143,0.444,0.4495714285714286,0.8768742857142858,-0.0095032758873225,-0.0067589714285714,1.0,0.0,1.0,0.040160642570281124,0.2496673968626068,0.968331653383204,0.6867513112135011,0.7268924518431438,0.0,0.38461538461538464,27.0,0.0,0.0,1.0,0.0,0.0,0.0,0.0,0.0,1.0,1.0,0.0,0.0,0.0,0.0,0.0,0.0,0.0,0.0,0.0,0.0,0.0,1.0,0.0,1.0,0.0,1.0,0.0,0.39421762530612253,0.27865553142857147,-0.07297425287585771,0.07297425287585771,2.208921529408734,2.0,0.9999999999862964,0.0,2.0,0.03303614542404812,-0.021473494525621552,0.0,134.0,0.0,0.0,1.0,1.0,0.08726169736970939,h106_move
h106_broad_conflict_consensus_c96_a065_f315d99a,249,35,id02,2024-09-03,2024-09-02,S2,4,0.8823122084998396,0.881625272331127,2.2683932919820293e-06,0.3141771428571429,0.3170571428571428,0.3076631428571429,0.5137285714285714,0.1785714285714285,0.362382,1.0,1.0,0,0.0,0.0,0.0,0.0,0.0,0.0,0.0,0.0,0.0,0.0,0.0,0.0,0.2800586053484107,0.1785714285714285,0.8428571428571429,0.844,0.0,0.0,,-0.5605257142857143,0.8815578212908938,-0.0072449921663491,2.4887918590454916e-06,0.0072449921663491,0.0,0.0,0.0,0.1059947428571428,0.8728222570809246,1,0.8728222570809246,1.6048527488541938e-07,0.6375885714285714,-0.0718540747710767,0.0025778289398956,0.0005714536940665,1.000043964616444,0.6754285714285714,0.6785783715599005,0.3989555428571429,-0.0883644115187145,0.0004239501228325,0.8792503666371515,-0.0291602558011754,1.0,2.2478691047267407e-05,2.2478691047267407e-05,0.9377142857142856,0.5857142857142857,0.7718571428571429,0.8785085714285715,0.0165103367476378,-0.0347169142857142,1.0,0.0,1.0,0.14056224899598393,0.7727602671207603,0.6346980144599881,0.4724395684796713,-0.8813630660146488,1.0,0.25806451612903225,32.0,0.0,0.0,0.0,0.0,1.0,0.0,0.0,0.0,1.0,1.0,0.0,0.0,0.0,0.0,0.0,0.0,0.0,0.0,0.0,0.0,0.0,0.0,1.0,0.0,1.0,1.0,0.0,0.6780831159183675,0.25910259428571436,0.3939767399563721,0.3939767399563721,6.8829819973598285,6.0,0.9999999999974618,6.0,0.0,0.05723925183989927,0.03720551369592912,0.0,109.0,0.0,0.0,1.0,1.0,0.24257410029100665,h106_move
h106_broad_conflict_consensus_c96_a065_f315d99a,394,56,id02,2024-10-14,2024-10-13,Q3,2,0.7069956394747284,0.7081894374029917,3.4426032856638145e-06,0.31964,0.5154171428571428,0.2213924571428571,0.6876285714285715,0.548,0.3332165714285713,1.0,1.0,0,0.0,0.0,0.0,0.0,0.0,0.0,0.0,0.0,0.0,0.0,0.0,0.0367803263739192,0.03934489390002,0.672,0.4131428571428571,0.368,0.0,0.0,,-0.6593971428571429,0.7081753336653023,0.0057015383038324,3.0593224843444844e-06,0.0057015383038324,0.0,0.0,0.0,0.0495174285714285,0.713629090774197,1,0.713629090774197,5.580608700907642e-09,0.1772114285714286,-0.0098848687141418,0.0005605431876912,0.0005714496738913,1.0000369293098734,0.6748571428571428,0.3780880327563019,0.3411499428571428,0.0322384836720165,0.0001066845409199,0.7091946127024747,0.0106386996117656,1.0,-8.446723652744126e-07,0.0,0.4542857142857143,0.5057142857142857,0.4693714285714285,0.9061828571428572,-0.0421233523861583,-0.0053579428571428,0.0,6.0,1.0,0.2248995983935743,0.9875894586558354,0.15705750905917895,-0.8901457403773966,-0.4556759384562417,1.0,0.9354838709677419,32.0,0.0,0.0,1.0,0.0,0.0,0.0,0.0,1.0,0.0,0.0,0.0,0.0,0.0,0.0,0.0,0.0,0.0,0.0,0.0,0.0,1.0,1.0,0.0,1.0,0.0,1.0,0.0,0.42533634220408156,0.25314420571428575,-0.8979638010381437,0.8979638010381437,6.285450798051906,6.0,0.9999999999988864,0.0,6.0,0.1428638660756768,-0.09286151294917516,0.0,88.0,0.0,0.0,1.0,1.0,0.5569260808478006,h106_move
h106_broad_conflict_consensus_c96_a065_f315d99a,430,61,id03,2024-08-19,2024-08-18,S1,3,0.604026200472991,0.6063203145082555,1.1009521791116583e-05,0.3882685714285714,0.3370171428571429,0.0654890857142856,0.7873714285714286,0.684,0.3785540571428571,1.0,1.0,0,2.0,3.6,1.0,1.0,0.0015362066480787,-1.5536985231547174e-08,-3.224407648327876e-06,0.0,0.0,0.0,1.0,0.1413535464138461,0.0,0.8622857142857143,0.0777142857142857,0.1788571428571428,1.0,1.0,episode_neighbor_q061,0.2920571428571428,0.6062772068060069,0.0094206983426381,9.646010099229052e-06,0.0094206983426381,0.0,0.0,1.0,0.1293242857142857,0.6074964413452014,0,0.6074964413452014,1.993561071952924e-07,0.5617257142857143,-0.0547320393639781,0.0057171149923169,0.0005577874228806,0.9761279900412012,0.1754285714285714,0.6818286787726655,0.0789510857142856,0.0145311845062691,2.520043883824652e-05,0.6055727655873674,0.0064705280329236,1.0,-9.560522133300609e-06,0.0,0.4542857142857143,0.4817142857142857,0.4683428571428571,0.9234285714285716,-0.0692632238702473,0.071728,0.0,6.0,1.0,0.24497991967871485,0.9995025893658627,0.03153686495097154,-0.995526272808559,-0.09448513188803126,2.0,0.1,21.0,0.0,0.0,0.0,1.0,0.0,0.0,0.0,1.0,0.0,0.0,0.0,0.0,0.0,0.0,0.0,0.0,0.0,0.0,0.0,0.0,1.0,0.0,1.0,0.0,1.0,1.0,0.0,0.43248117551020415,0.4628745142857143,-0.586651559374209,0.586651559374209,5.034311681599859,5.0,0.9999999999982955,0.0,5.0,0.22519299402181522,-0.07574491563303028,0.0,83.0,0.0,0.0,1.0,1.0,0.42039732539322217,h106_move
h106_broad_conflict_consensus_c96_a065_f315d99a,431,61,id03,2024-08-19,2024-08-18,S2,4,0.3710434597203731,0.3692515525433949,6.88404145421373e-06,0.2283599999999999,0.3370171428571429,0.2767198285714285,0.4746142857142857,0.1785714285714285,0.301308,0.0,1.0,0,2.0,3.6,1.0,1.0,-0.0012297659195405,-3.960982746717251e-10,-2.0161537268581498e-06,0.0,0.0,0.0,1.0,0.0,0.0512708071493512,0.1785714285714285,0.4537142857142857,0.4925714285714285,1.0,1.0,episode_neighbor_q061,0.3814771428571429,0.3692343777748191,-0.0077597792771074,6.385477044568155e-06,0.0077597792771074,0.0,0.0,1.0,0.1794704571428571,0.3557729766594964,1,0.6442270233405036,2.3844188198995762e-08,0.3532228571428571,-0.018909915898664,0.0025802703377575,0.0005574504253998,0.9755382444497758,0.1708571428571428,0.1560624955544478,0.1777734857142857,-0.0660154001721844,0.0005025283157065,0.3698048101121429,-0.0053113073079726,1.0,-6.318411186589934e-06,0.0,0.4542857142857143,0.4742857142857143,0.4644857142857143,0.9088,0.0471054842735203,0.1034401142857143,0.0,6.0,1.0,0.24497991967871485,0.9995025893658627,0.03153686495097154,-0.995526272808559,-0.09448513188803126,2.0,0.1,21.0,0.0,0.0,0.0,0.0,1.0,0.0,0.0,1.0,0.0,0.0,0.0,0.0,0.0,0.0,0.0,0.0,0.0,0.0,0.0,0.0,1.0,0.0,1.0,0.0,1.0,1.0,0.0,0.42212461714285715,0.22523829714285717,0.15795180968291794,0.15795180968291794,0.9949964736413532,1.0,0.999999999993669,1.0,0.0,0.1587460999784927,0.10318496498591656,0.0,83.0,0.0,0.0,1.0,1.0,0.3089470541686921,h106_move
h106_broad_conflict_consensus_c96_a065_f315d99a,432,61,id03,2024-08-19,2024-08-18,S3,5,0.4835789213561608,0.4814017987874172,9.490897164288192e-06,0.2929085714285714,0.3370171428571429,-0.0619744285714286,0.8623428571428573,0.8994285714285715,0.3448964571428571,1.0,1.0,0,2.0,3.6,1.0,1.0,-0.00139507150486,-2.709755271231037e-09,-2.7790419522277787e-06,0.0,0.0,0.0,1.0,0.209522601133933,0.0,0.9114285714285716,0.0777142857142857,0.1788571428571428,1.0,1.0,episode_neighbor_q061,0.2362457142857142,0.4814571944855456,-0.0084973080270469,8.20283112001885e-06,0.0084973080270469,0.0,0.0,1.0,0.1009617714285714,0.4819900669049786,0,0.5180099330950214,2.0193839847131825e-07,0.3697028571428571,0.0543884327223334,0.0008893541727483,0.0005638505649118,0.9867384885957086,0.312,0.5381676052087209,0.1506107428571428,-0.0063629664466685,5.05472920575567e-06,0.4821199420381252,-0.0058427958838835,1.0,-8.134415479310597e-06,0.0,0.4542857142857143,0.4788571428571428,0.4667142857142857,0.9184628571428572,0.0607513991690019,0.0456938285714285,0.0,6.0,1.0,0.24497991967871485,0.9995025893658627,0.03153686495097154,-0.995526272808559,-0.09448513188803126,2.0,0.1,21.0,0.0,0.0,0.0,0.0,0.0,1.0,0.0,1.0,0.0,0.0,0.0,0.0,0.0,0.0,0.0,0.0,0.0,0.0,0.0,0.0,1.0,0.0,1.0,0.0,1.0,1.0,0.0,0.42865973632653065,0.3732023542857143,0.9954899388479038,0.9954899388479038,9.04809699586373,9.0,0.9999999999989955,9.0,0.0,0.20053865295928777,0.07151431517001515,0.0,83.0,0.0,0.0,1.0,1.0,0.47954733579681436,h106_move
h106_broad_conflict_consensus_c96_a065_f315d99a,492,70,id03,2024-09-16,2024-09-15,Q3,2,0.7379400612256236,0.7355869958106938,1.4288337799372997e-05,0.3116914285714286,0.6828971428571429,0.2207168285714285,0.8332285714285714,0.8417142857142857,0.3441497142857141,0.0,1.0,0,3.0,5.4,1.0,1.0,-0.0020221380359516,-3.134488404904697e-09,-4.346254514286939e-06,0.0,0.0,0.0,1.0,0.0731579621258778,0.0472847466857211,0.7742857142857142,0.44,0.1788571428571428,1.0,1.0,episode_neighbor_q061,0.3316057142857143,0.7355915224463873,-0.012109554749387,1.2950746220652398e-05,0.012109554749387,0.0,0.0,1.0,0.1411393714285714,0.7328617364915871,1,0.7328617364915871,2.4116037798910797e-07,0.5565599999999999,0.065736169256795,0.0009675930385018,0.0005668389182423,0.9919681069240556,0.4594285714285714,0.2781616572872293,0.2739041142857143,-0.0260986599217263,6.640444775363186e-05,0.7351021332494506,-0.0146242487539178,1.0,-1.3618258931202831e-05,0.0,0.4542857142857143,0.5257142857142857,0.4838571428571429,0.9333028571428572,0.0918348291785213,0.0667148571428571,0.0,6.0,1.0,0.28112449799196787,0.9809388143902331,-0.19431686088109762,-0.8327815731637613,0.553601708269484,2.0,0.55,21.0,0.0,0.0,1.0,0.0,0.0,0.0,0.0,1.0,0.0,0.0,0.0,0.0,0.0,0.0,0.0,0.0,0.0,0.0,0.0,0.0,1.0,1.0,0.0,1.0,0.0,1.0,0.0,0.45158525387755105,0.5586044000000001,1.1408197925381225,1.1408197925381225,4.778974186440193,5.0,0.9999999999991234,5.0,0.0,0.2846838476017578,0.15516569795535648,0.0,74.0,0.0,0.0,1.0,1.0,0.8586378981718341,h106_move
h106_broad_conflict_consensus_c96_a065_f315d99a,495,70,id03,2024-09-16,2024-09-15,S3,5,0.4339995467608516,0.432356369008125,5.497455235037307e-06,0.3251771428571428,0.6828971428571429,0.0974404857142856,0.8948,0.84,0.3792589714285714,1.0,1.0,0,3.0,5.4,1.0,1.0,-0.0011153743242252,-3.1667587096087123e-09,-1.6736124081780563e-06,0.0,0.0,0.0,1.0,0.1755262427634193,0.0,0.8954285714285715,0.0777142857142857,0.1788571428571428,1.0,1.0,episode_neighbor_q061,0.3184914285714285,0.4324045390961372,-0.006495975889984,4.713727674743318e-06,0.006495975889984,0.0,0.0,1.0,0.1380639428571428,0.4362151510812417,1,0.5637848489187582,2.42810440140853e-07,0.4231657142857142,0.0596993860989079,0.0007370478100822,0.0005856856978188,1.02494997118291,0.8657142857142858,0.4358312021880767,0.5033509714285717,0.0090142714560029,9.98797653928296e-06,0.4335600833741482,-0.0017892377075804,1.0,-2.460680098903545e-06,0.0,0.4542857142857143,0.4548571428571428,0.4573714285714285,0.9124171428571428,0.0506851146429049,0.081622857142857,0.0,6.0,1.0,0.28112449799196787,0.9809388143902331,-0.19431686088109762,-0.8327815731637613,0.553601708269484,2.0,0.55,21.0,0.0,0.0,0.0,0.0,0.0,1.0,0.0,1.0,0.0,0.0,0.0,0.0,0.0,0.0,0.0,0.0,0.0,0.0,0.0,0.0,1.0,0.0,1.0,0.0,1.0,1.0,0.0,0.4173135320816326,0.38928577142857146,1.1515964048209457,1.1515964048209457,9.246763475482473,9.0,0.9999999999991316,9.0,0.0,0.16996124192234707,0.08095131503236347,0.0,74.0,0.0,0.0,1.0,1.0,0.5506119431452796,h106_move
h106_broad_conflict_consensus_c96_a065_f315d99a,548,78,id03,2024-10-06,2024-10-05,Q3,2,0.7936544401585863,0.7937688832623561,3.999282749411749e-08,0.1934914285714286,0.5812571428571428,0.1726038857142857,0.64,0.6131428571428571,0.2588342857142857,1.0,1.0,0,0.0,0.0,0.0,0.0,0.0,0.0,0.0,0.0,0.0,0.0,0.0,0.0424170946698951,0.0477365793334812,0.6982857142857143,0.4417142857142857,0.3754285714285714,0.0,0.0,,-0.6733800000000001,0.7937590193930218,0.0006387050392127,3.039021689854593e-08,0.0006387050392127,0.0,0.0,0.0,0.0145573142857142,0.7933361205125407,0,0.7933361205125407,3.993836410772035e-09,0.2115428571428571,-0.0093434113037451,0.000990806439708,0.0005752921861245,1.0067613257180117,0.7542857142857143,0.4067481407263825,0.3583275428571429,-0.0019426259365227,3.0924676153176733e-07,0.7936832301967062,0.0001758077772848,1.0,-1.5855042945212006e-08,0.0,0.4542857142857143,0.4428571428571428,0.4491428571428572,0.8736342857142857,-0.0074007853672224,-0.0359851428571428,6.0,5.0,1.0,0.3132530120481928,0.9220586030376136,-0.38705029720221723,-0.36953183094075726,0.929218072317565,2.0,0.95,21.0,0.0,0.0,1.0,0.0,0.0,0.0,0.0,0.0,0.0,0.0,0.0,0.0,0.0,0.0,0.0,0.0,0.0,0.0,1.0,1.0,0.0,1.0,0.0,1.0,0.0,1.0,0.0,0.39238659918367347,0.24309862857142855,-0.08677139103855222,0.08677139103855222,3.37095152842217,3.0,0.9999999999884754,0.0,3.0,0.02574091923510007,-0.016731597502810083,0.0,66.0,0.0,0.0,1.0,1.0,0.07872778525595411,h106_move
h106_broad_conflict_consensus_c96_a065_f315d99a,550,78,id03,2024-10-06,2024-10-05,S2,4,0.5571285319115074,0.5589719632904865,6.888354101231009e-06,0.2467942857142857,0.5812571428571428,0.197464057142857,0.6712571428571429,0.576,0.323616,1.0,1.0,0,0.0,0.0,0.0,0.0,0.0,0.0,0.0,0.0,0.0,0.0,0.0,0.0551501937178191,0.0178002650844443,0.7331428571428571,0.3062857142857143,0.1788571428571428,0.0,0.0,,-0.6727,0.5589553514614753,0.0074071010428411,6.15604433584771e-06,0.0074071010428411,0.0,0.0,0.0,0.0522009714285714,0.5604924930897159,1,0.5604924930897159,1.626562896218322e-07,0.4884,-0.0484751610126691,0.0030189615236513,0.0005592800674707,0.9787401180738664,0.196,0.3289995002097053,0.0390667428571428,0.0136446690481986,2.2943929685714792e-05,0.5590444425260178,0.0077684973668663,1.0,-6.748650210774976e-06,0.0,0.4542857142857143,0.4914285714285714,0.4697142857142857,0.9194342857142858,-0.0621198300608678,-0.0016505142857142,6.0,5.0,1.0,0.3132530120481928,0.9220586030376136,-0.38705029720221723,-0.36953183094075726,0.929218072317565,2.0,0.95,21.0,0.0,0.0,0.0,0.0,1.0,0.0,0.0,0.0,0.0,0.0,0.0,0.0,0.0,0.0,0.0,0.0,0.0,0.0,1.0,1.0,0.0,0.0,1.0,0.0,1.0,1.0,0.0,0.4318714187755102,0.4015159200000001,-1.7058399812547234,1.7058399812547234,12.597481333844042,12.0,0.9999999999994137,0.0,12.0,0.2045792865959018,-0.08801727571023436,0.0,66.0,0.0,0.0,1.0,1.0,0.6662167365949676,h106_move
h106_broad_conflict_consensus_c96_a065_f315d99a,551,78,id03,2024-10-06,2024-10-05,S3,5,0.4287262596848446,0.4281161879117646,7.599045394046655e-07,0.2365371428571428,0.5812571428571428,0.0773638571428571,0.7985428571428572,0.7245714285714285,0.3151008,1.0,1.0,0,0.0,0.0,0.0,0.0,0.0,0.0,0.0,0.0,0.0,0.0,0.0,0.1582401932714693,0.0,0.88,0.0777142857142857,0.1788571428571428,0.0,0.0,,-0.7376028571428572,0.4281586043412561,-0.0023181008516995,5.986979474403853e-07,0.0023181008516995,0.0,0.0,0.0,-0.0074353142857142,0.4408131674241327,1,0.5591868325758673,2.7200351776194033e-07,0.4228571428571429,0.063541977905909,0.0006357751582378,0.0005690551907713,0.9958465838499426,0.5948571428571429,0.6318526509881361,0.2124987428571428,0.0491873592316087,0.0002975794832323,0.4285696820937664,-0.0006393299720927,1.0,-3.1286594048829386e-07,0.0,0.4542857142857143,0.4474285714285714,0.4512,0.8855085714285715,0.0143546186743003,-0.0550502857142857,6.0,5.0,1.0,0.3132530120481928,0.9220586030376136,-0.38705029720221723,-0.36953183094075726,0.929218072317565,2.0,0.95,21.0,0.0,0.0,0.0,0.0,0.0,1.0,0.0,0.0,0.0,0.0,0.0,0.0,0.0,0.0,0.0,0.0,0.0,0.0,1.0,1.0,0.0,0.0,1.0,0.0,1.0,1.0,0.0,0.39954146742857144,0.26216742857142855,0.18527706674070213,0.18527706674070213,4.008545342987358,4.0,0.9999999999946027,4.0,0.0,0.04981488842795344,0.03004334068270165,0.0,66.0,0.0,0.0,1.0,1.0,0.1481143072998698,h106_move
h106_broad_conflict_consensus_c96_a065_f315d99a,689,98,id04,2024-10-19,2024-10-18,S1,3,0.6371260254955748,0.6405330343175071,2.51376604938347e-05,0.2224685714285713,0.4586171428571429,0.0413004,0.7652857142857143,0.6982857142857143,0.3247446857142857,1.0,1.0,0,0.0,0.0,0.0,0.0,0.0,0.0,0.0,0.0,0.0,0.0,0.0,0.0999969057319737,0.0,0.8154285714285714,0.0777142857142857,0.1788571428571428,0.0,0.0,,-0.7547914285714286,0.6405000114407822,0.0146231119468513,2.2435790286601257e-05,0.0146231119468513,0.0,0.0,0.0,0.0546097142857142,0.6458406625928385,0,0.6458406625928385,2.652752376425061e-07,0.6229485714285715,-0.0646258238737329,0.0076759256074498,0.0005509684978578,0.9641948712512676,0.1045714285714285,-0.0194807088009702,-0.0150077714285714,0.037894021574039,0.0001648212272662,0.6414968295448158,0.0189548562062582,1.0,-2.2492975142118787e-05,0.0,0.4542857142857143,0.5468571428571428,0.4944,0.9422057142857144,-0.102519845447772,-0.0024486857142857,5.0,4.0,1.0,0.39357429718875503,0.6199605408122387,-0.7846329892604544,0.9067516281939827,0.4216651334501838,3.0,0.6923076923076923,27.0,0.0,0.0,0.0,1.0,0.0,0.0,0.0,0.0,0.0,0.0,0.0,0.0,0.0,0.0,0.0,0.0,1.0,1.0,0.0,0.0,0.0,0.0,1.0,0.0,1.0,1.0,0.0,0.46582650514285723,0.4561278171428572,-1.4007641028953612,1.4007641028953612,7.698365495692498,8.0,0.999999999999286,0.0,8.0,0.30970762838559535,-0.11827142623863741,0.0,46.0,0.0,0.0,1.0,1.0,0.7604871919056839,h106_move
h106_broad_conflict_consensus_c96_a065_f315d99a,692,98,id04,2024-10-19,2024-10-18,S4,6,0.5214942199375637,0.5220806282002836,6.890459806063731e-07,0.1991714285714285,0.4586171428571429,0.1756905714285715,0.6144571428571429,0.6337142857142857,0.2882345142857143,1.0,1.0,0,0.0,0.0,0.0,0.0,0.0,0.0,0.0,0.0,0.0,0.0,0.0,0.0166549901710211,0.0640435912665656,0.56,0.4845714285714286,0.4805714285714286,0.0,0.0,,-0.6675114285714286,0.5220939306128404,0.0024034092933237,6.55804488269851e-07,0.0024034092933237,0.0,0.0,0.0,0.0311753714285714,0.5317358803323887,0,0.5317358803323887,1.616032067237963e-08,0.2549485714285714,0.0153557474784382,0.005842441771129,0.0005639505118782,0.9869133957869688,0.3177142857142857,0.3199408510132027,0.0963508571428571,0.041084505048586,0.0002103100861962,0.525141978301795,0.0146229027435558,1.0,1.7903928382079215e-05,1.7903928382079215e-05,0.932,0.5251428571428571,0.7487428571428572,0.8981142857142858,-0.0257287575701478,-0.0963236571428572,5.0,4.0,1.0,0.39357429718875503,0.6199605408122387,-0.7846329892604544,0.9067516281939827,0.4216651334501838,3.0,0.6923076923076923,27.0,0.0,0.0,0.0,0.0,0.0,0.0,1.0,0.0,0.0,0.0,0.0,0.0,0.0,0.0,0.0,0.0,1.0,1.0,0.0,0.0,0.0,0.0,1.0,0.0,1.0,1.0,0.0,0.6724566563265306,0.5486207771428572,-0.9942477865498963,0.9942477865498963,9.81445982772841,10.0,0.9999999999989942,0.0,10.0,0.1697898693018825,-0.06584784823628405,0.0,46.0,0.0,0.0,1.0,1.0,0.4702932394805306,h106_move
h106_broad_conflict_consensus_c96_a065_f315d99a,709,101,id04,2024-10-24,2024-10-23,Q3,2,0.7836327157945403,0.7816403087409958,1.168048358135554e-05,0.2945942857142857,0.2851371428571428,-0.0389592857142857,0.8681142857142857,0.8714285714285714,0.3298454285714285,1.0,1.0,0,2.0,3.6,1.0,1.0,-0.0018739318165117,-2.0788438578953267e-09,-3.417201348221433e-06,0.0,0.0,0.0,1.0,0.112718299813475,0.0,0.832,0.0777142857142857,0.1788571428571428,1.0,1.0,episode_neighbor_q061,0.2406514285714286,0.7816747794316019,-0.0115100999444255,1.0263480041294848e-05,0.0115100999444255,0.0,0.0,1.0,0.1124250857142857,0.7718980136932254,1,0.7718980136932254,1.1513008166658741e-08,0.2556914285714285,0.0152658122683577,0.0015390106257885,0.0005705088303653,0.9983904531393746,0.6508571428571429,0.2558821948728312,0.3108536,-0.0679034849537958,0.0004009186480832,0.7766653504406011,-0.0406248364023611,1.0,6.144628333681901e-05,6.144628333681901e-05,0.9554285714285714,0.6377142857142857,0.8043142857142858,0.9279028571428573,0.0831692972221536,-0.0305217142857143,3.0,2.0,1.0,0.40562248995983935,0.5588441929376095,-0.8292726741066004,0.9784091409455726,0.2066774126849536,3.0,0.8076923076923077,27.0,0.0,0.0,1.0,0.0,0.0,0.0,0.0,0.0,0.0,0.0,0.0,0.0,1.0,1.0,0.0,0.0,0.0,0.0,0.0,0.0,0.0,1.0,0.0,1.0,0.0,1.0,0.0,0.7463255237551022,0.5417878857142857,0.5903958169080944,0.5903958169080944,3.0667222248778767,3.0,0.9999999999983062,3.0,0.0,0.2628926911695282,0.12513597673666654,0.0,43.0,0.0,0.0,1.0,1.0,0.5713245898668148,h106_move
h106_broad_conflict_consensus_c96_a065_f315d99a,770,110,id05,2024-10-02,2024-10-01,Q1,0,0.4457613572912907,0.4446197321658457,2.638097124085803e-06,0.2371828571428571,0.2893571428571428,0.2574944571428571,0.4836714285714286,0.1785714285714285,0.2760210285714286,1.0,1.0,0,0.0,0.0,0.0,0.0,0.0,0.0,0.0,0.0,0.0,0.0,0.0,0.0,0.1055051425367162,0.1785714285714285,0.5851428571428572,0.6034285714285714,0.0,0.0,,-0.606377142857143,0.4446010323705447,-0.0046977710067961,2.479994732684787e-06,0.0046977710067961,0.0,0.0,0.0,0.0907273428571428,0.4292185546786456,1,0.5707814453213543,6.006279015544573e-08,0.2898971428571428,-0.0295269485120191,0.0011591776230444,0.0005626725428305,0.984676949953438,0.2708571428571428,0.4847610851958686,0.1221519428571428,-0.0672285164342494,0.0005552949648749,0.442110294817913,-0.0147902736155348,1.0,9.846046346573267e-06,9.846046346573267e-06,0.9205714285714286,0.5262857142857142,0.7383428571428572,0.90416,0.0377015679222298,-0.0382115428571428,2.0,1.0,1.0,0.44176706827309237,0.3577789366275641,-0.9338063142352645,0.8901457403773968,-0.45567593845624127,4.0,0.15,21.0,1.0,0.0,0.0,0.0,0.0,0.0,0.0,0.0,0.0,0.0,1.0,1.0,0.0,0.0,0.0,0.0,0.0,0.0,0.0,0.0,0.0,1.0,0.0,1.0,0.0,1.0,0.0,0.6675800777142857,0.28291313142857144,0.7048775180136815,0.7048775180136815,7.385517813154017,7.0,0.9999999999985814,7.0,0.0,0.128521092677482,0.06203632545477096,0.0,34.0,0.0,0.0,1.0,1.0,0.4149590645640044,h106_move
h106_broad_conflict_consensus_c96_a065_f315d99a,772,110,id05,2024-10-02,2024-10-01,Q3,2,0.6435229466437378,0.6455589159043185,9.04247349553522e-06,0.2650971428571428,0.2893571428571428,0.1146687428571428,0.6491428571428571,0.4982857142857143,0.3051725714285714,1.0,1.0,0,0.0,0.0,0.0,0.0,0.0,0.0,0.0,0.0,0.0,0.0,0.0,0.0310407121432734,0.0367577482521876,0.6508571428571429,0.3988571428571428,0.3765714285714285,0.0,0.0,,-0.710837142857143,0.6455535212431254,0.0088629491808219,8.185568658225506e-06,0.0088629491808219,0.0,0.0,0.0,0.0363761999999999,0.6442829447483399,1,0.6442829447483399,2.153701245251061e-07,0.4975200000000001,-0.0580614251352461,0.0015030190240538,0.0005682250880681,0.9943939041192168,0.5474285714285714,0.2170454891366399,0.2052502285714285,0.0033145443944393,1.2593234758329077e-06,0.6436902084063603,0.0007291997667763,1.0,-1.419708776539963e-06,0.0,0.4542857142857143,0.4485714285714285,0.4537714285714286,0.9171657142857144,-0.0613759695296854,-0.0121528,2.0,1.0,1.0,0.44176706827309237,0.3577789366275641,-0.9338063142352645,0.8901457403773968,-0.45567593845624127,4.0,0.15,21.0,0.0,0.0,1.0,0.0,0.0,0.0,0.0,0.0,0.0,0.0,1.0,1.0,0.0,0.0,0.0,0.0,0.0,0.0,0.0,0.0,0.0,1.0,0.0,1.0,0.0,1.0,0.0,0.4161835964081633,0.2498761485714286,-0.5914974854886104,0.5914974854886104,2.9226143636096533,3.0,0.9999999999983095,0.0,3.0,0.20238642937416673,-0.13155117909316336,0.0,34.0,0.0,0.0,1.0,1.0,0.5892457033027041,h106_move
h106_broad_conflict_consensus_c96_a065_f315d99a,773,110,id05,2024-10-02,2024-10-01,S1,3,0.3056001244245433,0.3110822546809208,7.057753952244283e-05,0.3760514285714286,0.2893571428571428,-0.1615444571428571,0.9791428571428572,0.976,0.4021014857142857,0.0,1.0,0,0.0,0.0,0.0,0.0,0.0,0.0,0.0,0.0,0.0,0.0,0.0,0.5338642750937583,0.0,0.9782857142857144,0.0777142857142857,0.1788571428571428,0.0,0.0,,-0.8408714285714286,0.3109228312939359,0.0249620044578845,6.0536909005648454e-05,0.0249620044578845,0.0,0.0,0.0,0.0106631142857142,0.3280865985574698,0,0.6719134014425301,7.07270156879589e-07,0.8127885714285715,-0.103914952574892,0.0046335205166585,0.0004988658735812,0.8730152787671973,0.0251428571428571,0.617569535666361,-0.0207438285714286,0.1039186479338416,0.0011757968820913,0.3104731064038094,0.0228621025454448,1.0,-6.606645263562694e-05,0.0,0.4542857142857143,0.5617142857142857,0.5061428571428572,0.9841714285714288,-0.207833600508734,-0.0541572571428571,2.0,1.0,1.0,0.44176706827309237,0.3577789366275641,-0.9338063142352645,0.8901457403773968,-0.45567593845624127,4.0,0.15,21.0,0.0,0.0,0.0,1.0,0.0,0.0,0.0,0.0,0.0,0.0,1.0,1.0,0.0,0.0,0.0,0.0,0.0,0.0,0.0,0.0,0.0,0.0,1.0,0.0,1.0,1.0,0.0,0.4981313387755104,0.4053762742857143,-0.5721802409466034,0.5721802409466034,5.012275497275295,5.0,0.9999999999982523,0.0,5.0,0.2552,-0.07420125985042013,0.0,34.0,0.0,0.0,1.0,1.0,0.398142843855659,h106_move
h106_broad_conflict_consensus_c96_a065_f315d99a,776,110,id05,2024-10-02,2024-10-01,S4,6,0.4438495786612846,0.4451675276483861,3.517651817719347e-06,0.2391714285714286,0.2893571428571428,-0.0912718571428571,0.8011428571428572,0.8748571428571429,0.3034004571428571,0.0,1.0,0,0.0,0.0,0.0,0.0,0.0,0.0,0.0,0.0,0.0,0.0,0.0,0.1517560969078651,0.0055488407941821,0.8748571428571429,0.2114285714285714,0.1788571428571428,0.0,0.0,,-0.8335457142857143,0.4451219697262338,0.0051530909657626,2.983565084324624e-06,0.0051530909657626,0.0,0.0,0.0,-0.068577,0.4632074008694939,0,0.536792599130506,7.647812904665928e-08,0.2794971428571428,0.0331756448528687,0.0011639351142216,0.0005573933773258,0.975438410320314,0.168,0.5618931275998716,-0.0022037142857142,0.0781161866856486,0.0007569947114121,0.4480957780680643,0.0171855610708425,1.0,1.46086126527889e-05,1.46086126527889e-05,0.9274285714285714,0.5394285714285715,0.7487999999999999,0.9094228571428572,-0.04494054183278,-0.1995107428571428,2.0,1.0,1.0,0.44176706827309237,0.3577789366275641,-0.9338063142352645,0.8901457403773968,-0.45567593845624127,4.0,0.15,21.0,0.0,0.0,0.0,0.0,0.0,0.0,1.0,0.0,0.0,0.0,1.0,1.0,0.0,0.0,0.0,0.0,0.0,0.0,0.0,0.0,0.0,0.0,1.0,0.0,1.0,1.0,0.0,0.6809758354285714,0.47316624,-0.8541735757809384,0.8541735757809384,7.092422022000161,7.0,0.9999999999988293,0.0,7.0,0.15188243487824934,-0.07828254192084216,0.0,34.0,0.0,0.0,1.0,1.0,0.47584522976756954,h106_move
h106_broad_conflict_consensus_c96_a065_f315d99a,945,135,id06,2024-07-14,2024-07-13,Q1,0,0.3265168623517541,0.332467224835243,8.025667657762803e-05,0.3744571428571428,0.4153771428571429,-0.0994901714285714,0.9742571428571428,0.9685714285714284,0.3800493714285714,0.0,1.0,0,0.0,0.0,0.0,0.0,0.0,0.0,0.0,0.0,0.0,0.0,0.0,0.5725434492673942,0.0,0.9817142857142858,0.0777142857142857,0.1788571428571428,0.0,0.0,,-0.8262657142857144,0.3323169909206154,0.0262571471809444,6.938334396489054e-05,0.0262571471809444,0.0,0.0,0.0,0.0315527428571428,0.344659554634995,1,0.655340445365005,9.866239582278026e-07,0.6901028571428571,-0.123946419174583,0.0014640261314393,0.0003771091657354,0.6599410400369783,0.0062857142857142,0.7984103847618609,-0.0157502857142857,0.081383632605916,0.0007415524517681,0.335027405247487,0.0384478717404617,1.0,-5.975131469893036e-05,0.0,0.4542857142857143,0.6268571428571429,0.5252571428571429,0.9829828571428572,-0.1743681471515381,-0.0398052571428571,6.0,5.0,1.0,0.5421686746987951,-0.2618644849608063,-0.9651046531419334,-0.7137661126871386,-0.7003841348713511,5.0,0.30434782608695654,24.0,1.0,0.0,0.0,0.0,0.0,0.0,0.0,0.0,0.0,0.0,0.0,0.0,0.0,0.0,0.0,0.0,0.0,0.0,1.0,1.0,0.0,1.0,0.0,1.0,0.0,1.0,0.0,0.5163187670204081,0.42969570285714287,-1.2127575751886164,1.2127575751886164,4.879188064368772,5.0,0.9999999999991753,0.0,5.0,0.3536,-0.1615622135225939,0.0,9.0,0.0,1.0,1.0,1.0,0.8609657541070516,h106_move
h106_broad_conflict_consensus_c96_a065_f315d99a,947,135,id06,2024-07-14,2024-07-13,Q3,2,0.8233562803446187,0.8211995281478749,1.5940535035174896e-05,0.2876571428571428,0.4153771428571429,-0.0838771142857143,0.9258,0.964,0.3306977142857142,1.0,1.0,0,0.0,0.0,0.0,0.0,0.0,0.0,0.0,0.0,0.0,0.0,0.0,0.2445756176535394,0.0,0.9285714285714286,0.0777142857142857,0.1788571428571428,0.0,0.0,,-0.7948314285714286,0.8212701536208874,-0.0142775087436182,1.3569943485169931e-05,0.0142775087436182,0.0,0.0,0.0,0.0141144571428571,0.8135768926925118,0,0.8135768926925118,6.984182582356931e-08,0.3558057142857143,0.0404020375392994,0.0006730519548812,0.0005742784329964,1.0049872577438463,0.7342857142857143,0.3838669842879127,0.360628,-0.0658326085220084,0.0003241510323629,0.8192405880794565,-0.0280433228436189,1.0,-9.664076740523164e-07,0.0,0.4542857142857143,0.5822857142857143,0.4927714285714286,0.93888,0.1062346460613079,-0.0398117714285714,6.0,5.0,1.0,0.5421686746987951,-0.2618644849608063,-0.9651046531419334,-0.7137661126871386,-0.7003841348713511,5.0,0.30434782608695654,24.0,0.0,0.0,1.0,0.0,0.0,0.0,0.0,0.0,0.0,0.0,0.0,0.0,0.0,0.0,0.0,0.0,0.0,0.0,1.0,1.0,0.0,1.0,0.0,1.0,0.0,1.0,0.0,0.4626532388571429,0.4524815657142857,1.2771676109704337,1.2771676109704337,5.87344660832074,6.0,0.999999999999217,6.0,0.0,0.3179282648503024,0.14134102214440475,0.0,9.0,0.0,1.0,1.0,1.0,0.8125913534154581,h106_move
h106_broad_conflict_consensus_c96_a065_f315d99a,948,135,id06,2024-07-14,2024-07-13,S1,3,0.9734003575300472,0.973869257464141,4.27031754200724e-06,0.2894857142857143,0.4153771428571429,0.3433262285714286,0.4297285714285715,0.1785714285714285,0.3458441142857142,1.0,1.0,0,2.0,1.93657810305736,1.0,1.0,0.0182668759527704,-6.783755927062974e-09,-4.27031754200724e-06,1.0,0.0,0.0,0.0,0.0,0.6721905000622236,0.1785714285714285,0.9554285714285714,0.9554285714285714,0.0,0.0,,0.5057228571428571,0.974056188023359,0.0256381782046499,7.623804536976975e-06,0.0256381782046499,1.0,0.0,1.0,0.3323978857142857,0.980817671875396,1,0.980817671875396,7.548363998751178e-07,0.7854285714285714,0.3446132577608978,0.0004295859545019,0.0005796575197187,1.0144006595078832,0.816,0.6653164722172068,0.6087560000000001,0.3344994478363832,0.0011746399717037,0.9765267673632434,0.1282437362729367,1.0,0.000120434605223,0.000120434605223,0.9697142857142858,0.8891428571428571,0.8942,0.8769542857142857,0.0101138099245203,0.1683793142857143,6.0,5.0,1.0,0.5421686746987951,-0.2618644849608063,-0.9651046531419334,-0.7137661126871386,-0.7003841348713511,5.0,0.30434782608695654,24.0,0.0,0.0,0.0,1.0,0.0,0.0,0.0,0.0,0.0,0.0,0.0,0.0,0.0,0.0,0.0,0.0,0.0,0.0,1.0,1.0,0.0,0.0,1.0,0.0,1.0,0.0,1.0,0.0,0.4472482171428571,-0.11986594223221869,0.11986594223221869,0.886584014171012,1.0,0.9999999999916573,0.0,1.0,0.13519975582268723,-0.08787984128464758,0.0,9.0,0.0,1.0,1.0,0.0,0.17019550791961327,h106_move
h106_broad_conflict_consensus_c96_a065_f315d99a,949,135,id06,2024-07-14,2024-07-13,S2,4,0.9120002370412033,0.9128559625035724,4.575502052239777e-06,0.3906628571428571,0.4153771428571429,0.2220676,0.6870285714285714,0.6325714285714286,0.400656,0.0,1.0,0,0.0,0.0,0.0,0.0,0.0,0.0,0.0,0.0,0.0,0.0,0.0,0.0306072182800029,0.0387905347810696,0.6485714285714286,0.4114285714285714,0.3845714285714285,0.0,0.0,,-0.6916942857142857,0.9128484616979826,0.0106153362211465,4.091754492618893e-06,0.0106153362211465,0.0,0.0,0.0,0.0204137714285714,0.9250982584531292,1,0.9250982584531292,2.2462660630838865e-07,0.7114057142857144,0.1055641087159346,0.0028894661390598,0.0005657735831001,0.9901037704252228,0.4017142857142857,0.1604154161182626,0.1480686857142857,0.1754166861823174,0.0011206919463118,0.916900949362351,0.062660043836634,1.0,0.0001017187385513,0.0001017187385513,0.9645714285714284,0.7251428571428571,0.8401142857142857,0.9117314285714286,-0.0698525774663827,-0.1410235428571428,6.0,5.0,1.0,0.5421686746987951,-0.2618644849608063,-0.9651046531419334,-0.7137661126871386,-0.7003841348713511,5.0,0.30434782608695654,24.0,0.0,0.0,0.0,0.0,1.0,0.0,0.0,0.0,0.0,0.0,0.0,0.0,0.0,0.0,0.0,0.0,0.0,0.0,1.0,1.0,0.0,0.0,1.0,0.0,1.0,1.0,0.0,0.765958597877551,0.5573068457142858,-0.5185178076511873,0.5185178076511873,2.8910092992246947,3.0,0.9999999999980714,0.0,3.0,0.18669755972898472,-0.11658093768966464,0.0,9.0,0.0,1.0,1.0,1.0,0.5244759131335283,h106_move
h106_broad_conflict_consensus_c96_a065_f315d99a,951,135,id06,2024-07-14,2024-07-13,S4,6,0.8326790220313127,0.833879711711521,5.183653563278767e-06,0.2921257142857143,0.4153771428571429,-0.1112793428571428,0.8874,0.9285714285714286,0.3429414857142857,1.0,1.0,0,0.0,0.0,0.0,0.0,0.0,0.0,0.0,0.0,0.0,0.0,0.0,0.3617674279706701,0.0,0.9582857142857144,0.0777142857142857,0.1788571428571428,0.0,0.0,,-0.7936942857142857,0.8337650677901544,0.0078153785157646,3.859087214619361e-06,0.0078153785157646,0.0,0.0,0.0,-0.0153674857142856,0.8312358502886998,1,0.8312358502886998,3.840924880026521e-07,0.6961371428571429,-0.0989839981964375,0.0011361898931917,0.0005810148178281,1.016775931199321,0.8325714285714285,0.5783184363674189,0.3844385142857142,-0.010322855520866,7.457335124527731e-06,0.8329793279449548,0.0021569871909787,1.0,-2.0186312811865115e-06,0.0,0.4542857142857143,0.4594285714285714,0.4581428571428572,0.9290628571428572,-0.0886611426755714,-0.0597717714285714,6.0,5.0,1.0,0.5421686746987951,-0.2618644849608063,-0.9651046531419334,-0.7137661126871386,-0.7003841348713511,5.0,0.30434782608695654,24.0,0.0,0.0,0.0,0.0,0.0,0.0,1.0,0.0,0.0,0.0,0.0,0.0,0.0,0.0,0.0,0.0,0.0,0.0,1.0,1.0,0.0,0.0,1.0,0.0,1.0,1.0,0.0,0.42564351183673477,0.4147663657142857,-0.595786609636461,0.595786609636461,2.961152603344292,3.0,0.9999999999983216,0.0,3.0,0.2768576546782779,-0.13078059395729905,0.0,9.0,0.0,1.0,1.0,1.0,0.5726101044421235,h106_move
h106_broad_conflict_consensus_c96_a065_f315d99a,958,136,id06,2024-07-16,2024-07-15,S4,6,0.8793211893789878,0.8800493904202091,2.5029338155957426e-06,0.3645828571428571,0.5588971428571429,0.1084819428571429,0.7967428571428572,0.7268571428571429,0.3787347428571428,1.0,1.0,0,0.0,0.0,0.0,0.0,0.0,0.0,0.0,0.0,0.0,0.0,0.0,0.1594115670323823,0.0,0.8822857142857143,0.0777142857142857,0.1788571428571428,0.0,0.0,,-0.7095342857142858,0.8799999511198453,0.0064120263061722,1.9788838113155016e-06,0.0064120263061722,0.0,0.0,0.0,0.0212581142857142,0.8834973597348148,1,0.8834973597348148,8.471331549768475e-09,0.3511542857142857,-0.0171551486596812,0.0031343608795367,0.0005683629451615,0.9946351540327674,0.5531428571428572,0.5888697722476787,0.1944567999999999,0.039956691866398,8.300913775149965e-05,0.8807134130136618,0.0131857083159114,1.0,2.441039736456041e-07,2.441039736456041e-07,0.9085714285714286,0.5165714285714286,0.7216285714285715,0.9087942857142858,-0.0571118405260793,-0.0966108571428571,1.0,0.0,1.0,0.5461847389558233,-0.2861316735085688,-0.9581903075147368,-0.7646910926171749,-0.6443970304648767,5.0,0.34782608695652173,24.0,0.0,0.0,0.0,0.0,0.0,0.0,1.0,0.0,1.0,1.0,0.0,0.0,0.0,0.0,0.0,0.0,0.0,0.0,0.0,0.0,0.0,0.0,1.0,0.0,1.0,1.0,0.0,0.6558119221224491,0.47814422857142863,-2.3393413061555672,2.3393413061555672,14.774026075731031,15.0,0.9999999999995725,0.0,15.0,0.1896535594502595,-0.10292196867709782,0.0,8.0,1.0,1.0,1.0,1.0,0.8604718556778779,h106_move
h106_broad_conflict_consensus_c96_a065_f315d99a,975,139,id06,2024-07-19,2024-07-18,Q3,2,0.7439595438752091,0.7399677023608381,4.16859280448767e-05,0.3280228571428571,0.5280971428571429,-0.0332376571428571,0.9586285714285714,0.9811428571428572,0.3647565714285714,0.0,1.0,0,0.0,0.0,0.0,0.0,0.0,0.0,0.0,0.0,0.0,0.0,0.0,0.3736466735880533,0.0,0.9617142857142856,0.0777142857142857,0.1788571428571428,0.0,0.0,,-0.8055971428571429,0.7400840689307989,-0.020245643390468,3.5750219449570686e-05,0.020245643390468,0.0,0.0,0.0,0.0240670285714286,0.7314817680775492,1,0.7314817680775492,5.469611738723606e-07,0.7339085714285715,0.0994963433248757,0.0056064356772304,0.0005687243082713,0.9952675394748086,0.5782857142857143,0.415144879432044,0.2598524571428571,-0.0644977115049467,0.0004044507406137,0.7354432689956294,-0.0442335008621266,1.0,1.6260783992305683e-05,1.6260783992305683e-05,0.9297142857142856,0.6497142857142857,0.784,0.973,0.1639940548298225,-0.1154598857142857,4.0,3.0,1.0,0.5582329317269076,-0.3577789366275639,-0.9338063142352645,-0.8901457403773956,-0.4556759384562435,5.0,0.4782608695652174,24.0,0.0,0.0,1.0,0.0,0.0,0.0,0.0,0.0,0.0,0.0,0.0,0.0,0.0,0.0,1.0,1.0,0.0,0.0,0.0,0.0,0.0,1.0,0.0,1.0,0.0,1.0,0.0,0.7628320000000001,0.44296686857142864,0.271286678673206,0.271286678673206,2.971552713505406,3.0,0.999999999996314,3.0,0.0,0.10628115668614298,0.05934148175669029,0.0,5.0,1.0,1.0,1.0,1.0,0.2791622987126774,h106_move
h106_broad_conflict_consensus_c96_a065_f315d99a,979,139,id06,2024-07-19,2024-07-18,S4,6,0.8268174475003207,0.8280647752584297,5.443071396993293e-06,0.2987828571428571,0.5280971428571429,-0.0621637714285713,0.8908857142857144,0.8897142857142857,0.3496909714285714,1.0,1.0,0,0.0,0.0,0.0,0.0,0.0,0.0,0.0,0.0,0.0,0.0,0.0,0.3410531498239687,0.0,0.9548571428571428,0.0777142857142857,0.1788571428571428,0.0,0.0,,-0.7669400000000001,0.8279578930664663,0.0079853695822413,4.14051900110568e-06,0.0079853695822413,0.0,0.0,0.0,0.0013515428571428,0.8320067417020486,0,0.8320067417020486,8.242813150596908e-08,0.4974857142857143,-0.0463207552654163,0.0051338467753729,0.0005824135970977,1.0192237949209952,0.8422857142857143,0.7491083425639209,0.3983379428571428,0.0366790192570158,9.478581098798512e-05,0.8300902641257938,0.0230294411245872,1.0,1.1516764712005134e-05,1.1516764712005134e-05,0.9228571428571428,0.5622857142857143,0.7513428571428572,0.9256342857142856,-0.0829997745224322,-0.1207928,4.0,3.0,1.0,0.5582329317269076,-0.3577789366275639,-0.9338063142352645,-0.8901457403773956,-0.4556759384562435,5.0,0.4782608695652174,24.0,0.0,0.0,0.0,0.0,0.0,0.0,1.0,0.0,0.0,0.0,0.0,0.0,0.0,0.0,1.0,1.0,0.0,0.0,0.0,0.0,0.0,0.0,1.0,0.0,1.0,1.0,0.0,0.6954687088979592,0.4912916914285715,-0.7578645203678532,0.7578645203678532,3.974071712354741,4.0,0.9999999999986805,0.0,4.0,0.26245316145770603,-0.1239564793729138,0.0,5.0,1.0,1.0,1.0,1.0,0.6572857947236307,h106_move
h106_broad_conflict_consensus_c96_a065_f315d99a,1001,143,id06,2024-08-13,2024-08-12,Q1,0,0.2092269005697418,0.2089219578518885,2.8112041883243677e-07,0.2036971428571428,0.7239771428571429,0.4493369714285714,0.4697285714285715,0.1785714285714285,0.2708112,1.0,1.0,0,11.0,8.46508252903368,2.0,1.0,-0.001844088639247,-2.5733492812731393e-10,-2.811204188324367e-07,1.0,1.0,0.0,0.0,0.0,0.2475444819520837,0.1785714285714285,0.8182857142857143,0.8182857142857143,0.0,0.0,,0.5362942857142857,0.2088731251040907,-0.0021395802130861,3.443420287796428e-07,0.0021395802130861,0.0,0.0,1.0,0.2474148,0.1954998359663392,0,0.8045001640336608,2.029760534566282e-07,0.5569485714285715,-0.0679898442374993,0.0026140759999864,0.0005749680522457,1.006194091430059,0.748,0.6201089184571771,0.5372242285714286,-0.0850698678716392,0.0005789513017284,0.2002522879358252,-0.0551265446534379,1.0,0.0002292094574748,0.0002292094574748,0.9862857142857144,0.6948571428571428,0.8541142857142858,0.8878,0.0170800236341399,0.0637723428571428,1.0,0.0,1.0,0.5742971887550201,-0.4500514963711879,-0.8930026039234458,-0.9855293386108991,-0.16950493425609692,5.0,0.6521739130434783,24.0,1.0,0.0,0.0,0.0,0.0,0.0,0.0,0.0,1.0,1.0,0.0,0.0,0.0,0.0,0.0,0.0,0.0,0.0,0.0,0.0,0.0,1.0,0.0,1.0,0.0,1.0,0.0,0.758282662857143,0.46207152000000007,0.37001712551727584,0.37001712551727584,6.402001538901983,6.0,0.9999999999972975,6.0,0.0,0.059197460129195315,0.03756811524094731,0.0,1.0,1.0,1.0,1.0,1.0,0.2619464330103525,h106_move
h106_broad_conflict_consensus_c96_a065_f315d99a,1003,143,id06,2024-08-13,2024-08-12,Q3,2,0.7974211568605402,0.7976028404050293,1.0219184443105437e-07,0.1975142857142857,0.7239771428571429,0.3612903428571428,0.4418571428571428,0.428,0.2734751428571428,1.0,1.0,0,9.0,6.528504425976319,2.0,1.0,0.0011250688438861,-5.3973778056587786e-11,-1.0219184443105437e-07,1.0,1.0,0.0,0.0,0.0036869899416043,0.2033244741112442,0.4194285714285714,0.7645714285714286,0.7622857142857142,0.0,0.0,,0.4938285714285715,0.7976486346250319,0.0014087668147091,1.4579317042517914e-07,0.0014087668147091,0.0,0.0,1.0,0.2141395999999999,0.8042915887861274,0,0.8042915887861274,6.427869809191278e-08,0.4171542857142857,0.038301195431796,0.0034032669145295,0.000583616319535,1.02132855918633,0.8502857142857143,0.3996342215272672,0.5556594285714285,0.0430822151337688,0.0001473572723578,0.801907638378985,0.02800623506122,1.0,5.662968595832041e-05,5.662968595832041e-05,0.9542857142857144,0.5817142857142857,0.7860285714285715,0.8718800000000001,-0.0047810197019728,0.0492705142857143,1.0,0.0,1.0,0.5742971887550201,-0.4500514963711879,-0.8930026039234458,-0.9855293386108991,-0.16950493425609692,5.0,0.6521739130434783,24.0,0.0,0.0,1.0,0.0,0.0,0.0,0.0,0.0,1.0,1.0,0.0,0.0,0.0,0.0,0.0,0.0,0.0,0.0,0.0,0.0,0.0,1.0,0.0,1.0,0.0,1.0,0.0,0.685322590857143,0.32353276571428574,-0.13726769775929218,0.13726769775929218,8.574774156156407,8.0,0.9999999999927149,0.0,8.0,0.0166369471915352,-0.010405405660680826,0.0,1.0,1.0,1.0,1.0,1.0,0.07743414315076068,h106_move
h106_broad_conflict_consensus_c96_a065_f315d99a,1010,144,id06,2024-08-14,2024-08-13,Q3,2,0.7530964107373385,0.7533060688078742,1.1822187706567187e-07,0.1906514285714285,0.670817142857143,0.3328430285714286,0.4842571428571429,0.4268571428571429,0.2659077142857142,1.0,1.0,0,3.0,1.4815760139224,1.0,1.0,0.0011278662604456,-5.3211147464858437e-11,-1.1822187706567182e-07,0.0,1.0,0.0,0.0,0.00365308581125,0.156435418150198,0.4182857142857142,0.6862857142857143,0.688,0.0,0.0,,0.4532971428571428,0.7533312901862517,0.0012635893748875,1.350275770084508e-07,0.0012635893748875,1.0,0.0,1.0,0.2487823428571428,0.7611739450510254,1,0.7611739450510254,4.467222197900529e-08,0.3201142857142857,0.029716187931472,0.0017199612737889,0.000627826127369,1.0986957228958183,0.9451428571428572,0.3740817901993886,0.643182742857143,0.0439311011078744,0.0001767593750644,0.7637201240802629,0.0579890534623943,1.0,0.0002959477991754,0.0002959477991754,0.992,0.7085714285714285,0.8645428571428572,0.919554285714286,-0.0458518275004828,0.1008794285714285,2.0,1.0,1.0,0.5783132530120482,-0.47243956847967067,-0.881363066014649,-0.9955262728085589,-0.09448513188803238,5.0,0.6956521739130435,24.0,0.0,0.0,1.0,0.0,0.0,0.0,0.0,0.0,0.0,0.0,1.0,1.0,0.0,0.0,0.0,0.0,0.0,0.0,0.0,0.0,0.0,1.0,0.0,1.0,0.0,1.0,0.0,0.794994089469388,0.7304870285714288,-2.2194546337737835,2.2194546337737835,14.610509212882812,12.0,0.9999999999995494,0.0,12.0,0.1843660595264805,-0.09874026229563637,1.0,0.0,1.0,1.0,1.0,1.0,0.9448706905684106,h106_move
h106_broad_conflict_consensus_c96_a065_f315d99a,1011,144,id06,2024-08-14,2024-08-13,S1,3,0.9371612173475234,0.938050068105242,6.737603625239785e-06,0.4181828571428572,0.670817142857143,0.3955945714285715,0.6061428571428571,0.5925714285714285,0.4131582857142857,1.0,1.0,0,6.0,4.40455491164904,2.0,1.0,0.0151939330276178,-6.324202084681502e-08,-6.737603625239785e-06,1.0,1.0,0.0,0.0,0.0138457385950436,0.1370545027048125,0.5348571428571428,0.6497142857142857,0.6337142857142857,0.0,0.0,,0.5285085714285714,0.9380567154476852,0.0153083269528511,6.2253993175220845e-06,0.0153083269528511,1.0,0.0,1.0,0.3138071428571428,0.9435072112803232,1,0.9435072112803232,4.9518479574132515e-08,0.518,0.0565603896332951,0.0020106260677631,0.0005674055906361,0.992959783613246,0.4982857142857143,0.487265744782802,0.3616179428571429,0.1132081278206009,0.0003532406767614,0.9454074004541292,0.1494347287231923,1.0,0.0004958561125027,0.0004958561125027,0.9994285714285714,0.9171428571428571,0.9388285714285716,0.9012857142857144,-0.0566477381873058,0.1303845714285714,2.0,1.0,1.0,0.5783132530120482,-0.47243956847967067,-0.881363066014649,-0.9955262728085589,-0.09448513188803238,5.0,0.6956521739130435,24.0,0.0,0.0,0.0,1.0,0.0,0.0,0.0,0.0,0.0,0.0,1.0,1.0,0.0,0.0,0.0,0.0,0.0,0.0,0.0,0.0,0.0,0.0,1.0,0.0,1.0,1.0,0.0,0.8461527795918369,0.7918176,-1.3357620967254356,1.3357620967254356,7.14915620997434,6.0,0.9999999999992513,0.0,6.0,0.23520000000000002,-0.1214472501887783,1.0,0.0,1.0,1.0,1.0,1.0,0.9219465357752265,h106_move
h106_broad_conflict_consensus_c96_a065_f315d99a,1012,144,id06,2024-08-14,2024-08-13,S2,4,0.9999959292610848,0.999999,1.666919095250906e-06,0.2473999999999999,0.670817142857143,0.4452796,0.1277285714285714,0.1785714285714285,0.36927,1.0,1.0,0,6.0,4.40455491164904,2.0,1.0,1.4038276053337364,-3.885961219697539e-10,-1.666919095250906e-06,1.0,1.0,0.0,0.0,0.0,9.635517453110577,0.1785714285714285,0.9965714285714286,0.9965714285714286,0.0,0.0,,0.6091914285714287,0.999999,1.4038276053337366,1.543528956725406e-06,1.4038276053337366,1.0,0.0,1.0,0.4963339428571429,0.999999,1,0.999999,1.6045441135884457e-08,0.5168628571428572,3.301327605306856,0.0,0.0006418679262943,1.1232688710151584,0.9514285714285714,0.909933617216266,0.7047982857142859,1.4038276053337366,1.666919095250906e-06,0.999999,1.4038276053337366,1.0,-1.666919095250906e-06,0.0,0.4542857142857143,0.984,0.6147428571428571,0.9294514285714288,1.8974999999731192,0.3850804571428571,2.0,1.0,1.0,0.5783132530120482,-0.47243956847967067,-0.881363066014649,-0.9955262728085589,-0.09448513188803238,5.0,0.6956521739130435,24.0,0.0,0.0,0.0,0.0,1.0,0.0,0.0,0.0,0.0,0.0,1.0,1.0,0.0,0.0,0.0,0.0,0.0,0.0,0.0,0.0,0.0,0.0,1.0,0.0,1.0,0.0,1.0,0.0,0.32724907428571437,0.08673912287588983,0.08673912287588983,3.4853869025730306,3.0,0.9999999999884711,3.0,0.0,0.02528117569636652,0.016176232781413814,1.0,0.0,1.0,1.0,0.0,1.0,0.06536982199438252,h106_move
h106_broad_conflict_consensus_c96_a065_f315d99a,1013,144,id06,2024-08-14,2024-08-13,S3,5,0.9522076528619444,0.951030851055967,1.509834010707256e-05,0.4260571428571428,0.670817142857143,0.0757880857142856,0.9469714285714286,0.9308571428571428,0.4453364571428572,1.0,1.0,0,0.0,0.0,0.0,0.0,0.0,0.0,0.0,0.0,0.0,0.0,0.0,0.337421922395201,0.0,0.9537142857142856,0.0777142857142857,0.1788571428571428,0.0,0.0,,-0.7011571428571429,0.9511648346262598,-0.0226808888572636,1.0793325352420611e-05,0.0226808888572636,0.0,0.0,0.0,0.0697650857142857,0.9463979428642126,1,0.9463979428642126,7.913949188770699e-08,0.5184228571428572,0.0736220453953238,0.0012356743014629,0.0005537828437696,0.969119976596906,0.1251428571428571,0.5912107460614958,0.0202428571428571,-0.1208419165152991,0.0003573805720112,0.9444020832456476,-0.1595113298001926,1.0,0.0004413604881809,0.0004413604881809,0.996,0.9268571428571428,0.9379714285714286,0.9526514285714286,0.1944639619106229,-0.1030012571428571,2.0,1.0,1.0,0.5783132530120482,-0.47243956847967067,-0.881363066014649,-0.9955262728085589,-0.09448513188803238,5.0,0.6956521739130435,24.0,0.0,0.0,0.0,0.0,0.0,1.0,0.0,0.0,0.0,0.0,1.0,1.0,0.0,0.0,0.0,0.0,0.0,0.0,0.0,0.0,0.0,0.0,1.0,0.0,1.0,1.0,0.0,0.8935598213877551,0.27296273142857147,1.295508827097103,1.295508827097103,3.6637693074013087,3.0,0.9999999999992281,3.0,0.0,0.3536,0.22,1.0,0.0,1.0,1.0,1.0,1.0,1.1823701962081288,h106_move
h106_broad_conflict_consensus_c96_a065_f315d99a,1057,151,id06,2024-08-25,2024-08-24,Q1,0,0.2931200235617892,0.2940047415236316,1.8877009515527732e-06,0.3332628571428572,0.7080171428571429,0.4039888571428572,0.5654857142857144,0.4817142857142857,0.3501362285714285,1.0,1.0,0,1.0,0.98640079466928,1.0,1.0,0.0042660984396376,-1.0020730809332893e-08,-1.8877009515527732e-06,1.0,0.0,0.0,0.0,0.0069087191295727,0.1085813693048932,0.46,0.5908571428571429,0.5965714285714285,0.0,0.0,,0.4900228571428571,0.2940407945891951,0.0044397867305515,1.860541860465581e-06,0.0044397867305515,1.0,0.0,1.0,0.2779978285714286,0.3160480568474452,1,0.6839519431525547,3.543989487264716e-07,0.5622057142857144,0.0767078893727275,0.0004647756016188,0.000563572964942,0.9862526886486588,0.3011428571428571,0.2390823668590611,0.2716846857142857,0.1082853490810346,0.001250143867855,0.2941165191992924,0.0048045551477717,1.0,-2.0308272858926557e-06,0.0,0.4542857142857143,0.4708571428571428,0.4616571428571429,0.8998400000000001,-0.0315774597083073,0.2318356571428572,6.0,5.0,1.0,0.606425702811245,-0.6199605408122385,-0.7846329892604547,-0.9067516281939827,0.42166513345018397,5.0,1.0,24.0,1.0,0.0,0.0,0.0,0.0,0.0,0.0,0.0,0.0,0.0,0.0,0.0,0.0,0.0,0.0,0.0,0.0,0.0,1.0,1.0,0.0,1.0,0.0,1.0,0.0,1.0,0.0,0.4154175634285715,0.5168146514285716,-1.018152310148583,1.018152310148583,11.74689253346193,8.0,0.9999999999990178,0.0,8.0,0.10831198261532259,-0.056338218785209546,1.0,0.0,1.0,1.0,1.0,1.0,0.5024455169649946,h106_move
h106_broad_conflict_consensus_c96_a065_f315d99a,1059,151,id06,2024-08-25,2024-08-24,Q3,2,0.8051517532471274,0.8030150111803502,1.4511156814778214e-05,0.3337085714285714,0.7080171428571429,0.1520932571428572,0.9230857142857144,0.956,0.3712925714285713,1.0,1.0,0,0.0,0.0,0.0,0.0,0.0,0.0,0.0,0.0,0.0,0.0,0.0,0.2271737521378298,0.006086278522037,0.9222857142857144,0.2165714285714285,0.1788571428571428,0.0,0.0,,-0.7007057142857144,0.8030744767017115,-0.0131878844070159,1.2479027673317766e-05,0.0131878844070159,0.0,0.0,0.0,0.0559329142857143,0.7951378735404838,1,0.7951378735404838,5.971452035624195e-08,0.3412114285714285,0.0361493346156307,0.0011125015620337,0.0005754150819827,1.0069763934697766,0.7565714285714286,0.4100387233611863,0.4062238857142857,-0.0626314127524751,0.0003155568519088,0.8043516859284782,-0.0050918768989105,1.0,-8.541367909509212e-06,0.0,0.4542857142857143,0.4731428571428571,0.4653428571428571,0.9348628571428572,0.0987807473681059,0.0054983999999999,6.0,5.0,1.0,0.606425702811245,-0.6199605408122385,-0.7846329892604547,-0.9067516281939827,0.42166513345018397,5.0,1.0,24.0,0.0,0.0,1.0,0.0,0.0,0.0,0.0,0.0,0.0,0.0,0.0,0.0,0.0,0.0,0.0,0.0,0.0,0.0,1.0,1.0,0.0,1.0,0.0,1.0,0.0,1.0,0.0,0.43503175297959185,0.4528153828571429,3.998567266883113,3.998567266883113,16.73032730699882,11.0,0.9999999999997499,11.0,0.0,0.3011836725881524,0.15535073975430214,1.0,0.0,1.0,1.0,1.0,1.0,1.432715219230763,h106_move
h106_broad_conflict_consensus_c96_a065_f315d99a,1148,164,id07,2024-07-26,2024-07-25,Q1,0,0.5726236359257583,0.5785182382955152,7.107495999258973e-05,0.3531828571428571,0.5277371428571428,-0.0308976285714285,0.9647428571428572,0.9491428571428572,0.3696770285714286,1.0,1.0,0,4.0,7.150759261260218,1.0,1.0,0.0107728068932244,-1.2662505403575502e-08,-4.8598608335352806e-05,0.0,0.0,0.0,1.0,0.2847313265208278,0.0,0.9405714285714286,0.0777142857142857,0.1788571428571428,1.0,1.0,seed_q061_companion,0.2934971428571428,0.5784324143683724,0.023777970260246,6.281269137575762e-05,0.023777970260246,0.0,1.0,1.0,0.2427167428571428,0.6057356549616199,0,0.6057356549616199,2.395791371501162e-07,0.5222971428571428,-0.0601479714388651,0.0028665154478622,0.0005256559126248,0.919897847093514,0.0462857142857142,0.2934742653132805,0.0831499428571428,0.1368584367882453,0.0022566059611043,0.5926098562501864,0.082201326412172,1.0,0.0003458175576152,0.0003458175576152,0.9942857142857144,0.7868571428571428,0.8911714285714286,0.9825542857142858,-0.1970064082271105,0.0275415999999998,4.0,3.0,1.0,0.6586345381526104,-0.839699808785118,-0.5430508550092121,-0.15082429716137438,0.9885605855918884,6.0,0.41379310344827586,30.0,1.0,0.0,0.0,0.0,0.0,0.0,0.0,0.0,0.0,0.0,0.0,0.0,0.0,0.0,1.0,1.0,0.0,0.0,0.0,0.0,0.0,1.0,0.0,1.0,0.0,1.0,0.0,0.8756243064489797,0.6744735314285715,-1.5688571519989594,1.5688571519989594,4.887968748948608,3.0,0.9999999999993625,0.0,3.0,0.3536,-0.2086259551103846,1.0,0.0,1.0,1.0,1.0,1.0,1.3058082026752087,h106_move
h106_broad_conflict_consensus_c96_a065_f315d99a,1150,164,id07,2024-07-26,2024-07-25,Q3,2,0.4259565486750093,0.4269931880734391,2.196973457047058e-06,0.2573485714285714,0.5277371428571428,0.3815033714285714,0.4755571428571428,0.1785714285714285,0.3029848571428571,1.0,1.0,0,4.0,7.150759261260218,1.0,1.0,0.0018921461975348,-3.1386519561959727e-09,-1.501803454773649e-06,0.0,0.0,0.0,1.0,0.0,0.1449356177140495,0.1785714285714285,0.6674285714285715,0.6782857142857143,1.0,1.0,seed_q061_companion,0.4895571428571429,0.4270190049503677,0.0043437215818961,2.100024117157595e-06,0.0043437215818961,1.0,0.0,1.0,0.2906211428571428,0.4461046069309509,0,0.5538953930690491,3.0615352131698396e-07,0.5612685714285714,0.0658539470598237,0.0014462362567198,0.0005931515106564,1.0380151436487377,0.8931428571428571,0.3058667154411794,0.6421355428571428,0.0819453714389487,0.0008269628319164,0.4365566105950964,0.043218942955514,1.0,0.0001829166359995,0.0001829166359995,0.9805714285714284,0.6462857142857142,0.8331428571428572,0.8843714285714287,-0.0160914243791249,0.1454114285714285,4.0,3.0,1.0,0.6586345381526104,-0.839699808785118,-0.5430508550092121,-0.15082429716137438,0.9885605855918884,6.0,0.41379310344827586,30.0,0.0,0.0,1.0,0.0,0.0,0.0,0.0,0.0,0.0,0.0,0.0,0.0,0.0,0.0,1.0,1.0,0.0,0.0,0.0,0.0,0.0,1.0,0.0,1.0,0.0,1.0,0.0,0.7368077387755103,0.5973442857142858,-0.41465595299658486,0.41465595299658486,8.518706264653822,6.0,0.9999999999975884,0.0,6.0,0.055798254557179135,-0.03163935474170283,1.0,0.0,1.0,1.0,1.0,1.0,0.26059553297462307,h106_move
h106_broad_conflict_consensus_c96_a065_f315d99a,1151,164,id07,2024-07-26,2024-07-25,S1,3,0.9223507042282848,0.9216005296464892,3.917279624177095e-06,0.2585542857142857,0.5277371428571428,-0.1077577142857144,0.9476857142857142,0.9794285714285714,0.3269070857142857,1.0,1.0,0,4.0,7.150759261260218,1.0,1.0,-0.0046557360965975,-2.455648310831864e-09,-2.6763739925174846e-06,0.0,0.0,0.0,1.0,0.580049688553327,0.0,0.9822857142857144,0.0777142857142857,0.1788571428571428,1.0,1.0,seed_q061_companion,0.24256,0.9217729289840444,-0.0080398963166077,2.11564951174692e-06,0.0080398963166077,0.0,1.0,1.0,0.1396150285714285,0.934273302796362,1,0.934273302796362,1.2071833231409308e-06,0.8719085714285715,0.2506320694487556,0.0026125534551015,0.0005915360823307,1.035188144078876,0.8891428571428571,0.8372818556296139,0.4899545142857143,0.1795407734626453,0.0010428642033394,0.9220945637329848,-0.0035709979341165,1.0,-1.6061254654586854e-06,0.0,0.4542857142857143,0.4657142857142857,0.4590857142857142,0.9133771428571428,0.0710912959861103,0.0364342857142856,4.0,3.0,1.0,0.6586345381526104,-0.839699808785118,-0.5430508550092121,-0.15082429716137438,0.9885605855918884,6.0,0.41379310344827586,30.0,0.0,0.0,0.0,1.0,0.0,0.0,0.0,0.0,0.0,0.0,0.0,0.0,0.0,0.0,1.0,1.0,0.0,0.0,0.0,0.0,0.0,0.0,1.0,0.0,1.0,1.0,0.0,0.4193183980408162,0.3923701142857143,0.627429161390421,0.627429161390421,3.9507382397950694,3.0,0.9999999999984063,3.0,0.0,0.2303355317051339,0.1032285436670249,1.0,0.0,1.0,1.0,1.0,1.0,0.5826843582830704,h106_move
h106_broad_conflict_consensus_c96_a065_f315d99a,1154,164,id07,2024-07-26,2024-07-25,S4,6,0.3773264958983826,0.3806992444389726,2.417989854019975e-05,0.3498857142857143,0.5277371428571428,-0.0450253714285713,0.9542,0.92,0.3851811428571428,1.0,1.0,0,4.0,7.150759261260218,1.0,1.0,0.006397676751739,-1.1884740666293036e-08,-1.652587185190865e-05,0.0,0.0,0.0,1.0,0.3149601376641728,0.0,0.9497142857142856,0.0777142857142857,0.1788571428571428,1.0,1.0,seed_q061_companion,0.2868685714285713,0.3806108503006162,0.0139551743480836,2.086447315363671e-05,0.0139551743480836,0.0,1.0,1.0,0.2017081142857142,0.3827457929282127,0,0.6172542070717872,4.143843838059222e-07,0.6303542857142858,-0.0798121694974146,0.0046721907240113,0.0005578411478312,0.9762220087046362,0.1765714285714285,0.6369021237462911,0.1225257142857142,0.0230015601792245,6.238347097342611e-05,0.3820022291534626,0.0198530550945121,1.0,-1.8827635697604705e-05,0.0,0.4542857142857143,0.5508571428571428,0.4944,0.9444742857142856,-0.1028137296766391,0.088597257142857,4.0,3.0,1.0,0.6586345381526104,-0.839699808785118,-0.5430508550092121,-0.15082429716137438,0.9885605855918884,6.0,0.41379310344827586,30.0,0.0,0.0,0.0,0.0,0.0,0.0,1.0,0.0,0.0,0.0,0.0,0.0,0.0,0.0,1.0,1.0,0.0,0.0,0.0,0.0,0.0,0.0,1.0,0.0,1.0,1.0,0.0,0.4669480868571428,0.39203521142857145,-0.7995159401798686,0.7995159401798686,3.9507382397950694,3.0,0.9999999999987492,0.0,3.0,0.31036696989556745,-0.13154132963861961,1.0,0.0,1.0,1.0,1.0,1.0,0.7488556161924332,h106_move
h106_broad_conflict_consensus_c96_a065_f315d99a,1372,196,id08,2024-09-11,2024-09-10,Q1,0,0.4882210432658963,0.4914552980203778,2.0930443240918528e-05,0.3540228571428571,0.4665371428571429,0.0489138,0.8997142857142858,0.8354285714285714,0.3498260571428572,1.0,1.0,0,0.0,0.0,0.0,0.0,0.0,0.0,0.0,0.0,0.0,0.0,0.0,0.1782692747856165,0.0,0.8971428571428571,0.0777142857142857,0.1788571428571428,0.0,0.0,,-0.75626,0.4913993877565197,0.0127187032801039,1.8393801898830553e-05,0.0127187032801039,0.0,0.0,0.0,0.0430785142857143,0.5111605648331664,0,0.5111605648331664,3.610571893522563e-09,0.2521142857142857,-0.0071745605544646,0.0059461204084951,0.0005573665920388,0.9753915360679752,0.1674285714285714,0.4731065567580037,0.0345021714285714,0.0917742215092823,0.0010526383261484,0.4932668527561128,0.020190328732042,1.0,-1.323671713049368e-05,0.0,0.4542857142857143,0.5531428571428572,0.4917428571428572,0.94248,-0.0989487820637469,-0.0122389714285714,2.0,1.0,1.0,0.7871485943775101,-0.9728829847220697,0.23129785567159294,0.7646910926171744,-0.6443970304648774,7.0,0.7777777777777778,19.0,1.0,0.0,0.0,0.0,0.0,0.0,0.0,0.0,0.0,0.0,1.0,1.0,0.0,0.0,0.0,0.0,0.0,0.0,0.0,0.0,0.0,1.0,0.0,1.0,0.0,1.0,0.0,0.463457808,0.4509399885714287,-1.3205383359920801,1.3205383359920801,6.979799920200953,7.0,0.9999999999992427,0.0,7.0,0.30157211855928917,-0.12297629276026822,0.0,32.0,0.0,0.0,1.0,1.0,0.7564154409952336,h106_move
h106_broad_conflict_consensus_c96_a065_f315d99a,1374,196,id08,2024-09-11,2024-09-10,Q3,2,0.2963200064304016,0.2968325774382657,6.297919104003569e-07,0.19404,0.4665371428571429,0.2008126857142857,0.5463714285714286,0.4165714285714286,0.2618688571428571,1.0,1.0,0,0.0,0.0,0.0,0.0,0.0,0.0,0.0,0.0,0.0,0.0,0.0,0.0114015618015418,0.1420097414442494,0.5114285714285715,0.6605714285714286,0.6508571428571429,0.0,0.0,,-0.6395857142857143,0.2968444829584942,0.0025140138640782,6.000243865100785e-07,0.0025140138640782,0.0,0.0,0.0,0.0459093142857142,0.3111475092637512,0,0.6888524907362488,1.316196039936255e-07,0.3977714285714286,0.0473205511205339,0.0013331809729006,0.0005779741344234,1.0114547352410452,0.7954285714285714,0.4091039252404732,0.4152299428571429,0.0701236748422622,0.0005222648125069,0.2995468779973178,0.0154272084652978,1.0,1.677373705688545e-05,1.677373705688545e-05,0.9302857142857144,0.5285714285714286,0.7481428571428572,0.8949828571428572,-0.0228031237217283,-0.0831121142857143,2.0,1.0,1.0,0.7871485943775101,-0.9728829847220697,0.23129785567159294,0.7646910926171744,-0.6443970304648774,7.0,0.7777777777777778,19.0,0.0,0.0,1.0,0.0,0.0,0.0,0.0,0.0,0.0,0.0,1.0,1.0,0.0,0.0,0.0,0.0,0.0,0.0,0.0,0.0,0.0,1.0,0.0,1.0,0.0,1.0,0.0,0.6695750318367348,0.25553450285714285,-0.2376978727753185,0.2376978727753185,3.0177594545083983,3.0,0.9999999999957929,0.0,3.0,0.0787663418368911,-0.05119812219396225,0.0,32.0,0.0,0.0,1.0,1.0,0.2342519560035995,h106_move
h106_broad_conflict_consensus_c96_a065_f315d99a,1514,216,id09,2024-09-07,2024-09-06,Q3,2,0.561573107889705,0.562248903897868,9.275702976818678e-07,0.25832,0.7008571428571428,0.2927635428571428,0.5907428571428572,0.5051428571428571,0.3136194285714285,1.0,1.0,0,0.0,0.0,0.0,0.0,0.0,0.0,0.0,0.0,0.0,0.0,0.0,0.0151677844480334,0.0369358356834338,0.5434285714285715,0.4005714285714286,0.4154285714285714,0.0,0.0,,-0.6041628571428572,0.5622498281808038,0.0027490300676703,8.464062550839202e-07,0.0027490300676703,0.0,0.0,0.0,0.0773387428571428,0.5584891832055837,1,0.5584891832055837,5.1471516030221246e-08,0.3424457142857143,-0.0273122302451104,0.0040329429551092,0.0005749452512714,1.0061541897251,0.7474285714285714,0.254107815425712,0.4086269714285714,-0.0125161606129137,1.9304281964616088e-05,0.5618337337533557,0.0010586255517181,1.0,-5.784377883344405e-07,0.0,0.4542857142857143,0.452,0.4528285714285714,0.8854000000000001,-0.0147960696321967,0.0221749714285713,5.0,4.0,1.0,0.8674698795180723,-0.7397584510798205,0.6728725243729192,-0.599966101448695,-0.8000254227913349,8.0,0.5769230769230769,27.0,0.0,0.0,1.0,0.0,0.0,0.0,0.0,0.0,0.0,0.0,0.0,0.0,0.0,0.0,0.0,0.0,1.0,1.0,0.0,0.0,0.0,1.0,0.0,1.0,0.0,1.0,0.0,0.40093441714285716,0.26142321142857144,-0.3355739712637491,0.3355739712637491,6.536684310260825,6.0,0.99999999999702,0.0,6.0,0.05133703194706661,-0.0333690707655882,0.0,52.0,0.0,0.0,1.0,1.0,0.20662882221750328,h106_move
h106_broad_conflict_consensus_c96_a065_f315d99a,1588,226,id09,2024-09-21,2024-09-20,S4,6,0.7104535414465696,0.7110198835302667,7.799049277501524e-07,0.2826114285714286,0.5007771428571429,0.3803166285714286,0.4467285714285715,0.1785714285714285,0.3474061714285714,1.0,1.0,0,2.0,1.93657810305736,1.0,1.0,0.0027547162616905,-1.664293927511782e-09,-7.799049277501525e-07,1.0,0.0,0.0,0.0,0.0,0.2177525377063177,0.1785714285714285,0.7822857142857143,0.7834285714285715,0.0,0.0,,0.50158,0.7110755884780996,0.0030258408548433,8.562511311094312e-07,0.0030258408548433,1.0,0.0,1.0,0.2848805142857142,0.7253842671965738,1,0.7253842671965738,2.206396430290567e-07,0.6813028571428571,0.0614132157370143,0.0049648432062501,0.0005549856304347,0.971224853260826,0.1394285714285714,0.8634167914483498,0.2099168,0.0737409588063007,0.0005475538557093,0.7158923589273024,0.0265888406197017,1.0,5.590302905544853e-05,5.590302905544853e-05,0.9537142857142856,0.5765714285714286,0.7840857142857143,0.8783542857142858,-0.0123277430692864,0.1520126857142857,5.0,4.0,1.0,0.9076305220883534,-0.5483371924577639,0.8362573308303713,-0.9855293386108988,-0.16950493425609892,8.0,0.9615384615384616,27.0,0.0,0.0,0.0,0.0,0.0,0.0,1.0,0.0,0.0,0.0,0.0,0.0,0.0,0.0,0.0,0.0,1.0,1.0,0.0,0.0,0.0,0.0,1.0,0.0,1.0,1.0,0.0,0.6887050475102041,0.7385512114285714,-0.039622218755372716,0.039622218755372716,0.9254185123888681,1.0,0.9999999999747616,0.0,1.0,0.04281545941099907,-0.02783004861711932,0.0,62.0,0.0,0.0,1.0,1.0,0.08408622165085358,h106_move
h106_broad_conflict_consensus_c96_a065_f315d99a,1648,235,id10,2024-08-18,2024-08-17,S1,3,0.4417929445429617,0.4398709071831416,7.492245988616197e-06,0.30676,0.5461771428571429,0.4148501142857143,0.5146714285714286,0.1785714285714285,0.3663373714285714,1.0,1.0,0,2.0,1.93657810305736,1.0,1.0,-0.0077973493311028,-3.1725781293275054e-09,-7.492245988616198e-06,1.0,0.0,0.0,0.0,0.0,0.1636737056440429,0.1785714285714285,0.6988571428571428,0.7045714285714286,0.0,0.0,,0.5150028571428572,0.4398418298912831,-0.0079153660860226,7.025978487229523e-06,0.0079153660860226,0.0,0.0,1.0,0.2543275428571429,0.4179947324889194,1,0.5820052675110805,1.93917057404474e-07,0.4762514285714286,-0.052437884996985,0.0007453739810781,0.0005665154730841,0.9914020778972672,0.4388571428571428,0.3750616430908325,0.3326517714285714,-0.0971220280322209,0.0011530415904558,0.4365303704696214,-0.0213668461670888,1.0,1.4557500645162593e-05,1.4557500645162593e-05,0.9268571428571428,0.5577142857142857,0.7538,0.9074514285714288,0.0446841430352355,0.1104748571428571,6.0,5.0,1.0,0.9437751004016064,-0.3459690901728594,0.9382459105399628,-0.8722647273621952,0.4890339920698307,9.0,0.3333333333333333,22.0,0.0,0.0,0.0,1.0,0.0,0.0,0.0,0.0,0.0,0.0,0.0,0.0,0.0,0.0,0.0,0.0,0.0,0.0,1.0,1.0,0.0,0.0,1.0,0.0,1.0,1.0,0.0,0.684036886857143,0.23954177142857144,0.7475981156060085,0.7475981156060085,4.9488293131076055,5.0,0.9999999999986624,5.0,0.0,0.151065649733746,0.09819267232691507,0.0,71.0,0.0,0.0,1.0,1.0,0.5766177592417523,h106_move
h106_broad_conflict_consensus_c96_a065_f315d99a,1651,235,id10,2024-08-18,2024-08-17,S4,6,0.694453103168171,0.692519258745744,8.80199338038068e-06,0.3776571428571428,0.5461771428571429,0.3415236571428572,0.6363714285714286,0.4611428571428571,0.4020548571428571,1.0,1.0,0,2.0,1.93657810305736,1.0,1.0,-0.0090977656768795,-1.5153059639965843e-08,-8.80199338038068e-06,1.0,0.0,0.0,0.0,0.0110276853229074,0.0677063922836001,0.5062857142857143,0.4914285714285714,0.5017142857142857,0.0,0.0,,0.4595371428571428,0.6925099213035104,-0.0091416161705367,8.086645592486619e-06,0.0091416161705367,0.0,0.0,1.0,0.2121241714285714,0.6754200404553632,1,0.6754200404553632,1.202045296033204e-07,0.5109028571428571,-0.0441077522835295,0.0031533250328787,0.000571202273135,0.999603977986322,0.6685714285714286,0.3153677382338156,0.3956851428571428,-0.0882184933543172,0.0008441006167392,0.6903194737050469,-0.0194080685379496,1.0,2.349549555136221e-06,2.349549555136221e-06,0.9131428571428571,0.5491428571428572,0.7378571428571429,0.9048857142857144,0.0441107410707876,0.0760081142857142,6.0,5.0,1.0,0.9437751004016064,-0.3459690901728594,0.9382459105399628,-0.8722647273621952,0.4890339920698307,9.0,0.3333333333333333,22.0,0.0,0.0,0.0,0.0,0.0,0.0,1.0,0.0,0.0,0.0,0.0,0.0,0.0,0.0,0.0,0.0,0.0,0.0,1.0,1.0,0.0,0.0,1.0,0.0,1.0,1.0,0.0,0.6676763877551022,0.2888579542857143,1.7110571368694822,1.7110571368694822,13.12458441226554,13.0,0.9999999999994155,13.0,0.0,0.1492360740932131,0.08474075094718334,0.0,71.0,0.0,0.0,1.0,1.0,0.6661912815246375,h106_move
