kbsooo/etri/hitl/h105_signed_route_coefficient_solver_hsjepa/h105_selected_cells.csv
candidate_id,flat_index,row,subject_id,sleep_date,lifelog_date,target,target_index,h057_prob,q061,cell_q061_gain,public_score,invariant_score,private_safe_score,latent_shortcut_energy,bad_pressure_rank,h068_cell_health,outside_h069_cell,outside_h070_cell,is_h050_null,source_count,source_weight,source_family_count,source_consensus,source_mean_move,source_action_delta,source_posterior_delta,hit_h071,hit_h074,hit_h076,hit_h079,h080_bad_same_raw,h080_bad_opp_raw,h080_bad_same_rank,h080_bad_opp_rank,h080_bad_margin_rank,h079_cell,h079_row,h079_role,h080_cell_score,h085_q,h085_q_move,h085_q_gain,h085_abs_q_move,h082_cell,h084_dark_cell,source_agrees_h085,h085_cell_score,q_hard,best_world_y,confidence,hard_gain,combined_score,hard_logit_delta,binary_shock,h086_resp_weight,h086_resp_lift,h086_resp_rank,h086_equation_alignment,h086_resp_action_score,hard_logit_move,hard_diag_gain,h088_prob,h088_logit_move,h088_active,h088_q_delta,h088_q_bad,h088_bad_rank,h088_move_abs_rank,h088_toxicity,h057_positive_weight,h057_positive_logit_move,h095_safe_cell_score,sleep_dow,lifelog_dow,date_gap_days,row_norm,row_sin1,row_cos1,row_sin3,row_cos3,subject_idx,within_subject_norm,subject_block_size,target_Q1,target_Q2,target_Q3,target_S1,target_S2,target_S3,target_S4,sleep_dow_0,lifelog_dow_0,sleep_dow_1,lifelog_dow_1,sleep_dow_2,lifelog_dow_2,sleep_dow_3,lifelog_dow_3,sleep_dow_4,lifelog_dow_4,sleep_dow_5,lifelog_dow_5,sleep_dow_6,lifelog_dow_6,is_q,is_s,is_subjective_quality,is_objective_stage,h057_h088_anti_conflict,h057_h088_same_conflict,conflict_strength,h098_frontier_cell_score,h105_move,h105_abs_move,h105_decode_score,h097_move_col
h105_signed_null_lagrange_c120_s42_74a05a1d,1010,144,id06,2024-08-14,2024-08-13,Q3,2,0.7530964107373385,0.7533060688078742,1.1822187706567187e-07,0.1906514285714285,0.670817142857143,0.3328430285714286,0.4842571428571429,0.4268571428571429,0.2659077142857142,1.0,1.0,0,3.0,1.4815760139224,1.0,1.0,0.0011278662604456,-5.3211147464858437e-11,-1.1822187706567182e-07,0.0,1.0,0.0,0.0,0.00365308581125,0.156435418150198,0.4182857142857142,0.6862857142857143,0.688,0.0,0.0,,0.4532971428571428,0.7533312901862517,0.0012635893748875,1.350275770084508e-07,0.0012635893748875,1.0,0.0,1.0,0.2487823428571428,0.7611739450510254,1,0.7611739450510254,4.467222197900529e-08,0.3201142857142857,0.029716187931472,0.0017199612737889,0.000627826127369,1.0986957228958183,0.9451428571428572,0.3740817901993886,0.643182742857143,0.0439311011078744,0.0001767593750644,0.7637201240802629,0.0579890534623943,1.0,0.0002959477991754,0.0002959477991754,0.992,0.7085714285714285,0.8645428571428572,0.919554285714286,-0.0458518275004828,0.1008794285714285,2.0,1.0,1.0,0.5783132530120482,-0.47243956847967067,-0.881363066014649,-0.9955262728085589,-0.09448513188803238,5.0,0.6956521739130435,24.0,0.0,0.0,1.0,0.0,0.0,0.0,0.0,0.0,0.0,0.0,1.0,1.0,0.0,0.0,0.0,0.0,0.0,0.0,0.0,0.0,0.0,1.0,0.0,1.0,0.0,1.0,0.0,0.794994089469388,0.7304870285714288,-0.3,0.3,0.287468556,h105_move
h105_signed_null_lagrange_c120_s42_74a05a1d,1025,146,id06,2024-08-20,2024-08-19,S1,3,0.8954549884000682,0.8959698352864354,1.417783483670387e-06,0.3377485714285714,0.7720971428571428,0.5372021142857144,0.4566714285714286,0.1785714285714285,0.3825,1.0,1.0,0,2.0,1.93657810305736,1.0,1.0,0.0055115996762786,-7.210063458333783e-09,-1.417783483614876e-06,1.0,0.0,0.0,0.0,0.0,0.1814867640869667,0.1785714285714285,0.7262857142857143,0.7297142857142858,0.0,0.0,,0.5688714285714286,0.8960266401379597,0.0061211893265373,1.5910230796167824e-06,0.0061211893265373,0.0,0.0,1.0,0.2748399428571428,0.9013371564884484,1,0.9013371564884484,9.526538141963833e-08,0.5840571428571429,0.0605883148573789,0.0025008685591644,0.0005691878083733,0.996078664653354,0.5982857142857143,0.5025209256459693,0.4072595428571429,0.0644567290925564,0.0001879499485854,0.8960564726868825,0.006441449137962,1.0,-1.7434042313135834e-06,0.0,0.4542857142857143,0.4811428571428571,0.4641428571428571,0.6506171428571429,-0.0038684142351774,0.1833594285714285,1.0,0.0,1.0,0.5863453815261044,-0.51629923627004,-0.8564082546466804,-0.9983886888289513,0.05674527309307293,5.0,0.782608695652174,24.0,0.0,0.0,0.0,1.0,0.0,0.0,0.0,0.0,1.0,1.0,0.0,0.0,0.0,0.0,0.0,0.0,0.0,0.0,0.0,0.0,0.0,0.0,1.0,0.0,1.0,1.0,0.0,0.3019792995918367,0.4251408571428571,-0.15115007544147752,0.15115007544147752,0.1475142795693637,h105_move
h105_signed_null_lagrange_c120_s42_74a05a1d,1057,151,id06,2024-08-25,2024-08-24,Q1,0,0.2931200235617892,0.2940047415236316,1.8877009515527732e-06,0.3332628571428572,0.7080171428571429,0.4039888571428572,0.5654857142857144,0.4817142857142857,0.3501362285714285,1.0,1.0,0,1.0,0.98640079466928,1.0,1.0,0.0042660984396376,-1.0020730809332893e-08,-1.8877009515527732e-06,1.0,0.0,0.0,0.0,0.0069087191295727,0.1085813693048932,0.46,0.5908571428571429,0.5965714285714285,0.0,0.0,,0.4900228571428571,0.2940407945891951,0.0044397867305515,1.860541860465581e-06,0.0044397867305515,1.0,0.0,1.0,0.2779978285714286,0.3160480568474452,1,0.6839519431525547,3.543989487264716e-07,0.5622057142857144,0.0767078893727275,0.0004647756016188,0.000563572964942,0.9862526886486588,0.3011428571428571,0.2390823668590611,0.2716846857142857,0.1082853490810346,0.001250143867855,0.2941165191992924,0.0048045551477717,1.0,-2.0308272858926557e-06,0.0,0.4542857142857143,0.4708571428571428,0.4616571428571429,0.8998400000000001,-0.0315774597083073,0.2318356571428572,6.0,5.0,1.0,0.606425702811245,-0.6199605408122385,-0.7846329892604547,-0.9067516281939827,0.42166513345018397,5.0,1.0,24.0,1.0,0.0,0.0,0.0,0.0,0.0,0.0,0.0,0.0,0.0,0.0,0.0,0.0,0.0,0.0,0.0,0.0,0.0,1.0,1.0,0.0,1.0,0.0,1.0,0.0,1.0,0.0,0.4154175634285715,0.5168146514285716,-0.3,0.3,0.2837705232,h105_move
h105_signed_null_lagrange_c120_s42_74a05a1d,1059,151,id06,2024-08-25,2024-08-24,Q3,2,0.8051517532471274,0.8030150111803502,1.4511156814778214e-05,0.3337085714285714,0.7080171428571429,0.1520932571428572,0.9230857142857144,0.956,0.3712925714285713,1.0,1.0,0,0.0,0.0,0.0,0.0,0.0,0.0,0.0,0.0,0.0,0.0,0.0,0.2271737521378298,0.006086278522037,0.9222857142857144,0.2165714285714285,0.1788571428571428,0.0,0.0,,-0.7007057142857144,0.8030744767017115,-0.0131878844070159,1.2479027673317766e-05,0.0131878844070159,0.0,0.0,0.0,0.0559329142857143,0.7951378735404838,1,0.7951378735404838,5.971452035624195e-08,0.3412114285714285,0.0361493346156307,0.0011125015620337,0.0005754150819827,1.0069763934697766,0.7565714285714286,0.4100387233611863,0.4062238857142857,-0.0626314127524751,0.0003155568519088,0.8043516859284782,-0.0050918768989105,1.0,-8.541367909509212e-06,0.0,0.4542857142857143,0.4731428571428571,0.4653428571428571,0.9348628571428572,0.0987807473681059,0.0054983999999999,6.0,5.0,1.0,0.606425702811245,-0.6199605408122385,-0.7846329892604547,-0.9067516281939827,0.42166513345018397,5.0,1.0,24.0,0.0,0.0,1.0,0.0,0.0,0.0,0.0,0.0,0.0,0.0,0.0,0.0,0.0,0.0,0.0,0.0,0.0,0.0,1.0,1.0,0.0,1.0,0.0,1.0,0.0,1.0,0.0,0.43503175297959185,0.4528153828571429,0.3,0.3,0.2515126896,h105_move
h105_signed_null_lagrange_c120_s42_74a05a1d,1148,164,id07,2024-07-26,2024-07-25,Q1,0,0.5726236359257583,0.5785182382955152,7.107495999258973e-05,0.3531828571428571,0.5277371428571428,-0.0308976285714285,0.9647428571428572,0.9491428571428572,0.3696770285714286,1.0,1.0,0,4.0,7.150759261260218,1.0,1.0,0.0107728068932244,-1.2662505403575502e-08,-4.8598608335352806e-05,0.0,0.0,0.0,1.0,0.2847313265208278,0.0,0.9405714285714286,0.0777142857142857,0.1788571428571428,1.0,1.0,seed_q061_companion,0.2934971428571428,0.5784324143683724,0.023777970260246,6.281269137575762e-05,0.023777970260246,0.0,1.0,1.0,0.2427167428571428,0.6057356549616199,0,0.6057356549616199,2.395791371501162e-07,0.5222971428571428,-0.0601479714388651,0.0028665154478622,0.0005256559126248,0.919897847093514,0.0462857142857142,0.2934742653132805,0.0831499428571428,0.1368584367882453,0.0022566059611043,0.5926098562501864,0.082201326412172,1.0,0.0003458175576152,0.0003458175576152,0.9942857142857144,0.7868571428571428,0.8911714285714286,0.9825542857142858,-0.1970064082271105,0.0275415999999998,4.0,3.0,1.0,0.6586345381526104,-0.839699808785118,-0.5430508550092121,-0.15082429716137438,0.9885605855918884,6.0,0.41379310344827586,30.0,1.0,0.0,0.0,0.0,0.0,0.0,0.0,0.0,0.0,0.0,0.0,0.0,0.0,0.0,1.0,1.0,0.0,0.0,0.0,0.0,0.0,1.0,0.0,1.0,0.0,1.0,0.0,0.8756243064489797,0.6744735314285715,-0.3,0.3,0.25807827497142855,h105_move
h105_signed_null_lagrange_c120_s42_74a05a1d,1150,164,id07,2024-07-26,2024-07-25,Q3,2,0.4259565486750093,0.4269931880734391,2.196973457047058e-06,0.2573485714285714,0.5277371428571428,0.3815033714285714,0.4755571428571428,0.1785714285714285,0.3029848571428571,1.0,1.0,0,4.0,7.150759261260218,1.0,1.0,0.0018921461975348,-3.1386519561959727e-09,-1.501803454773649e-06,0.0,0.0,0.0,1.0,0.0,0.1449356177140495,0.1785714285714285,0.6674285714285715,0.6782857142857143,1.0,1.0,seed_q061_companion,0.4895571428571429,0.4270190049503677,0.0043437215818961,2.100024117157595e-06,0.0043437215818961,1.0,0.0,1.0,0.2906211428571428,0.4461046069309509,0,0.5538953930690491,3.0615352131698396e-07,0.5612685714285714,0.0658539470598237,0.0014462362567198,0.0005931515106564,1.0380151436487377,0.8931428571428571,0.3058667154411794,0.6421355428571428,0.0819453714389487,0.0008269628319164,0.4365566105950964,0.043218942955514,1.0,0.0001829166359995,0.0001829166359995,0.9805714285714284,0.6462857142857142,0.8331428571428572,0.8843714285714287,-0.0160914243791249,0.1454114285714285,4.0,3.0,1.0,0.6586345381526104,-0.839699808785118,-0.5430508550092121,-0.15082429716137438,0.9885605855918884,6.0,0.41379310344827586,30.0,0.0,0.0,1.0,0.0,0.0,0.0,0.0,0.0,0.0,0.0,0.0,0.0,0.0,0.0,1.0,1.0,0.0,0.0,0.0,0.0,0.0,1.0,0.0,1.0,0.0,1.0,0.0,0.7368077387755103,0.5973442857142858,-0.24070172760972616,0.24070172760972616,0.2379607057392054,h105_move
h105_signed_null_lagrange_c120_s42_74a05a1d,1151,164,id07,2024-07-26,2024-07-25,S1,3,0.9223507042282848,0.9216005296464892,3.917279624177095e-06,0.2585542857142857,0.5277371428571428,-0.1077577142857144,0.9476857142857142,0.9794285714285714,0.3269070857142857,1.0,1.0,0,4.0,7.150759261260218,1.0,1.0,-0.0046557360965975,-2.455648310831864e-09,-2.6763739925174846e-06,0.0,0.0,0.0,1.0,0.580049688553327,0.0,0.9822857142857144,0.0777142857142857,0.1788571428571428,1.0,1.0,seed_q061_companion,0.24256,0.9217729289840444,-0.0080398963166077,2.11564951174692e-06,0.0080398963166077,0.0,1.0,1.0,0.1396150285714285,0.934273302796362,1,0.934273302796362,1.2071833231409308e-06,0.8719085714285715,0.2506320694487556,0.0026125534551015,0.0005915360823307,1.035188144078876,0.8891428571428571,0.8372818556296139,0.4899545142857143,0.1795407734626453,0.0010428642033394,0.9220945637329848,-0.0035709979341165,1.0,-1.6061254654586854e-06,0.0,0.4542857142857143,0.4657142857142857,0.4590857142857142,0.9133771428571428,0.0710912959861103,0.0364342857142856,4.0,3.0,1.0,0.6586345381526104,-0.839699808785118,-0.5430508550092121,-0.15082429716137438,0.9885605855918884,6.0,0.41379310344827586,30.0,0.0,0.0,0.0,1.0,0.0,0.0,0.0,0.0,0.0,0.0,0.0,0.0,0.0,0.0,1.0,1.0,0.0,0.0,0.0,0.0,0.0,0.0,1.0,0.0,1.0,1.0,0.0,0.4193183980408162,0.3923701142857143,0.3,0.3,0.24793302342857138,h105_move
h105_signed_null_lagrange_c120_s42_74a05a1d,1154,164,id07,2024-07-26,2024-07-25,S4,6,0.3773264958983826,0.3806992444389726,2.417989854019975e-05,0.3498857142857143,0.5277371428571428,-0.0450253714285713,0.9542,0.92,0.3851811428571428,1.0,1.0,0,4.0,7.150759261260218,1.0,1.0,0.006397676751739,-1.1884740666293036e-08,-1.652587185190865e-05,0.0,0.0,0.0,1.0,0.3149601376641728,0.0,0.9497142857142856,0.0777142857142857,0.1788571428571428,1.0,1.0,seed_q061_companion,0.2868685714285713,0.3806108503006162,0.0139551743480836,2.086447315363671e-05,0.0139551743480836,0.0,1.0,1.0,0.2017081142857142,0.3827457929282127,0,0.6172542070717872,4.143843838059222e-07,0.6303542857142858,-0.0798121694974146,0.0046721907240113,0.0005578411478312,0.9762220087046362,0.1765714285714285,0.6369021237462911,0.1225257142857142,0.0230015601792245,6.238347097342611e-05,0.3820022291534626,0.0198530550945121,1.0,-1.8827635697604705e-05,0.0,0.4542857142857143,0.5508571428571428,0.4944,0.9444742857142856,-0.1028137296766391,0.088597257142857,4.0,3.0,1.0,0.6586345381526104,-0.839699808785118,-0.5430508550092121,-0.15082429716137438,0.9885605855918884,6.0,0.41379310344827586,30.0,0.0,0.0,0.0,0.0,0.0,0.0,1.0,0.0,0.0,0.0,0.0,0.0,0.0,0.0,1.0,1.0,0.0,0.0,0.0,0.0,0.0,0.0,1.0,0.0,1.0,1.0,0.0,0.4669480868571428,0.39203521142857145,-0.3,0.3,0.2513642718857143,h105_move
h105_broad_coeff_transport_c180_s58_7971b5d7,945,135,id06,2024-07-14,2024-07-13,Q1,0,0.3265168623517541,0.332467224835243,8.025667657762803e-05,0.3744571428571428,0.4153771428571429,-0.0994901714285714,0.9742571428571428,0.9685714285714284,0.3800493714285714,0.0,1.0,0,0.0,0.0,0.0,0.0,0.0,0.0,0.0,0.0,0.0,0.0,0.0,0.5725434492673942,0.0,0.9817142857142858,0.0777142857142857,0.1788571428571428,0.0,0.0,,-0.8262657142857144,0.3323169909206154,0.0262571471809444,6.938334396489054e-05,0.0262571471809444,0.0,0.0,0.0,0.0315527428571428,0.344659554634995,1,0.655340445365005,9.866239582278026e-07,0.6901028571428571,-0.123946419174583,0.0014640261314393,0.0003771091657354,0.6599410400369783,0.0062857142857142,0.7984103847618609,-0.0157502857142857,0.081383632605916,0.0007415524517681,0.335027405247487,0.0384478717404617,1.0,-5.975131469893036e-05,0.0,0.4542857142857143,0.6268571428571429,0.5252571428571429,0.9829828571428572,-0.1743681471515381,-0.0398052571428571,6.0,5.0,1.0,0.5421686746987951,-0.2618644849608063,-0.9651046531419334,-0.7137661126871386,-0.7003841348713511,5.0,0.30434782608695654,24.0,1.0,0.0,0.0,0.0,0.0,0.0,0.0,0.0,0.0,0.0,0.0,0.0,0.0,0.0,0.0,0.0,0.0,0.0,1.0,1.0,0.0,1.0,0.0,1.0,0.0,1.0,0.0,0.5163187670204081,0.42969570285714287,-0.13436800000000002,0.13436800000000002,0.11033207126228115,h105_move
h105_broad_coeff_transport_c180_s58_7971b5d7,947,135,id06,2024-07-14,2024-07-13,Q3,2,0.8233562803446187,0.8211995281478749,1.5940535035174896e-05,0.2876571428571428,0.4153771428571429,-0.0838771142857143,0.9258,0.964,0.3306977142857142,1.0,1.0,0,0.0,0.0,0.0,0.0,0.0,0.0,0.0,0.0,0.0,0.0,0.0,0.2445756176535394,0.0,0.9285714285714286,0.0777142857142857,0.1788571428571428,0.0,0.0,,-0.7948314285714286,0.8212701536208874,-0.0142775087436182,1.3569943485169931e-05,0.0142775087436182,0.0,0.0,0.0,0.0141144571428571,0.8135768926925118,0,0.8135768926925118,6.984182582356931e-08,0.3558057142857143,0.0404020375392994,0.0006730519548812,0.0005742784329964,1.0049872577438463,0.7342857142857143,0.3838669842879127,0.360628,-0.0658326085220084,0.0003241510323629,0.8192405880794565,-0.0280433228436189,1.0,-9.664076740523164e-07,0.0,0.4542857142857143,0.5822857142857143,0.4927714285714286,0.93888,0.1062346460613079,-0.0398117714285714,6.0,5.0,1.0,0.5421686746987951,-0.2618644849608063,-0.9651046531419334,-0.7137661126871386,-0.7003841348713511,5.0,0.30434782608695654,24.0,0.0,0.0,1.0,0.0,0.0,0.0,0.0,0.0,0.0,0.0,0.0,0.0,0.0,0.0,0.0,0.0,0.0,0.0,1.0,1.0,0.0,1.0,0.0,1.0,0.0,1.0,0.0,0.4626532388571429,0.4524815657142857,0.13436800000000002,0.13436800000000002,0.11178064721550629,h105_move
h105_broad_coeff_transport_c180_s58_7971b5d7,949,135,id06,2024-07-14,2024-07-13,S2,4,0.9120002370412033,0.9128559625035724,4.575502052239777e-06,0.3906628571428571,0.4153771428571429,0.2220676,0.6870285714285714,0.6325714285714286,0.400656,0.0,1.0,0,0.0,0.0,0.0,0.0,0.0,0.0,0.0,0.0,0.0,0.0,0.0,0.0306072182800029,0.0387905347810696,0.6485714285714286,0.4114285714285714,0.3845714285714285,0.0,0.0,,-0.6916942857142857,0.9128484616979826,0.0106153362211465,4.091754492618893e-06,0.0106153362211465,0.0,0.0,0.0,0.0204137714285714,0.9250982584531292,1,0.9250982584531292,2.2462660630838865e-07,0.7114057142857144,0.1055641087159346,0.0028894661390598,0.0005657735831001,0.9901037704252228,0.4017142857142857,0.1604154161182626,0.1480686857142857,0.1754166861823174,0.0011206919463118,0.916900949362351,0.062660043836634,1.0,0.0001017187385513,0.0001017187385513,0.9645714285714284,0.7251428571428571,0.8401142857142857,0.9117314285714286,-0.0698525774663827,-0.1410235428571428,6.0,5.0,1.0,0.5421686746987951,-0.2618644849608063,-0.9651046531419334,-0.7137661126871386,-0.7003841348713511,5.0,0.30434782608695654,24.0,0.0,0.0,0.0,0.0,1.0,0.0,0.0,0.0,0.0,0.0,0.0,0.0,0.0,0.0,0.0,0.0,0.0,0.0,1.0,1.0,0.0,0.0,1.0,0.0,1.0,1.0,0.0,0.765958597877551,0.5573068457142858,-0.06418907230365312,0.06418907230365312,0.0561677767286197,h105_move
h105_broad_coeff_transport_c180_s58_7971b5d7,950,135,id06,2024-07-14,2024-07-13,S3,5,0.9998174319302912,0.9999690243965154,9.66556169085143e-05,0.41248,0.4153771428571429,0.4060846285714286,0.1434428571428571,0.1785714285714285,0.4921344,1.0,1.0,0,10.0,8.8123413858064,2.0,1.0,1.7740747865535766,-2.262030586979623e-08,-9.66556169085143e-05,1.0,1.0,0.0,0.0,0.0,5.8767346452884475,0.1785714285714285,0.9777142857142858,0.9777142857142858,0.0,0.0,,0.6325457142857144,0.999999,5.2073046728950665,0.0001106688193046,5.2073046728950665,1.0,0.0,1.0,0.5681642857142857,0.999999,1,0.999999,1.5611654156441006e-08,0.5173485714285715,3.3098046728945274,8.273637275291179e-08,0.0006977555522572,1.221072216450262,0.9817142857142858,0.9460383938620918,0.760486742857143,2.5,0.0001650960133852,0.9999740212292776,1.9499999999975175,1.0,-0.0001546556291109,0.0,0.4542857142857143,0.9914285714285714,0.6443142857142858,0.7002114285714286,-1.897500000000539,0.4285694857142857,6.0,5.0,1.0,0.5421686746987951,-0.2618644849608063,-0.9651046531419334,-0.7137661126871386,-0.7003841348713511,5.0,0.30434782608695654,24.0,0.0,0.0,0.0,0.0,0.0,1.0,0.0,0.0,0.0,0.0,0.0,0.0,0.0,0.0,0.0,0.0,0.0,0.0,1.0,1.0,0.0,0.0,1.0,0.0,1.0,1.0,0.0,0.4511562264489797,0.4576712342857143,-0.032969761671356276,0.032969761671356276,0.03325409398872215,h105_move
h105_broad_coeff_transport_c180_s58_7971b5d7,951,135,id06,2024-07-14,2024-07-13,S4,6,0.8326790220313127,0.833879711711521,5.183653563278767e-06,0.2921257142857143,0.4153771428571429,-0.1112793428571428,0.8874,0.9285714285714286,0.3429414857142857,1.0,1.0,0,0.0,0.0,0.0,0.0,0.0,0.0,0.0,0.0,0.0,0.0,0.0,0.3617674279706701,0.0,0.9582857142857144,0.0777142857142857,0.1788571428571428,0.0,0.0,,-0.7936942857142857,0.8337650677901544,0.0078153785157646,3.859087214619361e-06,0.0078153785157646,0.0,0.0,0.0,-0.0153674857142856,0.8312358502886998,1,0.8312358502886998,3.840924880026521e-07,0.6961371428571429,-0.0989839981964375,0.0011361898931917,0.0005810148178281,1.016775931199321,0.8325714285714285,0.5783184363674189,0.3844385142857142,-0.010322855520866,7.457335124527731e-06,0.8329793279449548,0.0021569871909787,1.0,-2.0186312811865115e-06,0.0,0.4542857142857143,0.4594285714285714,0.4581428571428572,0.9290628571428572,-0.0886611426755714,-0.0597717714285714,6.0,5.0,1.0,0.5421686746987951,-0.2618644849608063,-0.9651046531419334,-0.7137661126871386,-0.7003841348713511,5.0,0.30434782608695654,24.0,0.0,0.0,0.0,0.0,0.0,0.0,1.0,0.0,0.0,0.0,0.0,0.0,0.0,0.0,0.0,0.0,0.0,0.0,1.0,1.0,0.0,0.0,1.0,0.0,1.0,1.0,0.0,0.42564351183673477,0.4147663657142857,-0.13436800000000002,0.13436800000000002,0.11031321351968915,h105_move
h105_broad_coeff_transport_c180_s58_7971b5d7,1008,144,id06,2024-08-14,2024-08-13,Q1,0,0.0904283679242036,0.0930319502347153,4.085594337821519e-05,0.3494971428571429,0.670817142857143,0.0048861714285715,0.9795142857142858,0.9874285714285714,0.3680683428571428,1.0,1.0,0,0.0,0.0,0.0,0.0,0.0,0.0,0.0,0.0,0.0,0.0,0.0,0.7269206507897797,0.0,0.9891428571428572,0.0777142857142857,0.1788571428571428,0.0,0.0,,-0.7422142857142857,0.0928307151681703,0.0288642242077825,3.165730741150341e-05,0.0288642242077825,0.0,0.0,0.0,0.0856351428571428,0.0891772641153207,0,0.9108227358846792,1.3452053532047517e-06,0.896137142857143,-0.2335523436079261,0.0044867794957299,0.0004822383003559,0.8439170256229658,0.0194285714285714,0.8584576336730294,-0.0003900571428571,-0.0153064438691346,9.5549357758129e-06,0.090151775928347,-0.0033674176512099,1.0,8.555621068218056e-06,8.555621068218056e-06,0.9188571428571428,0.4645714285714286,0.7183714285714287,0.9717428571428572,-0.1785263964032855,-0.0285194285714285,2.0,1.0,1.0,0.5783132530120482,-0.47243956847967067,-0.881363066014649,-0.9955262728085589,-0.09448513188803238,5.0,0.6956521739130435,24.0,1.0,0.0,0.0,0.0,0.0,0.0,0.0,0.0,0.0,0.0,1.0,1.0,0.0,0.0,0.0,0.0,0.0,0.0,0.0,0.0,0.0,1.0,0.0,1.0,0.0,0.0,1.0,0.0,0.20501291428571436,-0.13436800000000002,0.13436800000000002,0.05090076210870859,h105_move
h105_broad_coeff_transport_c180_s58_7971b5d7,1010,144,id06,2024-08-14,2024-08-13,Q3,2,0.7530964107373385,0.7533060688078742,1.1822187706567187e-07,0.1906514285714285,0.670817142857143,0.3328430285714286,0.4842571428571429,0.4268571428571429,0.2659077142857142,1.0,1.0,0,3.0,1.4815760139224,1.0,1.0,0.0011278662604456,-5.3211147464858437e-11,-1.1822187706567182e-07,0.0,1.0,0.0,0.0,0.00365308581125,0.156435418150198,0.4182857142857142,0.6862857142857143,0.688,0.0,0.0,,0.4532971428571428,0.7533312901862517,0.0012635893748875,1.350275770084508e-07,0.0012635893748875,1.0,0.0,1.0,0.2487823428571428,0.7611739450510254,1,0.7611739450510254,4.467222197900529e-08,0.3201142857142857,0.029716187931472,0.0017199612737889,0.000627826127369,1.0986957228958183,0.9451428571428572,0.3740817901993886,0.643182742857143,0.0439311011078744,0.0001767593750644,0.7637201240802629,0.0579890534623943,1.0,0.0002959477991754,0.0002959477991754,0.992,0.7085714285714285,0.8645428571428572,0.919554285714286,-0.0458518275004828,0.1008794285714285,2.0,1.0,1.0,0.5783132530120482,-0.47243956847967067,-0.881363066014649,-0.9955262728085589,-0.09448513188803238,5.0,0.6956521739130435,24.0,0.0,0.0,1.0,0.0,0.0,0.0,0.0,0.0,0.0,0.0,1.0,1.0,0.0,0.0,0.0,0.0,0.0,0.0,0.0,0.0,0.0,1.0,0.0,1.0,0.0,1.0,0.0,0.794994089469388,0.7304870285714288,-0.24,0.24,0.2299748448,h105_move
h105_broad_coeff_transport_c180_s58_7971b5d7,1011,144,id06,2024-08-14,2024-08-13,S1,3,0.9371612173475234,0.938050068105242,6.737603625239785e-06,0.4181828571428572,0.670817142857143,0.3955945714285715,0.6061428571428571,0.5925714285714285,0.4131582857142857,1.0,1.0,0,6.0,4.40455491164904,2.0,1.0,0.0151939330276178,-6.324202084681502e-08,-6.737603625239785e-06,1.0,1.0,0.0,0.0,0.0138457385950436,0.1370545027048125,0.5348571428571428,0.6497142857142857,0.6337142857142857,0.0,0.0,,0.5285085714285714,0.9380567154476852,0.0153083269528511,6.2253993175220845e-06,0.0153083269528511,1.0,0.0,1.0,0.3138071428571428,0.9435072112803232,1,0.9435072112803232,4.9518479574132515e-08,0.518,0.0565603896332951,0.0020106260677631,0.0005674055906361,0.992959783613246,0.4982857142857143,0.487265744782802,0.3616179428571429,0.1132081278206009,0.0003532406767614,0.9454074004541292,0.1494347287231923,1.0,0.0004958561125027,0.0004958561125027,0.9994285714285714,0.9171428571428571,0.9388285714285716,0.9012857142857144,-0.0566477381873058,0.1303845714285714,2.0,1.0,1.0,0.5783132530120482,-0.47243956847967067,-0.881363066014649,-0.9955262728085589,-0.09448513188803238,5.0,0.6956521739130435,24.0,0.0,0.0,0.0,1.0,0.0,0.0,0.0,0.0,0.0,0.0,1.0,1.0,0.0,0.0,0.0,0.0,0.0,0.0,0.0,0.0,0.0,0.0,1.0,0.0,1.0,1.0,0.0,0.8461527795918369,0.7918176,-0.24,0.24,0.22782018377142854,h105_move
h105_broad_coeff_transport_c180_s58_7971b5d7,1012,144,id06,2024-08-14,2024-08-13,S2,4,0.9999959292610848,0.999999,1.666919095250906e-06,0.2473999999999999,0.670817142857143,0.4452796,0.1277285714285714,0.1785714285714285,0.36927,1.0,1.0,0,6.0,4.40455491164904,2.0,1.0,1.4038276053337364,-3.885961219697539e-10,-1.666919095250906e-06,1.0,1.0,0.0,0.0,0.0,9.635517453110577,0.1785714285714285,0.9965714285714286,0.9965714285714286,0.0,0.0,,0.6091914285714287,0.999999,1.4038276053337366,1.543528956725406e-06,1.4038276053337366,1.0,0.0,1.0,0.4963339428571429,0.999999,1,0.999999,1.6045441135884457e-08,0.5168628571428572,3.301327605306856,0.0,0.0006418679262943,1.1232688710151584,0.9514285714285714,0.909933617216266,0.7047982857142859,1.4038276053337366,1.666919095250906e-06,0.999999,1.4038276053337366,1.0,-1.666919095250906e-06,0.0,0.4542857142857143,0.984,0.6147428571428571,0.9294514285714288,1.8974999999731192,0.3850804571428571,2.0,1.0,1.0,0.5783132530120482,-0.47243956847967067,-0.881363066014649,-0.9955262728085589,-0.09448513188803238,5.0,0.6956521739130435,24.0,0.0,0.0,0.0,0.0,1.0,0.0,0.0,0.0,0.0,0.0,1.0,1.0,0.0,0.0,0.0,0.0,0.0,0.0,0.0,0.0,0.0,0.0,1.0,0.0,1.0,0.0,1.0,0.0,0.32724907428571437,0.16875039894705848,0.16875039894705848,0.09624900635898019,h105_move
h105_broad_coeff_transport_c180_s58_7971b5d7,1014,144,id06,2024-08-14,2024-08-13,S4,6,0.9998058840987556,0.999999,0.0001878660951298,0.4405142857142857,0.670817142857143,0.5434293142857143,0.1422142857142857,0.1785714285714285,0.4980106285714286,1.0,0.0,0,6.0,4.40455491164904,2.0,1.0,5.268648544483414,-3.5150398796986695e-08,-0.0001878660951298,1.0,1.0,0.0,0.0,0.0,6.034330388536917,0.1785714285714285,0.9782857142857144,0.9782857142857144,0.0,0.0,,0.7044885714285714,0.999999,5.268648544483414,0.000117729057531,5.268648544483414,1.0,0.0,1.0,0.6072445142857142,0.999999,1,0.999999,1.7467234430170068e-08,0.5226628571428571,3.3711485444838587,2.7591020357320417e-08,0.0006997032448845,1.2244806785479692,0.9822857142857144,0.9594344415016696,0.7915548571428572,2.5,0.0001756977740381,0.9999723777413126,1.9499999999954376,1.0,-0.0001645621039854,0.0,0.4542857142857143,0.9897142857142858,0.645257142857143,0.69908,-1.897499999999555,0.4643764571428572,2.0,1.0,1.0,0.5783132530120482,-0.47243956847967067,-0.881363066014649,-0.9955262728085589,-0.09448513188803238,5.0,0.6956521739130435,24.0,0.0,0.0,0.0,0.0,0.0,0.0,1.0,0.0,0.0,0.0,1.0,1.0,0.0,0.0,0.0,0.0,0.0,0.0,0.0,0.0,0.0,0.0,1.0,0.0,1.0,1.0,0.0,0.45108636342857156,0.3302119314285714,-0.24,0.24,0.24004198546285715,h105_move
h105_broad_coeff_transport_c180_s58_7971b5d7,1024,146,id06,2024-08-20,2024-08-19,Q3,2,0.7736009880946799,0.7702676426237776,3.161121768557873e-05,0.3797485714285715,0.7720971428571428,0.0719284571428571,0.9813142857142858,0.9725714285714284,0.4039997142857143,1.0,1.0,0,0.0,0.0,0.0,0.0,0.0,0.0,0.0,0.0,0.0,0.0,0.0,0.394521161874612,0.0,0.9668571428571427,0.0777142857142857,0.1788571428571428,0.0,0.0,,-0.7120142857142857,0.7703737157567802,-0.0183346335227059,2.6961297747818413e-05,0.0183346335227059,0.0,0.0,0.0,0.0903170857142856,0.7597164724330882,1,0.7597164724330882,2.307549978418787e-07,0.5049714285714286,0.0679624827259519,0.001223071808181,0.0005106701226822,0.8936727146939752,0.032,0.5584884301079426,0.0209509714285714,-0.0776315293173333,0.000542657395489,0.7736009880946799,0.0,0.0,0.0,0.0,0.4542857142857143,0.2202857142857142,0.0,0.9634171428571427,0.1285884888524503,0.1616148571428571,1.0,0.0,1.0,0.5863453815261044,-0.51629923627004,-0.8564082546466804,-0.9983886888289513,0.05674527309307293,5.0,0.782608695652174,24.0,0.0,0.0,1.0,0.0,0.0,0.0,0.0,0.0,1.0,1.0,0.0,0.0,0.0,0.0,0.0,0.0,0.0,0.0,0.0,0.0,0.0,1.0,0.0,1.0,0.0,0.0,0.0,0.0,0.23747382857142862,0.13436800000000002,0.13436800000000002,0.05488180646326858,h105_move
h105_broad_coeff_transport_c180_s58_7971b5d7,1025,146,id06,2024-08-20,2024-08-19,S1,3,0.8954549884000682,0.8959698352864354,1.417783483670387e-06,0.3377485714285714,0.7720971428571428,0.5372021142857144,0.4566714285714286,0.1785714285714285,0.3825,1.0,1.0,0,2.0,1.93657810305736,1.0,1.0,0.0055115996762786,-7.210063458333783e-09,-1.417783483614876e-06,1.0,0.0,0.0,0.0,0.0,0.1814867640869667,0.1785714285714285,0.7262857142857143,0.7297142857142858,0.0,0.0,,0.5688714285714286,0.8960266401379597,0.0061211893265373,1.5910230796167824e-06,0.0061211893265373,0.0,0.0,1.0,0.2748399428571428,0.9013371564884484,1,0.9013371564884484,9.526538141963833e-08,0.5840571428571429,0.0605883148573789,0.0025008685591644,0.0005691878083733,0.996078664653354,0.5982857142857143,0.5025209256459693,0.4072595428571429,0.0644567290925564,0.0001879499485854,0.8960564726868825,0.006441449137962,1.0,-1.7434042313135834e-06,0.0,0.4542857142857143,0.4811428571428571,0.4641428571428571,0.6506171428571429,-0.0038684142351774,0.1833594285714285,1.0,0.0,1.0,0.5863453815261044,-0.51629923627004,-0.8564082546466804,-0.9983886888289513,0.05674527309307293,5.0,0.782608695652174,24.0,0.0,0.0,0.0,1.0,0.0,0.0,0.0,0.0,1.0,1.0,0.0,0.0,0.0,0.0,0.0,0.0,0.0,0.0,0.0,0.0,0.0,0.0,1.0,0.0,1.0,1.0,0.0,0.3019792995918367,0.4251408571428571,-0.12904958969060343,0.12904958969060343,0.12594540357541525,h105_move
h105_broad_coeff_transport_c180_s58_7971b5d7,1057,151,id06,2024-08-25,2024-08-24,Q1,0,0.2931200235617892,0.2940047415236316,1.8877009515527732e-06,0.3332628571428572,0.7080171428571429,0.4039888571428572,0.5654857142857144,0.4817142857142857,0.3501362285714285,1.0,1.0,0,1.0,0.98640079466928,1.0,1.0,0.0042660984396376,-1.0020730809332893e-08,-1.8877009515527732e-06,1.0,0.0,0.0,0.0,0.0069087191295727,0.1085813693048932,0.46,0.5908571428571429,0.5965714285714285,0.0,0.0,,0.4900228571428571,0.2940407945891951,0.0044397867305515,1.860541860465581e-06,0.0044397867305515,1.0,0.0,1.0,0.2779978285714286,0.3160480568474452,1,0.6839519431525547,3.543989487264716e-07,0.5622057142857144,0.0767078893727275,0.0004647756016188,0.000563572964942,0.9862526886486588,0.3011428571428571,0.2390823668590611,0.2716846857142857,0.1082853490810346,0.001250143867855,0.2941165191992924,0.0048045551477717,1.0,-2.0308272858926557e-06,0.0,0.4542857142857143,0.4708571428571428,0.4616571428571429,0.8998400000000001,-0.0315774597083073,0.2318356571428572,6.0,5.0,1.0,0.606425702811245,-0.6199605408122385,-0.7846329892604547,-0.9067516281939827,0.42166513345018397,5.0,1.0,24.0,1.0,0.0,0.0,0.0,0.0,0.0,0.0,0.0,0.0,0.0,0.0,0.0,0.0,0.0,0.0,0.0,0.0,0.0,1.0,1.0,0.0,1.0,0.0,1.0,0.0,1.0,0.0,0.4154175634285715,0.5168146514285716,-0.24,0.24,0.22701641856,h105_move
h105_broad_coeff_transport_c180_s58_7971b5d7,1059,151,id06,2024-08-25,2024-08-24,Q3,2,0.8051517532471274,0.8030150111803502,1.4511156814778214e-05,0.3337085714285714,0.7080171428571429,0.1520932571428572,0.9230857142857144,0.956,0.3712925714285713,1.0,1.0,0,0.0,0.0,0.0,0.0,0.0,0.0,0.0,0.0,0.0,0.0,0.0,0.2271737521378298,0.006086278522037,0.9222857142857144,0.2165714285714285,0.1788571428571428,0.0,0.0,,-0.7007057142857144,0.8030744767017115,-0.0131878844070159,1.2479027673317766e-05,0.0131878844070159,0.0,0.0,0.0,0.0559329142857143,0.7951378735404838,1,0.7951378735404838,5.971452035624195e-08,0.3412114285714285,0.0361493346156307,0.0011125015620337,0.0005754150819827,1.0069763934697766,0.7565714285714286,0.4100387233611863,0.4062238857142857,-0.0626314127524751,0.0003155568519088,0.8043516859284782,-0.0050918768989105,1.0,-8.541367909509212e-06,0.0,0.4542857142857143,0.4731428571428571,0.4653428571428571,0.9348628571428572,0.0987807473681059,0.0054983999999999,6.0,5.0,1.0,0.606425702811245,-0.6199605408122385,-0.7846329892604547,-0.9067516281939827,0.42166513345018397,5.0,1.0,24.0,0.0,0.0,1.0,0.0,0.0,0.0,0.0,0.0,0.0,0.0,0.0,0.0,0.0,0.0,0.0,0.0,0.0,0.0,1.0,1.0,0.0,1.0,0.0,1.0,0.0,1.0,0.0,0.43503175297959185,0.4528153828571429,0.24,0.24,0.20121015167999998,h105_move
h105_broad_coeff_transport_c180_s58_7971b5d7,1061,151,id06,2024-08-25,2024-08-24,S2,4,0.9981439428441186,0.998512435704624,3.934155003913753e-05,0.403,0.7080171428571429,0.5408174285714287,0.3351285714285714,0.1785714285714285,0.4874879999999999,1.0,1.0,0,3.0,2.92297889772664,1.0,1.0,0.2216834577455344,-1.0398812883710049e-08,-3.9341550039137536e-05,1.0,0.0,0.0,0.0,0.0,3.3307603116267783,0.1785714285714285,0.9737142857142858,0.9737142857142858,0.0,0.0,,0.6423457142857143,0.999521326407364,1.3565697715067513,0.0006829433096435,1.3565697715067513,1.0,0.0,1.0,0.6416208000000001,0.9937327727306972,1,0.9937327727306972,1.160456504662981e-06,0.7978742857142858,0.6761912270338843,0.0001475624698845,0.0004930671839675,0.862867571943241,0.0222857142857142,0.7965956916172178,0.3023445714285714,-1.221308772966056,0.0032250526296801,0.9981439428441186,0.0,0.0,0.0,0.0,0.4542857142857143,0.2202857142857142,0.0,0.997977142857143,1.8974999999999405,0.7023259428571428,6.0,5.0,1.0,0.606425702811245,-0.6199605408122385,-0.7846329892604547,-0.9067516281939827,0.42166513345018397,5.0,1.0,24.0,0.0,0.0,0.0,0.0,1.0,0.0,0.0,0.0,0.0,0.0,0.0,0.0,0.0,0.0,0.0,0.0,0.0,0.0,1.0,1.0,0.0,0.0,1.0,0.0,1.0,0.0,0.0,0.0,0.4397429942857143,0.2259029478821604,0.2259029478821604,0.13998798693506576,h105_move
h105_broad_coeff_transport_c180_s58_7971b5d7,1148,164,id07,2024-07-26,2024-07-25,Q1,0,0.5726236359257583,0.5785182382955152,7.107495999258973e-05,0.3531828571428571,0.5277371428571428,-0.0308976285714285,0.9647428571428572,0.9491428571428572,0.3696770285714286,1.0,1.0,0,4.0,7.150759261260218,1.0,1.0,0.0107728068932244,-1.2662505403575502e-08,-4.8598608335352806e-05,0.0,0.0,0.0,1.0,0.2847313265208278,0.0,0.9405714285714286,0.0777142857142857,0.1788571428571428,1.0,1.0,seed_q061_companion,0.2934971428571428,0.5784324143683724,0.023777970260246,6.281269137575762e-05,0.023777970260246,0.0,1.0,1.0,0.2427167428571428,0.6057356549616199,0,0.6057356549616199,2.395791371501162e-07,0.5222971428571428,-0.0601479714388651,0.0028665154478622,0.0005256559126248,0.919897847093514,0.0462857142857142,0.2934742653132805,0.0831499428571428,0.1368584367882453,0.0022566059611043,0.5926098562501864,0.082201326412172,1.0,0.0003458175576152,0.0003458175576152,0.9942857142857144,0.7868571428571428,0.8911714285714286,0.9825542857142858,-0.1970064082271105,0.0275415999999998,4.0,3.0,1.0,0.6586345381526104,-0.839699808785118,-0.5430508550092121,-0.15082429716137438,0.9885605855918884,6.0,0.41379310344827586,30.0,1.0,0.0,0.0,0.0,0.0,0.0,0.0,0.0,0.0,0.0,0.0,0.0,0.0,0.0,1.0,1.0,0.0,0.0,0.0,0.0,0.0,1.0,0.0,1.0,0.0,1.0,0.0,0.8756243064489797,0.6744735314285715,-0.24,0.24,0.20646261997714282,h105_move
h105_broad_coeff_transport_c180_s58_7971b5d7,1149,164,id07,2024-07-26,2024-07-25,Q2,1,0.323009632976182,0.2709030963534764,0.006404713445006,0.6218742857142857,0.4977371428571428,0.4558972,0.1702999999999999,0.1785714285714285,0.3392675428571428,1.0,0.0,0,13.0,14.82057954767878,3.0,1.0,-0.2115172958732658,-8.09111203621001e-07,-0.0055603375033368,0.0,1.0,1.0,1.0,0.0,0.3626539081900823,0.1785714285714285,0.8948571428571429,0.896,1.0,1.0,seed_q061_companion,0.7144771428571429,0.2708627773634682,-0.2502747146572733,0.0058517869143306,0.2502747146572733,1.0,0.0,1.0,0.7641866285714286,0.3271573117970377,1,0.6728426882029623,2.5782183529558946e-07,0.69928,-0.0634892338893393,0.0089004846187172,0.0006518471675812,1.1407325432671924,0.9594285714285714,0.415210226818269,0.8758386285714287,0.0189044734871525,3.924805551858146e-05,0.2994009868638552,-0.110177036384349,1.0,-0.0044358001925469,0.0,0.4542857142857143,0.8548571428571429,0.6533142857142857,0.0,0.0,0.5419887999999999,4.0,3.0,1.0,0.6586345381526104,-0.839699808785118,-0.5430508550092121,-0.15082429716137438,0.9885605855918884,6.0,0.41379310344827586,30.0,0.0,1.0,0.0,0.0,0.0,0.0,0.0,0.0,0.0,0.0,0.0,0.0,0.0,0.0,1.0,1.0,0.0,0.0,0.0,0.0,0.0,1.0,0.0,0.0,0.0,0.0,0.0,0.0,0.3642931657142857,0.013645011914604127,0.013645011914604127,0.008635880883591776,h105_move
h105_broad_coeff_transport_c180_s58_7971b5d7,1150,164,id07,2024-07-26,2024-07-25,Q3,2,0.4259565486750093,0.4269931880734391,2.196973457047058e-06,0.2573485714285714,0.5277371428571428,0.3815033714285714,0.4755571428571428,0.1785714285714285,0.3029848571428571,1.0,1.0,0,4.0,7.150759261260218,1.0,1.0,0.0018921461975348,-3.1386519561959727e-09,-1.501803454773649e-06,0.0,0.0,0.0,1.0,0.0,0.1449356177140495,0.1785714285714285,0.6674285714285715,0.6782857142857143,1.0,1.0,seed_q061_companion,0.4895571428571429,0.4270190049503677,0.0043437215818961,2.100024117157595e-06,0.0043437215818961,1.0,0.0,1.0,0.2906211428571428,0.4461046069309509,0,0.5538953930690491,3.0615352131698396e-07,0.5612685714285714,0.0658539470598237,0.0014462362567198,0.0005931515106564,1.0380151436487377,0.8931428571428571,0.3058667154411794,0.6421355428571428,0.0819453714389487,0.0008269628319164,0.4365566105950964,0.043218942955514,1.0,0.0001829166359995,0.0001829166359995,0.9805714285714284,0.6462857142857142,0.8331428571428572,0.8843714285714287,-0.0160914243791249,0.1454114285714285,4.0,3.0,1.0,0.6586345381526104,-0.839699808785118,-0.5430508550092121,-0.15082429716137438,0.9885605855918884,6.0,0.41379310344827586,30.0,0.0,0.0,1.0,0.0,0.0,0.0,0.0,0.0,0.0,0.0,0.0,0.0,0.0,0.0,1.0,1.0,0.0,0.0,0.0,0.0,0.0,1.0,0.0,1.0,0.0,1.0,0.0,0.7368077387755103,0.5973442857142858,-0.24,0.24,0.23726696914285714,h105_move
h105_broad_coeff_transport_c180_s58_7971b5d7,1151,164,id07,2024-07-26,2024-07-25,S1,3,0.9223507042282848,0.9216005296464892,3.917279624177095e-06,0.2585542857142857,0.5277371428571428,-0.1077577142857144,0.9476857142857142,0.9794285714285714,0.3269070857142857,1.0,1.0,0,4.0,7.150759261260218,1.0,1.0,-0.0046557360965975,-2.455648310831864e-09,-2.6763739925174846e-06,0.0,0.0,0.0,1.0,0.580049688553327,0.0,0.9822857142857144,0.0777142857142857,0.1788571428571428,1.0,1.0,seed_q061_companion,0.24256,0.9217729289840444,-0.0080398963166077,2.11564951174692e-06,0.0080398963166077,0.0,1.0,1.0,0.1396150285714285,0.934273302796362,1,0.934273302796362,1.2071833231409308e-06,0.8719085714285715,0.2506320694487556,0.0026125534551015,0.0005915360823307,1.035188144078876,0.8891428571428571,0.8372818556296139,0.4899545142857143,0.1795407734626453,0.0010428642033394,0.9220945637329848,-0.0035709979341165,1.0,-1.6061254654586854e-06,0.0,0.4542857142857143,0.4657142857142857,0.4590857142857142,0.9133771428571428,0.0710912959861103,0.0364342857142856,4.0,3.0,1.0,0.6586345381526104,-0.839699808785118,-0.5430508550092121,-0.15082429716137438,0.9885605855918884,6.0,0.41379310344827586,30.0,0.0,0.0,0.0,1.0,0.0,0.0,0.0,0.0,0.0,0.0,0.0,0.0,0.0,0.0,1.0,1.0,0.0,0.0,0.0,0.0,0.0,0.0,1.0,0.0,1.0,1.0,0.0,0.4193183980408162,0.3923701142857143,0.24,0.24,0.1983464187428571,h105_move
h105_broad_coeff_transport_c180_s58_7971b5d7,1154,164,id07,2024-07-26,2024-07-25,S4,6,0.3773264958983826,0.3806992444389726,2.417989854019975e-05,0.3498857142857143,0.5277371428571428,-0.0450253714285713,0.9542,0.92,0.3851811428571428,1.0,1.0,0,4.0,7.150759261260218,1.0,1.0,0.006397676751739,-1.1884740666293036e-08,-1.652587185190865e-05,0.0,0.0,0.0,1.0,0.3149601376641728,0.0,0.9497142857142856,0.0777142857142857,0.1788571428571428,1.0,1.0,seed_q061_companion,0.2868685714285713,0.3806108503006162,0.0139551743480836,2.086447315363671e-05,0.0139551743480836,0.0,1.0,1.0,0.2017081142857142,0.3827457929282127,0,0.6172542070717872,4.143843838059222e-07,0.6303542857142858,-0.0798121694974146,0.0046721907240113,0.0005578411478312,0.9762220087046362,0.1765714285714285,0.6369021237462911,0.1225257142857142,0.0230015601792245,6.238347097342611e-05,0.3820022291534626,0.0198530550945121,1.0,-1.8827635697604705e-05,0.0,0.4542857142857143,0.5508571428571428,0.4944,0.9444742857142856,-0.1028137296766391,0.088597257142857,4.0,3.0,1.0,0.6586345381526104,-0.839699808785118,-0.5430508550092121,-0.15082429716137438,0.9885605855918884,6.0,0.41379310344827586,30.0,0.0,0.0,0.0,0.0,0.0,0.0,1.0,0.0,0.0,0.0,0.0,0.0,0.0,0.0,1.0,1.0,0.0,0.0,0.0,0.0,0.0,0.0,1.0,0.0,1.0,1.0,0.0,0.4669480868571428,0.39203521142857145,-0.24,0.24,0.20109141750857143,h105_move
h105_objective_coeff_q2zero_c150_s52_127f76c9,1008,144,id06,2024-08-14,2024-08-13,Q1,0,0.0904283679242036,0.0930319502347153,4.085594337821519e-05,0.3494971428571429,0.670817142857143,0.0048861714285715,0.9795142857142858,0.9874285714285714,0.3680683428571428,1.0,1.0,0,0.0,0.0,0.0,0.0,0.0,0.0,0.0,0.0,0.0,0.0,0.0,0.7269206507897797,0.0,0.9891428571428572,0.0777142857142857,0.1788571428571428,0.0,0.0,,-0.7422142857142857,0.0928307151681703,0.0288642242077825,3.165730741150341e-05,0.0288642242077825,0.0,0.0,0.0,0.0856351428571428,0.0891772641153207,0,0.9108227358846792,1.3452053532047517e-06,0.896137142857143,-0.2335523436079261,0.0044867794957299,0.0004822383003559,0.8439170256229658,0.0194285714285714,0.8584576336730294,-0.0003900571428571,-0.0153064438691346,9.5549357758129e-06,0.090151775928347,-0.0033674176512099,1.0,8.555621068218056e-06,8.555621068218056e-06,0.9188571428571428,0.4645714285714286,0.7183714285714287,0.9717428571428572,-0.1785263964032855,-0.0285194285714285,2.0,1.0,1.0,0.5783132530120482,-0.47243956847967067,-0.881363066014649,-0.9955262728085589,-0.09448513188803238,5.0,0.6956521739130435,24.0,1.0,0.0,0.0,0.0,0.0,0.0,0.0,0.0,0.0,0.0,1.0,1.0,0.0,0.0,0.0,0.0,0.0,0.0,0.0,0.0,0.0,1.0,0.0,1.0,0.0,0.0,1.0,0.0,0.20501291428571436,-0.15412800000000001,0.15412800000000001,0.05838616830116573,h105_move
h105_objective_coeff_q2zero_c150_s52_127f76c9,1010,144,id06,2024-08-14,2024-08-13,Q3,2,0.7530964107373385,0.7533060688078742,1.1822187706567187e-07,0.1906514285714285,0.670817142857143,0.3328430285714286,0.4842571428571429,0.4268571428571429,0.2659077142857142,1.0,1.0,0,3.0,1.4815760139224,1.0,1.0,0.0011278662604456,-5.3211147464858437e-11,-1.1822187706567182e-07,0.0,1.0,0.0,0.0,0.00365308581125,0.156435418150198,0.4182857142857142,0.6862857142857143,0.688,0.0,0.0,,0.4532971428571428,0.7533312901862517,0.0012635893748875,1.350275770084508e-07,0.0012635893748875,1.0,0.0,1.0,0.2487823428571428,0.7611739450510254,1,0.7611739450510254,4.467222197900529e-08,0.3201142857142857,0.029716187931472,0.0017199612737889,0.000627826127369,1.0986957228958183,0.9451428571428572,0.3740817901993886,0.643182742857143,0.0439311011078744,0.0001767593750644,0.7637201240802629,0.0579890534623943,1.0,0.0002959477991754,0.0002959477991754,0.992,0.7085714285714285,0.8645428571428572,0.919554285714286,-0.0458518275004828,0.1008794285714285,2.0,1.0,1.0,0.5783132530120482,-0.47243956847967067,-0.881363066014649,-0.9955262728085589,-0.09448513188803238,5.0,0.6956521739130435,24.0,0.0,0.0,1.0,0.0,0.0,0.0,0.0,0.0,0.0,0.0,1.0,1.0,0.0,0.0,0.0,0.0,0.0,0.0,0.0,0.0,0.0,1.0,0.0,1.0,0.0,1.0,0.0,0.794994089469388,0.7304870285714288,-0.26,0.26,0.24913941520000002,h105_move
h105_objective_coeff_q2zero_c150_s52_127f76c9,1011,144,id06,2024-08-14,2024-08-13,S1,3,0.9371612173475234,0.938050068105242,6.737603625239785e-06,0.4181828571428572,0.670817142857143,0.3955945714285715,0.6061428571428571,0.5925714285714285,0.4131582857142857,1.0,1.0,0,6.0,4.40455491164904,2.0,1.0,0.0151939330276178,-6.324202084681502e-08,-6.737603625239785e-06,1.0,1.0,0.0,0.0,0.0138457385950436,0.1370545027048125,0.5348571428571428,0.6497142857142857,0.6337142857142857,0.0,0.0,,0.5285085714285714,0.9380567154476852,0.0153083269528511,6.2253993175220845e-06,0.0153083269528511,1.0,0.0,1.0,0.3138071428571428,0.9435072112803232,1,0.9435072112803232,4.9518479574132515e-08,0.518,0.0565603896332951,0.0020106260677631,0.0005674055906361,0.992959783613246,0.4982857142857143,0.487265744782802,0.3616179428571429,0.1132081278206009,0.0003532406767614,0.9454074004541292,0.1494347287231923,1.0,0.0004958561125027,0.0004958561125027,0.9994285714285714,0.9171428571428571,0.9388285714285716,0.9012857142857144,-0.0566477381873058,0.1303845714285714,2.0,1.0,1.0,0.5783132530120482,-0.47243956847967067,-0.881363066014649,-0.9955262728085589,-0.09448513188803238,5.0,0.6956521739130435,24.0,0.0,0.0,0.0,1.0,0.0,0.0,0.0,0.0,0.0,0.0,1.0,1.0,0.0,0.0,0.0,0.0,0.0,0.0,0.0,0.0,0.0,0.0,1.0,0.0,1.0,1.0,0.0,0.8461527795918369,0.7918176,-0.26,0.26,0.2468051990857143,h105_move
h105_objective_coeff_q2zero_c150_s52_127f76c9,1012,144,id06,2024-08-14,2024-08-13,S2,4,0.9999959292610848,0.999999,1.666919095250906e-06,0.2473999999999999,0.670817142857143,0.4452796,0.1277285714285714,0.1785714285714285,0.36927,1.0,1.0,0,6.0,4.40455491164904,2.0,1.0,1.4038276053337364,-3.885961219697539e-10,-1.666919095250906e-06,1.0,1.0,0.0,0.0,0.0,9.635517453110577,0.1785714285714285,0.9965714285714286,0.9965714285714286,0.0,0.0,,0.6091914285714287,0.999999,1.4038276053337366,1.543528956725406e-06,1.4038276053337366,1.0,0.0,1.0,0.4963339428571429,0.999999,1,0.999999,1.6045441135884457e-08,0.5168628571428572,3.301327605306856,0.0,0.0006418679262943,1.1232688710151584,0.9514285714285714,0.909933617216266,0.7047982857142859,1.4038276053337366,1.666919095250906e-06,0.999999,1.4038276053337366,1.0,-1.666919095250906e-06,0.0,0.4542857142857143,0.984,0.6147428571428571,0.9294514285714288,1.8974999999731192,0.3850804571428571,2.0,1.0,1.0,0.5783132530120482,-0.47243956847967067,-0.881363066014649,-0.9955262728085589,-0.09448513188803238,5.0,0.6956521739130435,24.0,0.0,0.0,0.0,0.0,1.0,0.0,0.0,0.0,0.0,0.0,1.0,1.0,0.0,0.0,0.0,0.0,0.0,0.0,0.0,0.0,0.0,0.0,1.0,0.0,1.0,0.0,1.0,0.0,0.32724907428571437,0.19356663408633176,0.19356663408633176,0.11040327200000667,h105_move
h105_objective_coeff_q2zero_c150_s52_127f76c9,1014,144,id06,2024-08-14,2024-08-13,S4,6,0.9998058840987556,0.999999,0.0001878660951298,0.4405142857142857,0.670817142857143,0.5434293142857143,0.1422142857142857,0.1785714285714285,0.4980106285714286,1.0,0.0,0,6.0,4.40455491164904,2.0,1.0,5.268648544483414,-3.5150398796986695e-08,-0.0001878660951298,1.0,1.0,0.0,0.0,0.0,6.034330388536917,0.1785714285714285,0.9782857142857144,0.9782857142857144,0.0,0.0,,0.7044885714285714,0.999999,5.268648544483414,0.000117729057531,5.268648544483414,1.0,0.0,1.0,0.6072445142857142,0.999999,1,0.999999,1.7467234430170068e-08,0.5226628571428571,3.3711485444838587,2.7591020357320417e-08,0.0006997032448845,1.2244806785479692,0.9822857142857144,0.9594344415016696,0.7915548571428572,2.5,0.0001756977740381,0.9999723777413126,1.9499999999954376,1.0,-0.0001645621039854,0.0,0.4542857142857143,0.9897142857142858,0.645257142857143,0.69908,-1.897499999999555,0.4643764571428572,2.0,1.0,1.0,0.5783132530120482,-0.47243956847967067,-0.881363066014649,-0.9955262728085589,-0.09448513188803238,5.0,0.6956521739130435,24.0,0.0,0.0,0.0,0.0,0.0,0.0,1.0,0.0,0.0,0.0,1.0,1.0,0.0,0.0,0.0,0.0,0.0,0.0,0.0,0.0,0.0,0.0,1.0,0.0,1.0,1.0,0.0,0.45108636342857156,0.3302119314285714,-0.26,0.26,0.2600454842514286,h105_move
h105_objective_coeff_q2zero_c150_s52_127f76c9,1024,146,id06,2024-08-20,2024-08-19,Q3,2,0.7736009880946799,0.7702676426237776,3.161121768557873e-05,0.3797485714285715,0.7720971428571428,0.0719284571428571,0.9813142857142858,0.9725714285714284,0.4039997142857143,1.0,1.0,0,0.0,0.0,0.0,0.0,0.0,0.0,0.0,0.0,0.0,0.0,0.0,0.394521161874612,0.0,0.9668571428571427,0.0777142857142857,0.1788571428571428,0.0,0.0,,-0.7120142857142857,0.7703737157567802,-0.0183346335227059,2.6961297747818413e-05,0.0183346335227059,0.0,0.0,0.0,0.0903170857142856,0.7597164724330882,1,0.7597164724330882,2.307549978418787e-07,0.5049714285714286,0.0679624827259519,0.001223071808181,0.0005106701226822,0.8936727146939752,0.032,0.5584884301079426,0.0209509714285714,-0.0776315293173333,0.000542657395489,0.7736009880946799,0.0,0.0,0.0,0.0,0.4542857142857143,0.2202857142857142,0.0,0.9634171428571427,0.1285884888524503,0.1616148571428571,1.0,0.0,1.0,0.5863453815261044,-0.51629923627004,-0.8564082546466804,-0.9983886888289513,0.05674527309307293,5.0,0.782608695652174,24.0,0.0,0.0,1.0,0.0,0.0,0.0,0.0,0.0,1.0,1.0,0.0,0.0,0.0,0.0,0.0,0.0,0.0,0.0,0.0,0.0,0.0,1.0,0.0,1.0,0.0,0.0,0.0,0.0,0.23747382857142862,0.15412800000000001,0.15412800000000001,0.06295266035492572,h105_move
h105_objective_coeff_q2zero_c150_s52_127f76c9,1025,146,id06,2024-08-20,2024-08-19,S1,3,0.8954549884000682,0.8959698352864354,1.417783483670387e-06,0.3377485714285714,0.7720971428571428,0.5372021142857144,0.4566714285714286,0.1785714285714285,0.3825,1.0,1.0,0,2.0,1.93657810305736,1.0,1.0,0.0055115996762786,-7.210063458333783e-09,-1.417783483614876e-06,1.0,0.0,0.0,0.0,0.0,0.1814867640869667,0.1785714285714285,0.7262857142857143,0.7297142857142858,0.0,0.0,,0.5688714285714286,0.8960266401379597,0.0061211893265373,1.5910230796167824e-06,0.0061211893265373,0.0,0.0,1.0,0.2748399428571428,0.9013371564884484,1,0.9013371564884484,9.526538141963833e-08,0.5840571428571429,0.0605883148573789,0.0025008685591644,0.0005691878083733,0.996078664653354,0.5982857142857143,0.5025209256459693,0.4072595428571429,0.0644567290925564,0.0001879499485854,0.8960564726868825,0.006441449137962,1.0,-1.7434042313135834e-06,0.0,0.4542857142857143,0.4811428571428571,0.4641428571428571,0.6506171428571429,-0.0038684142351774,0.1833594285714285,1.0,0.0,1.0,0.5863453815261044,-0.51629923627004,-0.8564082546466804,-0.9983886888289513,0.05674527309307293,5.0,0.782608695652174,24.0,0.0,0.0,0.0,1.0,0.0,0.0,0.0,0.0,1.0,1.0,0.0,0.0,0.0,0.0,0.0,0.0,0.0,0.0,0.0,0.0,0.0,0.0,1.0,0.0,1.0,1.0,0.0,0.3019792995918367,0.4251408571428571,-0.14802747052745682,0.14802747052745682,0.14446678645415276,h105_move
h105_objective_coeff_q2zero_c150_s52_127f76c9,1057,151,id06,2024-08-25,2024-08-24,Q1,0,0.2931200235617892,0.2940047415236316,1.8877009515527732e-06,0.3332628571428572,0.7080171428571429,0.4039888571428572,0.5654857142857144,0.4817142857142857,0.3501362285714285,1.0,1.0,0,1.0,0.98640079466928,1.0,1.0,0.0042660984396376,-1.0020730809332893e-08,-1.8877009515527732e-06,1.0,0.0,0.0,0.0,0.0069087191295727,0.1085813693048932,0.46,0.5908571428571429,0.5965714285714285,0.0,0.0,,0.4900228571428571,0.2940407945891951,0.0044397867305515,1.860541860465581e-06,0.0044397867305515,1.0,0.0,1.0,0.2779978285714286,0.3160480568474452,1,0.6839519431525547,3.543989487264716e-07,0.5622057142857144,0.0767078893727275,0.0004647756016188,0.000563572964942,0.9862526886486588,0.3011428571428571,0.2390823668590611,0.2716846857142857,0.1082853490810346,0.001250143867855,0.2941165191992924,0.0048045551477717,1.0,-2.0308272858926557e-06,0.0,0.4542857142857143,0.4708571428571428,0.4616571428571429,0.8998400000000001,-0.0315774597083073,0.2318356571428572,6.0,5.0,1.0,0.606425702811245,-0.6199605408122385,-0.7846329892604547,-0.9067516281939827,0.42166513345018397,5.0,1.0,24.0,1.0,0.0,0.0,0.0,0.0,0.0,0.0,0.0,0.0,0.0,0.0,0.0,0.0,0.0,0.0,0.0,0.0,0.0,1.0,1.0,0.0,1.0,0.0,1.0,0.0,1.0,0.0,0.4154175634285715,0.5168146514285716,-0.26,0.26,0.24593445344000003,h105_move
h105_objective_coeff_q2zero_c150_s52_127f76c9,1059,151,id06,2024-08-25,2024-08-24,Q3,2,0.8051517532471274,0.8030150111803502,1.4511156814778214e-05,0.3337085714285714,0.7080171428571429,0.1520932571428572,0.9230857142857144,0.956,0.3712925714285713,1.0,1.0,0,0.0,0.0,0.0,0.0,0.0,0.0,0.0,0.0,0.0,0.0,0.0,0.2271737521378298,0.006086278522037,0.9222857142857144,0.2165714285714285,0.1788571428571428,0.0,0.0,,-0.7007057142857144,0.8030744767017115,-0.0131878844070159,1.2479027673317766e-05,0.0131878844070159,0.0,0.0,0.0,0.0559329142857143,0.7951378735404838,1,0.7951378735404838,5.971452035624195e-08,0.3412114285714285,0.0361493346156307,0.0011125015620337,0.0005754150819827,1.0069763934697766,0.7565714285714286,0.4100387233611863,0.4062238857142857,-0.0626314127524751,0.0003155568519088,0.8043516859284782,-0.0050918768989105,1.0,-8.541367909509212e-06,0.0,0.4542857142857143,0.4731428571428571,0.4653428571428571,0.9348628571428572,0.0987807473681059,0.0054983999999999,6.0,5.0,1.0,0.606425702811245,-0.6199605408122385,-0.7846329892604547,-0.9067516281939827,0.42166513345018397,5.0,1.0,24.0,0.0,0.0,1.0,0.0,0.0,0.0,0.0,0.0,0.0,0.0,0.0,0.0,0.0,0.0,0.0,0.0,0.0,0.0,1.0,1.0,0.0,1.0,0.0,1.0,0.0,1.0,0.0,0.43503175297959185,0.4528153828571429,0.26,0.26,0.21797766432000001,h105_move
h105_objective_coeff_q2zero_c150_s52_127f76c9,1061,151,id06,2024-08-25,2024-08-24,S2,4,0.9981439428441186,0.998512435704624,3.934155003913753e-05,0.403,0.7080171428571429,0.5408174285714287,0.3351285714285714,0.1785714285714285,0.4874879999999999,1.0,1.0,0,3.0,2.92297889772664,1.0,1.0,0.2216834577455344,-1.0398812883710049e-08,-3.9341550039137536e-05,1.0,0.0,0.0,0.0,0.0,3.3307603116267783,0.1785714285714285,0.9737142857142858,0.9737142857142858,0.0,0.0,,0.6423457142857143,0.999521326407364,1.3565697715067513,0.0006829433096435,1.3565697715067513,1.0,0.0,1.0,0.6416208000000001,0.9937327727306972,1,0.9937327727306972,1.160456504662981e-06,0.7978742857142858,0.6761912270338843,0.0001475624698845,0.0004930671839675,0.862867571943241,0.0222857142857142,0.7965956916172178,0.3023445714285714,-1.221308772966056,0.0032250526296801,0.9981439428441186,0.0,0.0,0.0,0.0,0.4542857142857143,0.2202857142857142,0.0,0.997977142857143,1.8974999999999405,0.7023259428571428,6.0,5.0,1.0,0.606425702811245,-0.6199605408122385,-0.7846329892604547,-0.9067516281939827,0.42166513345018397,5.0,1.0,24.0,0.0,0.0,0.0,0.0,1.0,0.0,0.0,0.0,0.0,0.0,0.0,0.0,0.0,0.0,0.0,0.0,0.0,0.0,1.0,1.0,0.0,0.0,1.0,0.0,1.0,0.0,0.0,0.0,0.4397429942857143,0.2591239696295369,0.2591239696295369,0.16057445560198716,h105_move
h105_objective_coeff_q2zero_c150_s52_127f76c9,1148,164,id07,2024-07-26,2024-07-25,Q1,0,0.5726236359257583,0.5785182382955152,7.107495999258973e-05,0.3531828571428571,0.5277371428571428,-0.0308976285714285,0.9647428571428572,0.9491428571428572,0.3696770285714286,1.0,1.0,0,4.0,7.150759261260218,1.0,1.0,0.0107728068932244,-1.2662505403575502e-08,-4.8598608335352806e-05,0.0,0.0,0.0,1.0,0.2847313265208278,0.0,0.9405714285714286,0.0777142857142857,0.1788571428571428,1.0,1.0,seed_q061_companion,0.2934971428571428,0.5784324143683724,0.023777970260246,6.281269137575762e-05,0.023777970260246,0.0,1.0,1.0,0.2427167428571428,0.6057356549616199,0,0.6057356549616199,2.395791371501162e-07,0.5222971428571428,-0.0601479714388651,0.0028665154478622,0.0005256559126248,0.919897847093514,0.0462857142857142,0.2934742653132805,0.0831499428571428,0.1368584367882453,0.0022566059611043,0.5926098562501864,0.082201326412172,1.0,0.0003458175576152,0.0003458175576152,0.9942857142857144,0.7868571428571428,0.8911714285714286,0.9825542857142858,-0.1970064082271105,0.0275415999999998,4.0,3.0,1.0,0.6586345381526104,-0.839699808785118,-0.5430508550092121,-0.15082429716137438,0.9885605855918884,6.0,0.41379310344827586,30.0,1.0,0.0,0.0,0.0,0.0,0.0,0.0,0.0,0.0,0.0,0.0,0.0,0.0,0.0,1.0,1.0,0.0,0.0,0.0,0.0,0.0,1.0,0.0,1.0,0.0,1.0,0.0,0.8756243064489797,0.6744735314285715,-0.26,0.26,0.2236678383085714,h105_move
h105_objective_coeff_q2zero_c150_s52_127f76c9,1150,164,id07,2024-07-26,2024-07-25,Q3,2,0.4259565486750093,0.4269931880734391,2.196973457047058e-06,0.2573485714285714,0.5277371428571428,0.3815033714285714,0.4755571428571428,0.1785714285714285,0.3029848571428571,1.0,1.0,0,4.0,7.150759261260218,1.0,1.0,0.0018921461975348,-3.1386519561959727e-09,-1.501803454773649e-06,0.0,0.0,0.0,1.0,0.0,0.1449356177140495,0.1785714285714285,0.6674285714285715,0.6782857142857143,1.0,1.0,seed_q061_companion,0.4895571428571429,0.4270190049503677,0.0043437215818961,2.100024117157595e-06,0.0043437215818961,1.0,0.0,1.0,0.2906211428571428,0.4461046069309509,0,0.5538953930690491,3.0615352131698396e-07,0.5612685714285714,0.0658539470598237,0.0014462362567198,0.0005931515106564,1.0380151436487377,0.8931428571428571,0.3058667154411794,0.6421355428571428,0.0819453714389487,0.0008269628319164,0.4365566105950964,0.043218942955514,1.0,0.0001829166359995,0.0001829166359995,0.9805714285714284,0.6462857142857142,0.8331428571428572,0.8843714285714287,-0.0160914243791249,0.1454114285714285,4.0,3.0,1.0,0.6586345381526104,-0.839699808785118,-0.5430508550092121,-0.15082429716137438,0.9885605855918884,6.0,0.41379310344827586,30.0,0.0,0.0,1.0,0.0,0.0,0.0,0.0,0.0,0.0,0.0,0.0,0.0,0.0,0.0,1.0,1.0,0.0,0.0,0.0,0.0,0.0,1.0,0.0,1.0,0.0,1.0,0.0,0.7368077387755103,0.5973442857142858,-0.17998610851157457,0.17998610851157457,0.1779364935598279,h105_move
h105_objective_coeff_q2zero_c150_s52_127f76c9,1151,164,id07,2024-07-26,2024-07-25,S1,3,0.9223507042282848,0.9216005296464892,3.917279624177095e-06,0.2585542857142857,0.5277371428571428,-0.1077577142857144,0.9476857142857142,0.9794285714285714,0.3269070857142857,1.0,1.0,0,4.0,7.150759261260218,1.0,1.0,-0.0046557360965975,-2.455648310831864e-09,-2.6763739925174846e-06,0.0,0.0,0.0,1.0,0.580049688553327,0.0,0.9822857142857144,0.0777142857142857,0.1788571428571428,1.0,1.0,seed_q061_companion,0.24256,0.9217729289840444,-0.0080398963166077,2.11564951174692e-06,0.0080398963166077,0.0,1.0,1.0,0.1396150285714285,0.934273302796362,1,0.934273302796362,1.2071833231409308e-06,0.8719085714285715,0.2506320694487556,0.0026125534551015,0.0005915360823307,1.035188144078876,0.8891428571428571,0.8372818556296139,0.4899545142857143,0.1795407734626453,0.0010428642033394,0.9220945637329848,-0.0035709979341165,1.0,-1.6061254654586854e-06,0.0,0.4542857142857143,0.4657142857142857,0.4590857142857142,0.9133771428571428,0.0710912959861103,0.0364342857142856,4.0,3.0,1.0,0.6586345381526104,-0.839699808785118,-0.5430508550092121,-0.15082429716137438,0.9885605855918884,6.0,0.41379310344827586,30.0,0.0,0.0,0.0,1.0,0.0,0.0,0.0,0.0,0.0,0.0,0.0,0.0,0.0,0.0,1.0,1.0,0.0,0.0,0.0,0.0,0.0,0.0,1.0,0.0,1.0,1.0,0.0,0.4193183980408162,0.3923701142857143,0.26,0.26,0.21487528697142852,h105_move
h105_objective_coeff_q2zero_c150_s52_127f76c9,1154,164,id07,2024-07-26,2024-07-25,S4,6,0.3773264958983826,0.3806992444389726,2.417989854019975e-05,0.3498857142857143,0.5277371428571428,-0.0450253714285713,0.9542,0.92,0.3851811428571428,1.0,1.0,0,4.0,7.150759261260218,1.0,1.0,0.006397676751739,-1.1884740666293036e-08,-1.652587185190865e-05,0.0,0.0,0.0,1.0,0.3149601376641728,0.0,0.9497142857142856,0.0777142857142857,0.1788571428571428,1.0,1.0,seed_q061_companion,0.2868685714285713,0.3806108503006162,0.0139551743480836,2.086447315363671e-05,0.0139551743480836,0.0,1.0,1.0,0.2017081142857142,0.3827457929282127,0,0.6172542070717872,4.143843838059222e-07,0.6303542857142858,-0.0798121694974146,0.0046721907240113,0.0005578411478312,0.9762220087046362,0.1765714285714285,0.6369021237462911,0.1225257142857142,0.0230015601792245,6.238347097342611e-05,0.3820022291534626,0.0198530550945121,1.0,-1.8827635697604705e-05,0.0,0.4542857142857143,0.5508571428571428,0.4944,0.9444742857142856,-0.1028137296766391,0.088597257142857,4.0,3.0,1.0,0.6586345381526104,-0.839699808785118,-0.5430508550092121,-0.15082429716137438,0.9885605855918884,6.0,0.41379310344827586,30.0,0.0,0.0,0.0,0.0,0.0,0.0,1.0,0.0,0.0,0.0,0.0,0.0,0.0,0.0,1.0,1.0,0.0,0.0,0.0,0.0,0.0,0.0,1.0,0.0,1.0,1.0,0.0,0.4669480868571428,0.39203521142857145,-0.26,0.26,0.21784903563428573,h105_move
h105_discrete_plus_only_c90_s30_8f0e502e,1010,144,id06,2024-08-14,2024-08-13,Q3,2,0.7530964107373385,0.7533060688078742,1.1822187706567187e-07,0.1906514285714285,0.670817142857143,0.3328430285714286,0.4842571428571429,0.4268571428571429,0.2659077142857142,1.0,1.0,0,3.0,1.4815760139224,1.0,1.0,0.0011278662604456,-5.3211147464858437e-11,-1.1822187706567182e-07,0.0,1.0,0.0,0.0,0.00365308581125,0.156435418150198,0.4182857142857142,0.6862857142857143,0.688,0.0,0.0,,0.4532971428571428,0.7533312901862517,0.0012635893748875,1.350275770084508e-07,0.0012635893748875,1.0,0.0,1.0,0.2487823428571428,0.7611739450510254,1,0.7611739450510254,4.467222197900529e-08,0.3201142857142857,0.029716187931472,0.0017199612737889,0.000627826127369,1.0986957228958183,0.9451428571428572,0.3740817901993886,0.643182742857143,0.0439311011078744,0.0001767593750644,0.7637201240802629,0.0579890534623943,1.0,0.0002959477991754,0.0002959477991754,0.992,0.7085714285714285,0.8645428571428572,0.919554285714286,-0.0458518275004828,0.1008794285714285,2.0,1.0,1.0,0.5783132530120482,-0.47243956847967067,-0.881363066014649,-0.9955262728085589,-0.09448513188803238,5.0,0.6956521739130435,24.0,0.0,0.0,1.0,0.0,0.0,0.0,0.0,0.0,0.0,0.0,1.0,1.0,0.0,0.0,0.0,0.0,0.0,0.0,0.0,0.0,0.0,1.0,0.0,1.0,0.0,1.0,0.0,0.794994089469388,0.7304870285714288,-0.3,0.3,0.287468556,h105_move
h105_discrete_plus_only_c90_s30_8f0e502e,1025,146,id06,2024-08-20,2024-08-19,S1,3,0.8954549884000682,0.8959698352864354,1.417783483670387e-06,0.3377485714285714,0.7720971428571428,0.5372021142857144,0.4566714285714286,0.1785714285714285,0.3825,1.0,1.0,0,2.0,1.93657810305736,1.0,1.0,0.0055115996762786,-7.210063458333783e-09,-1.417783483614876e-06,1.0,0.0,0.0,0.0,0.0,0.1814867640869667,0.1785714285714285,0.7262857142857143,0.7297142857142858,0.0,0.0,,0.5688714285714286,0.8960266401379597,0.0061211893265373,1.5910230796167824e-06,0.0061211893265373,0.0,0.0,1.0,0.2748399428571428,0.9013371564884484,1,0.9013371564884484,9.526538141963833e-08,0.5840571428571429,0.0605883148573789,0.0025008685591644,0.0005691878083733,0.996078664653354,0.5982857142857143,0.5025209256459693,0.4072595428571429,0.0644567290925564,0.0001879499485854,0.8960564726868825,0.006441449137962,1.0,-1.7434042313135834e-06,0.0,0.4542857142857143,0.4811428571428571,0.4641428571428571,0.6506171428571429,-0.0038684142351774,0.1833594285714285,1.0,0.0,1.0,0.5863453815261044,-0.51629923627004,-0.8564082546466804,-0.9983886888289513,0.05674527309307293,5.0,0.782608695652174,24.0,0.0,0.0,0.0,1.0,0.0,0.0,0.0,0.0,1.0,1.0,0.0,0.0,0.0,0.0,0.0,0.0,0.0,0.0,0.0,0.0,0.0,0.0,1.0,0.0,1.0,1.0,0.0,0.3019792995918367,0.4251408571428571,-0.15474888676151272,0.15474888676151272,0.15102652432101524,h105_move
h105_discrete_plus_only_c90_s30_8f0e502e,1057,151,id06,2024-08-25,2024-08-24,Q1,0,0.2931200235617892,0.2940047415236316,1.8877009515527732e-06,0.3332628571428572,0.7080171428571429,0.4039888571428572,0.5654857142857144,0.4817142857142857,0.3501362285714285,1.0,1.0,0,1.0,0.98640079466928,1.0,1.0,0.0042660984396376,-1.0020730809332893e-08,-1.8877009515527732e-06,1.0,0.0,0.0,0.0,0.0069087191295727,0.1085813693048932,0.46,0.5908571428571429,0.5965714285714285,0.0,0.0,,0.4900228571428571,0.2940407945891951,0.0044397867305515,1.860541860465581e-06,0.0044397867305515,1.0,0.0,1.0,0.2779978285714286,0.3160480568474452,1,0.6839519431525547,3.543989487264716e-07,0.5622057142857144,0.0767078893727275,0.0004647756016188,0.000563572964942,0.9862526886486588,0.3011428571428571,0.2390823668590611,0.2716846857142857,0.1082853490810346,0.001250143867855,0.2941165191992924,0.0048045551477717,1.0,-2.0308272858926557e-06,0.0,0.4542857142857143,0.4708571428571428,0.4616571428571429,0.8998400000000001,-0.0315774597083073,0.2318356571428572,6.0,5.0,1.0,0.606425702811245,-0.6199605408122385,-0.7846329892604547,-0.9067516281939827,0.42166513345018397,5.0,1.0,24.0,1.0,0.0,0.0,0.0,0.0,0.0,0.0,0.0,0.0,0.0,0.0,0.0,0.0,0.0,0.0,0.0,0.0,0.0,1.0,1.0,0.0,1.0,0.0,1.0,0.0,1.0,0.0,0.4154175634285715,0.5168146514285716,-0.3,0.3,0.2837705232,h105_move
h105_discrete_plus_only_c90_s30_8f0e502e,1059,151,id06,2024-08-25,2024-08-24,Q3,2,0.8051517532471274,0.8030150111803502,1.4511156814778214e-05,0.3337085714285714,0.7080171428571429,0.1520932571428572,0.9230857142857144,0.956,0.3712925714285713,1.0,1.0,0,0.0,0.0,0.0,0.0,0.0,0.0,0.0,0.0,0.0,0.0,0.0,0.2271737521378298,0.006086278522037,0.9222857142857144,0.2165714285714285,0.1788571428571428,0.0,0.0,,-0.7007057142857144,0.8030744767017115,-0.0131878844070159,1.2479027673317766e-05,0.0131878844070159,0.0,0.0,0.0,0.0559329142857143,0.7951378735404838,1,0.7951378735404838,5.971452035624195e-08,0.3412114285714285,0.0361493346156307,0.0011125015620337,0.0005754150819827,1.0069763934697766,0.7565714285714286,0.4100387233611863,0.4062238857142857,-0.0626314127524751,0.0003155568519088,0.8043516859284782,-0.0050918768989105,1.0,-8.541367909509212e-06,0.0,0.4542857142857143,0.4731428571428571,0.4653428571428571,0.9348628571428572,0.0987807473681059,0.0054983999999999,6.0,5.0,1.0,0.606425702811245,-0.6199605408122385,-0.7846329892604547,-0.9067516281939827,0.42166513345018397,5.0,1.0,24.0,0.0,0.0,1.0,0.0,0.0,0.0,0.0,0.0,0.0,0.0,0.0,0.0,0.0,0.0,0.0,0.0,0.0,0.0,1.0,1.0,0.0,1.0,0.0,1.0,0.0,1.0,0.0,0.43503175297959185,0.4528153828571429,0.3,0.3,0.2515126896,h105_move
h105_discrete_plus_only_c90_s30_8f0e502e,1148,164,id07,2024-07-26,2024-07-25,Q1,0,0.5726236359257583,0.5785182382955152,7.107495999258973e-05,0.3531828571428571,0.5277371428571428,-0.0308976285714285,0.9647428571428572,0.9491428571428572,0.3696770285714286,1.0,1.0,0,4.0,7.150759261260218,1.0,1.0,0.0107728068932244,-1.2662505403575502e-08,-4.8598608335352806e-05,0.0,0.0,0.0,1.0,0.2847313265208278,0.0,0.9405714285714286,0.0777142857142857,0.1788571428571428,1.0,1.0,seed_q061_companion,0.2934971428571428,0.5784324143683724,0.023777970260246,6.281269137575762e-05,0.023777970260246,0.0,1.0,1.0,0.2427167428571428,0.6057356549616199,0,0.6057356549616199,2.395791371501162e-07,0.5222971428571428,-0.0601479714388651,0.0028665154478622,0.0005256559126248,0.919897847093514,0.0462857142857142,0.2934742653132805,0.0831499428571428,0.1368584367882453,0.0022566059611043,0.5926098562501864,0.082201326412172,1.0,0.0003458175576152,0.0003458175576152,0.9942857142857144,0.7868571428571428,0.8911714285714286,0.9825542857142858,-0.1970064082271105,0.0275415999999998,4.0,3.0,1.0,0.6586345381526104,-0.839699808785118,-0.5430508550092121,-0.15082429716137438,0.9885605855918884,6.0,0.41379310344827586,30.0,1.0,0.0,0.0,0.0,0.0,0.0,0.0,0.0,0.0,0.0,0.0,0.0,0.0,0.0,1.0,1.0,0.0,0.0,0.0,0.0,0.0,1.0,0.0,1.0,0.0,1.0,0.0,0.8756243064489797,0.6744735314285715,-0.3,0.3,0.25807827497142855,h105_move
h105_discrete_plus_only_c90_s30_8f0e502e,1150,164,id07,2024-07-26,2024-07-25,Q3,2,0.4259565486750093,0.4269931880734391,2.196973457047058e-06,0.2573485714285714,0.5277371428571428,0.3815033714285714,0.4755571428571428,0.1785714285714285,0.3029848571428571,1.0,1.0,0,4.0,7.150759261260218,1.0,1.0,0.0018921461975348,-3.1386519561959727e-09,-1.501803454773649e-06,0.0,0.0,0.0,1.0,0.0,0.1449356177140495,0.1785714285714285,0.6674285714285715,0.6782857142857143,1.0,1.0,seed_q061_companion,0.4895571428571429,0.4270190049503677,0.0043437215818961,2.100024117157595e-06,0.0043437215818961,1.0,0.0,1.0,0.2906211428571428,0.4461046069309509,0,0.5538953930690491,3.0615352131698396e-07,0.5612685714285714,0.0658539470598237,0.0014462362567198,0.0005931515106564,1.0380151436487377,0.8931428571428571,0.3058667154411794,0.6421355428571428,0.0819453714389487,0.0008269628319164,0.4365566105950964,0.043218942955514,1.0,0.0001829166359995,0.0001829166359995,0.9805714285714284,0.6462857142857142,0.8331428571428572,0.8843714285714287,-0.0160914243791249,0.1454114285714285,4.0,3.0,1.0,0.6586345381526104,-0.839699808785118,-0.5430508550092121,-0.15082429716137438,0.9885605855918884,6.0,0.41379310344827586,30.0,0.0,0.0,1.0,0.0,0.0,0.0,0.0,0.0,0.0,0.0,0.0,0.0,0.0,0.0,1.0,1.0,0.0,0.0,0.0,0.0,0.0,1.0,0.0,1.0,0.0,1.0,0.0,0.7368077387755103,0.5973442857142858,-0.24643272112424341,0.24643272112424341,0.2436264368282341,h105_move
h105_discrete_plus_only_c90_s30_8f0e502e,1151,164,id07,2024-07-26,2024-07-25,S1,3,0.9223507042282848,0.9216005296464892,3.917279624177095e-06,0.2585542857142857,0.5277371428571428,-0.1077577142857144,0.9476857142857142,0.9794285714285714,0.3269070857142857,1.0,1.0,0,4.0,7.150759261260218,1.0,1.0,-0.0046557360965975,-2.455648310831864e-09,-2.6763739925174846e-06,0.0,0.0,0.0,1.0,0.580049688553327,0.0,0.9822857142857144,0.0777142857142857,0.1788571428571428,1.0,1.0,seed_q061_companion,0.24256,0.9217729289840444,-0.0080398963166077,2.11564951174692e-06,0.0080398963166077,0.0,1.0,1.0,0.1396150285714285,0.934273302796362,1,0.934273302796362,1.2071833231409308e-06,0.8719085714285715,0.2506320694487556,0.0026125534551015,0.0005915360823307,1.035188144078876,0.8891428571428571,0.8372818556296139,0.4899545142857143,0.1795407734626453,0.0010428642033394,0.9220945637329848,-0.0035709979341165,1.0,-1.6061254654586854e-06,0.0,0.4542857142857143,0.4657142857142857,0.4590857142857142,0.9133771428571428,0.0710912959861103,0.0364342857142856,4.0,3.0,1.0,0.6586345381526104,-0.839699808785118,-0.5430508550092121,-0.15082429716137438,0.9885605855918884,6.0,0.41379310344827586,30.0,0.0,0.0,0.0,1.0,0.0,0.0,0.0,0.0,0.0,0.0,0.0,0.0,0.0,0.0,1.0,1.0,0.0,0.0,0.0,0.0,0.0,0.0,1.0,0.0,1.0,1.0,0.0,0.4193183980408162,0.3923701142857143,0.3,0.3,0.24793302342857138,h105_move
h105_discrete_plus_only_c90_s30_8f0e502e,1154,164,id07,2024-07-26,2024-07-25,S4,6,0.3773264958983826,0.3806992444389726,2.417989854019975e-05,0.3498857142857143,0.5277371428571428,-0.0450253714285713,0.9542,0.92,0.3851811428571428,1.0,1.0,0,4.0,7.150759261260218,1.0,1.0,0.006397676751739,-1.1884740666293036e-08,-1.652587185190865e-05,0.0,0.0,0.0,1.0,0.3149601376641728,0.0,0.9497142857142856,0.0777142857142857,0.1788571428571428,1.0,1.0,seed_q061_companion,0.2868685714285713,0.3806108503006162,0.0139551743480836,2.086447315363671e-05,0.0139551743480836,0.0,1.0,1.0,0.2017081142857142,0.3827457929282127,0,0.6172542070717872,4.143843838059222e-07,0.6303542857142858,-0.0798121694974146,0.0046721907240113,0.0005578411478312,0.9762220087046362,0.1765714285714285,0.6369021237462911,0.1225257142857142,0.0230015601792245,6.238347097342611e-05,0.3820022291534626,0.0198530550945121,1.0,-1.8827635697604705e-05,0.0,0.4542857142857143,0.5508571428571428,0.4944,0.9444742857142856,-0.1028137296766391,0.088597257142857,4.0,3.0,1.0,0.6586345381526104,-0.839699808785118,-0.5430508550092121,-0.15082429716137438,0.9885605855918884,6.0,0.41379310344827586,30.0,0.0,0.0,0.0,0.0,0.0,0.0,1.0,0.0,0.0,0.0,0.0,0.0,0.0,0.0,1.0,1.0,0.0,0.0,0.0,0.0,0.0,0.0,1.0,0.0,1.0,1.0,0.0,0.4669480868571428,0.39203521142857145,-0.3,0.3,0.2513642718857143,h105_move
