kbsooo/etri/hitl/h098_frontier_weighted_action_equation_hsjepa/h098_selected_cells.csv
candidate_id,flat_index,row,subject_id,sleep_date,lifelog_date,target,target_index,h057_prob,q061,cell_q061_gain,public_score,invariant_score,private_safe_score,latent_shortcut_energy,bad_pressure_rank,h068_cell_health,outside_h069_cell,outside_h070_cell,is_h050_null,source_count,source_weight,source_family_count,source_consensus,source_mean_move,source_action_delta,source_posterior_delta,hit_h071,hit_h074,hit_h076,hit_h079,h080_bad_same_raw,h080_bad_opp_raw,h080_bad_same_rank,h080_bad_opp_rank,h080_bad_margin_rank,h079_cell,h079_row,h079_role,h080_cell_score,h085_q,h085_q_move,h085_q_gain,h085_abs_q_move,h082_cell,h084_dark_cell,source_agrees_h085,h085_cell_score,q_hard,best_world_y,confidence,hard_gain,combined_score,hard_logit_delta,binary_shock,h086_resp_weight,h086_resp_lift,h086_resp_rank,h086_equation_alignment,h086_resp_action_score,hard_logit_move,hard_diag_gain,h088_prob,h088_logit_move,h088_active,h088_q_delta,h088_q_bad,h088_bad_rank,h088_move_abs_rank,h088_toxicity,h057_positive_weight,h057_positive_logit_move,h095_safe_cell_score,sleep_dow,lifelog_dow,date_gap_days,row_norm,row_sin1,row_cos1,row_sin3,row_cos3,subject_idx,within_subject_norm,subject_block_size,target_Q1,target_Q2,target_Q3,target_S1,target_S2,target_S3,target_S4,sleep_dow_0,lifelog_dow_0,sleep_dow_1,lifelog_dow_1,sleep_dow_2,lifelog_dow_2,sleep_dow_3,lifelog_dow_3,sleep_dow_4,lifelog_dow_4,sleep_dow_5,lifelog_dow_5,sleep_dow_6,lifelog_dow_6,is_q,is_s,is_subjective_quality,is_objective_stage,h057_h088_anti_conflict,h057_h088_same_conflict,conflict_strength,h097_gradient,h097_descent_logit_move,h097_counter_h088_move,h097_conflict_move,h097_positive_move,h097_cell_score,h098_frontier_cell_score,h097_move_col
h098_frontier_descent_all_c220_a040_7dd22fd7,1153,164,id07,2024-07-26,2024-07-25,S3,5,0.8114316233549538,0.8129887509730154,7.939960443903438e-06,0.1875085714285714,0.5277371428571428,0.2590490857142856,0.5700857142857143,0.4445714285714285,0.306936,1.0,1.0,0,4.0,7.150759261260218,1.0,1.0,0.3695999999999992,-0.000418391461814,0.0090873447459736,0.0,0.0,0.0,1.0,0.004617974513143,0.0414269474669469,0.4314285714285714,0.4211428571428571,0.4571428571428571,1.0,1.0,seed_hardtail,0.4368742857142856,0.8129847541752478,0.0101827729204322,7.1893361767716435e-06,0.0101827729204322,1.0,0.0,1.0,0.2626705142857142,0.8276021121509791,1,0.8276021121509791,5.32025972518485e-08,0.4338171428571428,0.0361397720596656,0.001909698614804,0.0005618909675197,0.9833091931595876,0.2554285714285714,-0.1388834772158921,0.2157661714285714,0.109387949415636,0.0008741227429472,0.8204968531199776,0.060377894169503,1.0,0.0001816353473442,0.0001816353473442,0.98,0.7182857142857143,0.8542571428571428,0.9192914285714286,-0.0732481773559703,0.1178602285714285,4.0,3.0,1.0,0.6586345381526104,-0.839699808785118,-0.5430508550092121,-0.15082429716137438,0.9885605855918884,6.0,0.41379310344827586,30.0,0.0,0.0,0.0,0.0,0.0,1.0,0.0,0.0,0.0,0.0,0.0,0.0,0.0,0.0,1.0,1.0,0.0,0.0,0.0,0.0,0.0,0.0,1.0,0.0,1.0,1.0,0.0,0.7853112692244898,0.0006919673823867869,-0.9999999887334228,-0.2863960001267486,-0.4544840154344797,-0.4544840154344797,0.7967975657142858,0.7967975657142858,h097_descent_logit_move
h098_frontier_descent_all_c220_a040_7dd22fd7,1011,144,id06,2024-08-14,2024-08-13,S1,3,0.9371612173475234,0.938050068105242,6.737603625239785e-06,0.4181828571428572,0.670817142857143,0.3955945714285715,0.6061428571428571,0.5925714285714285,0.4131582857142857,1.0,1.0,0,6.0,4.40455491164904,2.0,1.0,0.0151939330276178,-6.324202084681502e-08,-6.737603625239785e-06,1.0,1.0,0.0,0.0,0.0138457385950436,0.1370545027048125,0.5348571428571428,0.6497142857142857,0.6337142857142857,0.0,0.0,,0.5285085714285714,0.9380567154476852,0.0153083269528511,6.2253993175220845e-06,0.0153083269528511,1.0,0.0,1.0,0.3138071428571428,0.9435072112803232,1,0.9435072112803232,4.9518479574132515e-08,0.518,0.0565603896332951,0.0020106260677631,0.0005674055906361,0.992959783613246,0.4982857142857143,0.487265744782802,0.3616179428571429,0.1132081278206009,0.0003532406767614,0.9454074004541292,0.1494347287231923,1.0,0.0004958561125027,0.0004958561125027,0.9994285714285714,0.9171428571428571,0.9388285714285716,0.9012857142857144,-0.0566477381873058,0.1303845714285714,2.0,1.0,1.0,0.5783132530120482,-0.47243956847967067,-0.881363066014649,-0.9955262728085589,-0.09448513188803238,5.0,0.6956521739130435,24.0,0.0,0.0,0.0,1.0,0.0,0.0,0.0,0.0,0.0,0.0,1.0,1.0,0.0,0.0,0.0,0.0,0.0,0.0,0.0,0.0,0.0,0.0,1.0,0.0,1.0,1.0,0.0,0.8461527795918369,0.00012130926929175625,-0.9308842916497657,-0.6225884598802627,-0.36202181119587806,-0.36202181119587806,0.7918176,0.7918176,h097_descent_logit_move
h098_frontier_descent_all_c220_a040_7dd22fd7,1588,226,id09,2024-09-21,2024-09-20,S4,6,0.7104535414465696,0.7110198835302667,7.799049277501524e-07,0.2826114285714286,0.5007771428571429,0.3803166285714286,0.4467285714285715,0.1785714285714285,0.3474061714285714,1.0,1.0,0,2.0,1.93657810305736,1.0,1.0,0.0027547162616905,-1.664293927511782e-09,-7.799049277501525e-07,1.0,0.0,0.0,0.0,0.0,0.2177525377063177,0.1785714285714285,0.7822857142857143,0.7834285714285715,0.0,0.0,,0.50158,0.7110755884780996,0.0030258408548433,8.562511311094312e-07,0.0030258408548433,1.0,0.0,1.0,0.2848805142857142,0.7253842671965738,1,0.7253842671965738,2.206396430290567e-07,0.6813028571428571,0.0614132157370143,0.0049648432062501,0.0005549856304347,0.971224853260826,0.1394285714285714,0.8634167914483498,0.2099168,0.0737409588063007,0.0005475538557093,0.7158923589273024,0.0265888406197017,1.0,5.590302905544853e-05,5.590302905544853e-05,0.9537142857142856,0.5765714285714286,0.7840857142857143,0.8783542857142858,-0.0123277430692864,0.1520126857142857,5.0,4.0,1.0,0.9076305220883534,-0.5483371924577639,0.8362573308303713,-0.9855293386108988,-0.16950493425609892,8.0,0.9615384615384616,27.0,0.0,0.0,0.0,0.0,0.0,0.0,1.0,0.0,0.0,0.0,0.0,0.0,0.0,0.0,0.0,0.0,1.0,1.0,0.0,0.0,0.0,0.0,1.0,0.0,1.0,1.0,0.0,0.6887050475102041,2.9395634569415002e-05,-0.3829026077818813,-0.12902663288632812,-0.08233742194422898,-0.08233742194422898,0.7385512114285714,0.7385512114285714,h097_descent_logit_move
h098_frontier_descent_all_c220_a040_7dd22fd7,1010,144,id06,2024-08-14,2024-08-13,Q3,2,0.7530964107373385,0.7533060688078742,1.1822187706567187e-07,0.1906514285714285,0.670817142857143,0.3328430285714286,0.4842571428571429,0.4268571428571429,0.2659077142857142,1.0,1.0,0,3.0,1.4815760139224,1.0,1.0,0.0011278662604456,-5.3211147464858437e-11,-1.1822187706567182e-07,0.0,1.0,0.0,0.0,0.00365308581125,0.156435418150198,0.4182857142857142,0.6862857142857143,0.688,0.0,0.0,,0.4532971428571428,0.7533312901862517,0.0012635893748875,1.350275770084508e-07,0.0012635893748875,1.0,0.0,1.0,0.2487823428571428,0.7611739450510254,1,0.7611739450510254,4.467222197900529e-08,0.3201142857142857,0.029716187931472,0.0017199612737889,0.000627826127369,1.0986957228958183,0.9451428571428572,0.3740817901993886,0.643182742857143,0.0439311011078744,0.0001767593750644,0.7637201240802629,0.0579890534623943,1.0,0.0002959477991754,0.0002959477991754,0.992,0.7085714285714285,0.8645428571428572,0.919554285714286,-0.0458518275004828,0.1008794285714285,2.0,1.0,1.0,0.5783132530120482,-0.47243956847967067,-0.881363066014649,-0.9955262728085589,-0.09448513188803238,5.0,0.6956521739130435,24.0,0.0,0.0,1.0,0.0,0.0,0.0,0.0,0.0,0.0,0.0,1.0,1.0,0.0,0.0,0.0,0.0,0.0,0.0,0.0,0.0,0.0,1.0,0.0,1.0,0.0,1.0,0.0,0.794994089469388,3.431319528069757e-05,-0.43896680839638214,-0.27565958444418215,-0.2976515027567479,-0.2976515027567479,0.7304870285714288,0.7304870285714288,h097_descent_logit_move
h098_frontier_descent_all_c220_a040_7dd22fd7,711,101,id04,2024-10-24,2024-10-23,S2,4,0.6305675213766556,0.6351957309635454,4.6056233272473435e-05,0.40848,0.2851371428571428,0.0570570571428571,0.8619714285714286,0.7348571428571429,0.431514,1.0,1.0,0,2.0,3.6,1.0,1.0,0.0031871957880652,-8.016758951310297e-09,-1.3494262026292336e-05,0.0,0.0,0.0,1.0,0.1430243648380504,0.0,0.864,0.0777142857142857,0.1788571428571428,1.0,1.0,episode_neighbor_q061,0.2902457142857143,0.6351331487720179,0.0196499092186098,4.078936731355398e-05,0.0196499092186098,0.0,0.0,1.0,0.1718045142857143,0.6650419717950932,1,0.6650419717950932,2.0352761501509134e-09,0.2512571428571428,0.0057090605648272,0.0032792381022682,0.0005442750479921,0.9524813339863182,0.0817142857142857,0.014203639104959,0.0529656,0.1511926641849309,0.0025867160051563,0.6505488060127224,0.086800161993173,1.0,0.0004744196611539,0.0004744196611539,0.9988571428571428,0.8005714285714286,0.9029428571428572,0.9670914285714286,-0.1454836036201037,0.0032533714285713,3.0,2.0,1.0,0.40562248995983935,0.5588441929376095,-0.8292726741066004,0.9784091409455726,0.2066774126849536,3.0,0.8076923076923077,27.0,0.0,0.0,0.0,0.0,1.0,0.0,0.0,0.0,0.0,0.0,0.0,0.0,1.0,1.0,0.0,0.0,0.0,0.0,0.0,0.0,0.0,0.0,1.0,0.0,1.0,1.0,0.0,0.8732282976326531,0.00011630458519533094,-0.9211075986930438,-0.39993607082417915,-0.7504108545593277,-0.7504108545593277,0.6843005942857143,0.6843005942857143,h097_descent_logit_move
h098_frontier_descent_all_c220_a040_7dd22fd7,1148,164,id07,2024-07-26,2024-07-25,Q1,0,0.5726236359257583,0.5785182382955152,7.107495999258973e-05,0.3531828571428571,0.5277371428571428,-0.0308976285714285,0.9647428571428572,0.9491428571428572,0.3696770285714286,1.0,1.0,0,4.0,7.150759261260218,1.0,1.0,0.0107728068932244,-1.2662505403575502e-08,-4.8598608335352806e-05,0.0,0.0,0.0,1.0,0.2847313265208278,0.0,0.9405714285714286,0.0777142857142857,0.1788571428571428,1.0,1.0,seed_q061_companion,0.2934971428571428,0.5784324143683724,0.023777970260246,6.281269137575762e-05,0.023777970260246,0.0,1.0,1.0,0.2427167428571428,0.6057356549616199,0,0.6057356549616199,2.395791371501162e-07,0.5222971428571428,-0.0601479714388651,0.0028665154478622,0.0005256559126248,0.919897847093514,0.0462857142857142,0.2934742653132805,0.0831499428571428,0.1368584367882453,0.0022566059611043,0.5926098562501864,0.082201326412172,1.0,0.0003458175576152,0.0003458175576152,0.9942857142857144,0.7868571428571428,0.8911714285714286,0.9825542857142858,-0.1970064082271105,0.0275415999999998,4.0,3.0,1.0,0.6586345381526104,-0.839699808785118,-0.5430508550092121,-0.15082429716137438,0.9885605855918884,6.0,0.41379310344827586,30.0,1.0,0.0,0.0,0.0,0.0,0.0,0.0,0.0,0.0,0.0,0.0,0.0,0.0,0.0,1.0,1.0,0.0,0.0,0.0,0.0,0.0,1.0,0.0,1.0,0.0,1.0,0.0,0.8756243064489797,8.068176175542019e-05,-0.8031276134706257,-0.38091639554191503,-0.8664847613858135,-0.8664847613858135,0.6744735314285715,0.6744735314285715,h097_descent_logit_move
h098_frontier_descent_all_c220_a040_7dd22fd7,1150,164,id07,2024-07-26,2024-07-25,Q3,2,0.4259565486750093,0.4269931880734391,2.196973457047058e-06,0.2573485714285714,0.5277371428571428,0.3815033714285714,0.4755571428571428,0.1785714285714285,0.3029848571428571,1.0,1.0,0,4.0,7.150759261260218,1.0,1.0,0.0018921461975348,-3.1386519561959727e-09,-1.501803454773649e-06,0.0,0.0,0.0,1.0,0.0,0.1449356177140495,0.1785714285714285,0.6674285714285715,0.6782857142857143,1.0,1.0,seed_q061_companion,0.4895571428571429,0.4270190049503677,0.0043437215818961,2.100024117157595e-06,0.0043437215818961,1.0,0.0,1.0,0.2906211428571428,0.4461046069309509,0,0.5538953930690491,3.0615352131698396e-07,0.5612685714285714,0.0658539470598237,0.0014462362567198,0.0005931515106564,1.0380151436487377,0.8931428571428571,0.3058667154411794,0.6421355428571428,0.0819453714389487,0.0008269628319164,0.4365566105950964,0.043218942955514,1.0,0.0001829166359995,0.0001829166359995,0.9805714285714284,0.6462857142857142,0.8331428571428572,0.8843714285714287,-0.0160914243791249,0.1454114285714285,4.0,3.0,1.0,0.6586345381526104,-0.839699808785118,-0.5430508550092121,-0.15082429716137438,0.9885605855918884,6.0,0.41379310344827586,30.0,0.0,0.0,1.0,0.0,0.0,0.0,0.0,0.0,0.0,0.0,0.0,0.0,0.0,0.0,1.0,1.0,0.0,0.0,0.0,0.0,0.0,1.0,0.0,1.0,0.0,1.0,0.0,0.7368077387755103,4.294498596136279e-06,-0.058874039642547775,-0.20783016463455964,-0.10730433568688295,-0.10730433568688295,0.5973442857142858,0.5973442857142858,h097_descent_logit_move
h098_frontier_descent_all_c220_a040_7dd22fd7,23,3,id01,2024-08-03,2024-08-02,Q3,2,0.5825405612758282,0.5795370659761659,1.8534940263270627e-05,0.2811657142857143,0.6352171428571428,0.1250753999999999,0.8544285714285714,0.9097142857142856,0.3286348571428571,0.0,1.0,0,3.0,5.4,1.0,1.0,-0.0020563557839757,-1.3985871682512395e-09,-5.640630085346209e-06,0.0,0.0,0.0,1.0,0.127484423230084,0.0059622151491581,0.8485714285714285,0.2148571428571428,0.1788571428571428,1.0,1.0,episode_neighbor_q061,0.28076,0.5795635192393868,-0.0122295736452776,1.6570339673616097e-05,0.0122295736452776,1.0,0.0,1.0,0.1879783428571428,0.5577169744059128,0,0.5577169744059128,8.511330267661373e-11,0.1802285714285714,0.0011137372782469,0.0033986064699007,0.0005605465865673,0.9809565264928056,0.22,0.1387492598971923,0.2050615999999999,-0.1013098164667343,0.0012604154204444,0.5729004845201093,-0.0395164455506682,1.0,7.263366103893443e-05,7.263366103893443e-05,0.9571428571428572,0.6308571428571429,0.8040571428571429,0.9461771428571428,0.1024235537449813,0.0526738285714285,5.0,4.0,1.0,0.012048192771084338,0.0756287458844567,0.997136045279652,0.225155940522694,0.9743227403932134,0.0,0.11538461538461539,27.0,0.0,0.0,1.0,0.0,0.0,0.0,0.0,0.0,0.0,0.0,0.0,0.0,0.0,0.0,0.0,0.0,1.0,1.0,0.0,0.0,0.0,1.0,0.0,1.0,0.0,1.0,0.0,0.760780490122449,-1.461782808600078e-05,0.19798109253029106,0.1904796281519601,0.5951754951749221,0.5951754951749221,0.5840420685714287,0.5840420685714287,h097_descent_logit_move
h098_frontier_descent_all_c220_a040_7dd22fd7,429,61,id03,2024-08-19,2024-08-18,Q3,2,0.769391940972039,0.7691873343964346,1.1794978560519809e-07,0.1801828571428571,0.3370171428571429,0.0740792571428571,0.6702571428571429,0.7508571428571429,0.2411588571428571,1.0,1.0,0,2.0,3.6,1.0,1.0,-0.000184451677063,-5.6483338269916636e-11,-3.4533000903280715e-08,0.0,0.0,0.0,1.0,0.0259545843659137,0.1152267987939449,0.6217142857142857,0.6057142857142858,0.572,1.0,1.0,episode_neighbor_q061,0.3079257142857142,0.769159963715853,-0.0013069844411823,1.3796569509061385e-07,0.0013069844411823,0.0,0.0,1.0,0.0993245714285714,0.7570030321951982,0,0.7570030321951982,9.349604647858497e-08,0.3282628571428571,-0.0431694753420197,0.0002337820502099,0.000570936680997,0.9991391917449192,0.6605714285714286,0.4307766506520007,0.3147865142857143,-0.0685626666458385,0.0004272632394869,0.7692349173091595,-0.0008847885427687,1.0,-1.357899670484386e-07,0.0,0.4542857142857143,0.4502857142857143,0.4517142857142857,0.8968457142857144,0.0253931913038187,0.0444745142857143,0.0,6.0,1.0,0.24497991967871485,0.9995025893658627,0.03153686495097154,-0.995526272808559,-0.09448513188803126,2.0,0.1,21.0,0.0,0.0,1.0,0.0,0.0,0.0,0.0,1.0,0.0,0.0,0.0,0.0,0.0,0.0,0.0,0.0,0.0,0.0,0.0,0.0,1.0,1.0,0.0,1.0,0.0,1.0,0.0,0.4051180212244898,-3.75723322305093e-05,0.4743605781628997,0.004317619303338317,0.16836825727885685,0.16836825727885685,0.5751226514285716,0.5751226514285716,h097_descent_logit_move
h098_frontier_descent_all_c220_a040_7dd22fd7,6,0,id01,2024-07-31,2024-07-30,S4,6,0.5084298008946088,0.5091151839410136,9.39781743536372e-07,0.1482914285714285,0.5036571428571429,0.3172508,0.4932142857142857,0.1785714285714285,0.2109301714285714,1.0,1.0,0,0.0,0.0,0.0,0.0,0.0,0.0,0.0,0.0,0.0,0.0,0.0,0.0,0.1856015952715258,0.1785714285714285,0.7337142857142858,0.736,0.0,0.0,,-0.5764400000000001,0.5091590368126224,0.0029178468760701,9.681413111195525e-07,0.0029178468760701,0.0,0.0,0.0,0.0957847428571428,0.5223625210687107,1,0.5223625210687107,1.4679869777242745e-07,0.45888,0.045010420029887,0.0019122187266242,0.000551777393772,0.9656104391011492,0.108,0.502682123038882,0.0688006857142857,0.0557874001969457,0.000388523838803,0.5114968799282992,0.0122732280433281,1.0,9.8721686667691e-06,9.8721686667691e-06,0.9217142857142856,0.5114285714285715,0.7346857142857143,0.8756571428571429,-0.0107769801670586,-0.0351718857142857,2.0,1.0,1.0,0.0,0.0,1.0,0.0,1.0,0.0,0.0,27.0,0.0,0.0,0.0,0.0,0.0,0.0,1.0,0.0,0.0,0.0,1.0,1.0,0.0,0.0,0.0,0.0,0.0,0.0,0.0,0.0,0.0,0.0,1.0,0.0,1.0,1.0,0.0,0.6433327934693878,2.0447627369697292e-05,-0.27350164828270496,-0.05982015307442786,-0.07201824949096935,-0.07201824949096935,0.57472224,0.57472224,h097_descent_logit_move
h098_frontier_descent_all_c220_a040_7dd22fd7,492,70,id03,2024-09-16,2024-09-15,Q3,2,0.7379400612256236,0.7355869958106938,1.4288337799372997e-05,0.3116914285714286,0.6828971428571429,0.2207168285714285,0.8332285714285714,0.8417142857142857,0.3441497142857141,0.0,1.0,0,3.0,5.4,1.0,1.0,-0.0020221380359516,-3.134488404904697e-09,-4.346254514286939e-06,0.0,0.0,0.0,1.0,0.0731579621258778,0.0472847466857211,0.7742857142857142,0.44,0.1788571428571428,1.0,1.0,episode_neighbor_q061,0.3316057142857143,0.7355915224463873,-0.012109554749387,1.2950746220652398e-05,0.012109554749387,0.0,0.0,1.0,0.1411393714285714,0.7328617364915871,1,0.7328617364915871,2.4116037798910797e-07,0.5565599999999999,0.065736169256795,0.0009675930385018,0.0005668389182423,0.9919681069240556,0.4594285714285714,0.2781616572872293,0.2739041142857143,-0.0260986599217263,6.640444775363186e-05,0.7351021332494506,-0.0146242487539178,1.0,-1.3618258931202831e-05,0.0,0.4542857142857143,0.5257142857142857,0.4838571428571429,0.9333028571428572,0.0918348291785213,0.0667148571428571,0.0,6.0,1.0,0.28112449799196787,0.9809388143902331,-0.19431686088109762,-0.8327815731637613,0.553601708269484,2.0,0.55,21.0,0.0,0.0,1.0,0.0,0.0,0.0,0.0,1.0,0.0,0.0,0.0,0.0,0.0,0.0,0.0,0.0,0.0,0.0,0.0,0.0,1.0,1.0,0.0,1.0,0.0,1.0,0.0,0.45158525387755105,-3.475552489496882e-05,0.44385488597587336,0.07124341483015365,0.547468937695688,0.547468937695688,0.5586044000000001,0.5586044000000001,h097_descent_logit_move
h098_frontier_descent_all_c220_a040_7dd22fd7,949,135,id06,2024-07-14,2024-07-13,S2,4,0.9120002370412033,0.9128559625035724,4.575502052239777e-06,0.3906628571428571,0.4153771428571429,0.2220676,0.6870285714285714,0.6325714285714286,0.400656,0.0,1.0,0,0.0,0.0,0.0,0.0,0.0,0.0,0.0,0.0,0.0,0.0,0.0,0.0306072182800029,0.0387905347810696,0.6485714285714286,0.4114285714285714,0.3845714285714285,0.0,0.0,,-0.6916942857142857,0.9128484616979826,0.0106153362211465,4.091754492618893e-06,0.0106153362211465,0.0,0.0,0.0,0.0204137714285714,0.9250982584531292,1,0.9250982584531292,2.2462660630838865e-07,0.7114057142857144,0.1055641087159346,0.0028894661390598,0.0005657735831001,0.9901037704252228,0.4017142857142857,0.1604154161182626,0.1480686857142857,0.1754166861823174,0.0011206919463118,0.916900949362351,0.062660043836634,1.0,0.0001017187385513,0.0001017187385513,0.9645714285714284,0.7251428571428571,0.8401142857142857,0.9117314285714286,-0.0698525774663827,-0.1410235428571428,6.0,5.0,1.0,0.5421686746987951,-0.2618644849608063,-0.9651046531419334,-0.7137661126871386,-0.7003841348713511,5.0,0.30434782608695654,24.0,0.0,0.0,0.0,0.0,1.0,0.0,0.0,0.0,0.0,0.0,0.0,0.0,0.0,0.0,0.0,0.0,0.0,0.0,1.0,1.0,0.0,0.0,1.0,0.0,1.0,1.0,0.0,0.765958597877551,3.481571450463641e-05,-0.4445179993547255,-0.2965862016490989,-0.43626330430800747,-0.43626330430800747,0.5573068457142858,0.5573068457142858,h097_descent_logit_move
h098_frontier_descent_all_c220_a040_7dd22fd7,692,98,id04,2024-10-19,2024-10-18,S4,6,0.5214942199375637,0.5220806282002836,6.890459806063731e-07,0.1991714285714285,0.4586171428571429,0.1756905714285715,0.6144571428571429,0.6337142857142857,0.2882345142857143,1.0,1.0,0,0.0,0.0,0.0,0.0,0.0,0.0,0.0,0.0,0.0,0.0,0.0,0.0166549901710211,0.0640435912665656,0.56,0.4845714285714286,0.4805714285714286,0.0,0.0,,-0.6675114285714286,0.5220939306128404,0.0024034092933237,6.55804488269851e-07,0.0024034092933237,0.0,0.0,0.0,0.0311753714285714,0.5317358803323887,0,0.5317358803323887,1.616032067237963e-08,0.2549485714285714,0.0153557474784382,0.005842441771129,0.0005639505118782,0.9869133957869688,0.3177142857142857,0.3199408510132027,0.0963508571428571,0.041084505048586,0.0002103100861962,0.525141978301795,0.0146229027435558,1.0,1.7903928382079215e-05,1.7903928382079215e-05,0.932,0.5251428571428571,0.7487428571428572,0.8981142857142858,-0.0257287575701478,-0.0963236571428572,5.0,4.0,1.0,0.39357429718875503,0.6199605408122387,-0.7846329892604544,0.9067516281939827,0.4216651334501838,3.0,0.6923076923076923,27.0,0.0,0.0,0.0,0.0,0.0,0.0,1.0,0.0,0.0,0.0,0.0,0.0,0.0,0.0,0.0,0.0,1.0,1.0,0.0,0.0,0.0,0.0,1.0,0.0,1.0,1.0,0.0,0.6724566563265306,3.12372375914435e-05,-0.40426159357591074,-0.0712368798205084,-0.17055009356096082,-0.17055009356096082,0.5486207771428572,0.5486207771428572,h097_descent_logit_move
h098_frontier_descent_all_c220_a040_7dd22fd7,611,87,id04,2024-09-20,2024-09-19,Q3,2,0.5262087064141104,0.4031233706084962,0.0304304469211165,0.9348114285714284,0.668777142857143,0.7881529714285713,0.1240714285714285,0.1785714285714285,0.8152031428571428,1.0,0.0,0,22.0,22.431145652442883,4.0,1.0,-0.4072494561356441,-3.989143441440897e-06,-0.0251820984505949,1.0,1.0,1.0,1.0,0.0,0.9885766213058652,0.1785714285714285,0.9634285714285714,0.9634285714285714,1.0,1.0,episode_neighbor_q061,0.9533771428571428,0.4029349868617871,-0.4981817796394002,0.0278136487247597,0.4981817796394002,1.0,0.0,1.0,0.8573636571428571,0.419631020310157,1,0.580368979689843,1.5853105358177886e-05,0.7328342857142858,-0.4292192695252339,0.0005435105833482,0.0010115451373047,1.7702039902832445,0.9982857142857144,0.8022865849717844,0.9528608000000002,-0.4292192695252339,0.0227834373001778,0.3990894487263206,-0.5141915147230045,1.0,-0.0304934232336979,0.0,0.4542857142857143,0.9765714285714284,0.6928285714285715,0.0,0.0,0.6056266285714283,4.0,3.0,1.0,0.3493975903614458,0.8112359912185924,-0.5847188782240471,0.2981979110466653,0.9545040627715552,3.0,0.2692307692307692,27.0,0.0,0.0,1.0,0.0,0.0,0.0,0.0,0.0,0.0,0.0,0.0,0.0,0.0,0.0,1.0,1.0,0.0,0.0,0.0,0.0,0.0,1.0,0.0,1.0,0.0,0.0,0.0,0.0,-0.00015970572564815626,0.9753552056143946,0.9868563139989565,0.0,0.0,0.5456060914285715,0.5456060914285715,h097_descent_logit_move
h098_frontier_descent_all_c220_a040_7dd22fd7,968,138,id06,2024-07-18,2024-07-17,Q3,2,0.4927743691253319,0.4321963733197079,0.0073676515867672,0.9622742857142856,0.804777142857143,0.8663614285714285,0.1166428571428571,0.1785714285714285,0.8454457142857141,1.0,0.0,0,21.0,18.02115831398056,3.0,1.0,-0.2479050465070215,-4.869222831107984e-06,-0.0073187635516054,1.0,1.0,1.0,0.0,0.0,0.5367815247005342,0.1785714285714285,0.9417142857142856,0.9417142857142856,0.0,0.0,,0.9483,0.4320874115109612,-0.2444350683948596,0.0067324416316876,0.2444350683948596,1.0,0.0,1.0,0.8550852571428571,0.4360948678280086,1,0.5639051321719915,3.847802575600601e-06,0.7243085714285715,-0.2281216897973225,0.0008046320250879,0.0007550391546993,1.3213185207239284,0.9914285714285714,0.7421036097512338,0.9632077714285716,-0.2281216897973225,0.0064473979151725,0.4256380249591344,-0.2707660019641498,1.0,-0.0073092992823815,0.0,0.4542857142857143,0.9651428571428572,0.6885428571428572,0.0,0.0,0.6166021714285713,3.0,2.0,1.0,0.5542168674698795,-0.33410417149738975,-0.9425361545256727,-0.853134203527277,-0.5216915092004841,5.0,0.43478260869565216,24.0,0.0,0.0,1.0,0.0,0.0,0.0,0.0,0.0,0.0,0.0,0.0,0.0,1.0,1.0,0.0,0.0,0.0,0.0,0.0,0.0,0.0,1.0,0.0,1.0,0.0,0.0,0.0,0.0,-7.129463994822279e-05,0.7524255630510547,0.8671070467316533,0.0,0.0,0.5428922171428573,0.5428922171428573,h097_descent_logit_move
h098_frontier_descent_all_c220_a040_7dd22fd7,709,101,id04,2024-10-24,2024-10-23,Q3,2,0.7836327157945403,0.7816403087409958,1.168048358135554e-05,0.2945942857142857,0.2851371428571428,-0.0389592857142857,0.8681142857142857,0.8714285714285714,0.3298454285714285,1.0,1.0,0,2.0,3.6,1.0,1.0,-0.0018739318165117,-2.0788438578953267e-09,-3.417201348221433e-06,0.0,0.0,0.0,1.0,0.112718299813475,0.0,0.832,0.0777142857142857,0.1788571428571428,1.0,1.0,episode_neighbor_q061,0.2406514285714286,0.7816747794316019,-0.0115100999444255,1.0263480041294848e-05,0.0115100999444255,0.0,0.0,1.0,0.1124250857142857,0.7718980136932254,1,0.7718980136932254,1.1513008166658741e-08,0.2556914285714285,0.0152658122683577,0.0015390106257885,0.0005705088303653,0.9983904531393746,0.6508571428571429,0.2558821948728312,0.3108536,-0.0679034849537958,0.0004009186480832,0.7766653504406011,-0.0406248364023611,1.0,6.144628333681901e-05,6.144628333681901e-05,0.9554285714285714,0.6377142857142857,0.8043142857142858,0.9279028571428573,0.0831692972221536,-0.0305217142857143,3.0,2.0,1.0,0.40562248995983935,0.5588441929376095,-0.8292726741066004,0.9784091409455726,0.2066774126849536,3.0,0.8076923076923077,27.0,0.0,0.0,1.0,0.0,0.0,0.0,0.0,0.0,0.0,0.0,0.0,0.0,1.0,1.0,0.0,0.0,0.0,0.0,0.0,0.0,0.0,1.0,0.0,1.0,0.0,1.0,0.0,0.7463255237551022,-1.7175824227346826e-05,0.23146706622775595,0.19568676269606256,0.5055628676337081,0.5055628676337081,0.5417878857142857,0.5417878857142857,h097_descent_logit_move
h098_frontier_descent_all_c220_a040_7dd22fd7,880,125,id05,2024-11-18,2024-11-17,S3,5,0.1588994965091249,0.1609030335826174,1.4966527653759163e-05,0.2260342857142857,0.3890571428571429,0.3012000571428571,0.2679,0.1785714285714285,0.2780043428571428,1.0,1.0,0,12.0,9.44335428816672,3.0,1.0,0.0141893134350373,-7.918798969270131e-09,-1.462400613377379e-05,1.0,1.0,1.0,0.0,0.0,0.5276357905025717,0.1785714285714285,0.94,0.94,0.0,0.0,,0.5468885714285715,0.161017831970607,0.0157649166726665,1.5218288325402618e-05,0.0157649166726665,1.0,0.0,1.0,0.3655476,0.1844014380835588,1,0.8155985619164411,1.32772164754276e-06,0.7497371428571429,0.1796320869754222,0.0006535083719569,0.0005773119981181,1.0102959967066794,0.7857142857142857,0.6449109964374047,0.6075441142857142,0.1796320869754215,0.0023355330631202,0.1725184314782758,0.0985564992421552,1.0,0.0004549704302363,0.0004549704302363,0.9971428571428572,0.8342857142857143,0.9112571428571428,0.0,0.0,0.0975298285714285,0.0,6.0,1.0,0.5020080321285141,-0.012616503234503753,-0.9999204087556838,-0.03784147671767127,-0.9992837548163314,4.0,0.9,21.0,0.0,0.0,0.0,0.0,0.0,1.0,0.0,1.0,0.0,0.0,0.0,0.0,0.0,0.0,0.0,0.0,0.0,0.0,0.0,0.0,1.0,0.0,1.0,0.0,1.0,0.0,0.0,0.0,8.564214019245156e-05,-0.8260091147294683,-0.44699781477471756,0.0,0.0,0.5328335542857142,0.5328335542857142,h097_descent_logit_move
h098_frontier_descent_all_c220_a040_7dd22fd7,932,133,id06,2024-07-12,2024-07-11,Q2,1,0.7174950458348419,0.7212586787670654,3.5036204069083254e-05,0.4341314285714286,0.6680171428571429,0.4367490857142856,0.3315285714285714,0.1785714285714285,0.2423455999999999,1.0,1.0,0,11.0,9.30390473819112,2.0,1.0,0.0186437074536562,-1.2305453397356957e-07,-3.5036204069083254e-05,1.0,1.0,0.0,0.0,0.0,0.195763104146189,0.1785714285714285,0.7548571428571429,0.7577142857142857,0.0,0.0,,0.5661999999999999,0.7213078929965867,0.0188885133136187,3.272966253486942e-05,0.0188885133136187,1.0,0.0,1.0,0.4339421714285714,0.7317804515186781,0,0.7317804515186781,3.037478332075526e-07,0.72296,0.0716047279124652,0.0040285260282487,0.0005906978394814,1.0337212190925942,0.884,0.5666902733474252,0.6979317714285715,0.0716047279124652,0.00050870871419,0.7283697724947044,0.0542972092517418,1.0,8.939800565377354e-05,8.939800565377354e-05,0.9622857142857144,0.6914285714285714,0.8272857142857143,0.0,0.0,0.1986378285714286,4.0,3.0,1.0,0.5341365461847389,-0.21284547407560092,-0.9770858734858122,-0.5999661014486952,-0.8000254227913348,5.0,0.21739130434782608,24.0,0.0,1.0,0.0,0.0,0.0,0.0,0.0,0.0,0.0,0.0,0.0,0.0,0.0,0.0,1.0,1.0,0.0,0.0,0.0,0.0,0.0,1.0,0.0,0.0,0.0,0.0,0.0,0.0,6.782705411547833e-05,-0.7310270303029552,-0.25893160890048406,0.0,0.0,0.5254294971428571,0.5254294971428571,h097_descent_logit_move
h098_frontier_descent_all_c220_a040_7dd22fd7,982,140,id06,2024-07-21,2024-07-20,Q3,2,0.64958246860714,0.6197958608844669,0.0019251758379024,0.67572,0.846017142857143,0.7462679428571428,0.2013,0.1785714285714285,0.6524708571428571,1.0,0.0,0,20.0,17.07462788718024,3.0,1.0,-0.1310843392933318,-2.598890428407583e-07,-0.001912242756763,1.0,1.0,1.0,0.0,0.0,0.6743991603613817,0.1785714285714285,0.956,0.956,0.0,0.0,,0.8354885714285715,0.6196147988657646,-0.1292908438538142,0.0017717796912812,0.1292908438538142,1.0,0.0,1.0,0.7478001142857142,0.591579881002531,1,0.591579881002531,4.522379937882206e-06,0.8363771428571429,-0.2467040357384289,0.0035893973937336,0.0007659342423213,1.340384924062336,0.992,0.7189356831961633,0.9099338285714288,-0.2467040357384289,0.0072258136189,0.6163319288734793,-0.1431965268671753,1.0,-0.0019257031546326,0.0,0.4542857142857143,0.9114285714285716,0.6590571428571429,0.0,0.0,0.5235964571428571,6.0,5.0,1.0,0.5622489959839357,-0.3812259022574715,-0.9244819151546323,-0.9220586030376131,-0.3870502972022183,5.0,0.5217391304347826,24.0,0.0,0.0,1.0,0.0,0.0,0.0,0.0,0.0,0.0,0.0,0.0,0.0,0.0,0.0,0.0,0.0,0.0,0.0,1.0,1.0,0.0,1.0,0.0,1.0,0.0,0.0,0.0,0.0,-6.289644653074581e-05,0.6979318609350196,0.6035923874087635,0.0,0.0,0.5252442171428572,0.5252442171428572,h097_descent_logit_move
h098_frontier_descent_all_c220_a040_7dd22fd7,1057,151,id06,2024-08-25,2024-08-24,Q1,0,0.2931200235617892,0.2940047415236316,1.8877009515527732e-06,0.3332628571428572,0.7080171428571429,0.4039888571428572,0.5654857142857144,0.4817142857142857,0.3501362285714285,1.0,1.0,0,1.0,0.98640079466928,1.0,1.0,0.0042660984396376,-1.0020730809332893e-08,-1.8877009515527732e-06,1.0,0.0,0.0,0.0,0.0069087191295727,0.1085813693048932,0.46,0.5908571428571429,0.5965714285714285,0.0,0.0,,0.4900228571428571,0.2940407945891951,0.0044397867305515,1.860541860465581e-06,0.0044397867305515,1.0,0.0,1.0,0.2779978285714286,0.3160480568474452,1,0.6839519431525547,3.543989487264716e-07,0.5622057142857144,0.0767078893727275,0.0004647756016188,0.000563572964942,0.9862526886486588,0.3011428571428571,0.2390823668590611,0.2716846857142857,0.1082853490810346,0.001250143867855,0.2941165191992924,0.0048045551477717,1.0,-2.0308272858926557e-06,0.0,0.4542857142857143,0.4708571428571428,0.4616571428571429,0.8998400000000001,-0.0315774597083073,0.2318356571428572,6.0,5.0,1.0,0.606425702811245,-0.6199605408122385,-0.7846329892604547,-0.9067516281939827,0.42166513345018397,5.0,1.0,24.0,1.0,0.0,0.0,0.0,0.0,0.0,0.0,0.0,0.0,0.0,0.0,0.0,0.0,0.0,0.0,0.0,0.0,0.0,1.0,1.0,0.0,1.0,0.0,1.0,0.0,1.0,0.0,0.4154175634285715,5.866731312910623e-06,-0.08034760082666736,-0.023441271858119145,-0.20829227426023572,-0.20829227426023572,0.5168146514285716,0.5168146514285716,h097_descent_logit_move
h098_frontier_descent_all_c220_a040_7dd22fd7,1710,244,id10,2024-09-21,2024-09-20,Q3,2,0.5400753569136227,0.498893379807641,0.0034026535995247,0.8754685714285714,0.5386171428571429,0.6959991428571428,0.1400428571428571,0.1785714285714285,0.7556897142857143,1.0,0.0,0,21.0,18.02115831398056,3.0,1.0,-0.1677205362030827,-2.693608428931755e-06,-0.0033798287893793,1.0,1.0,1.0,0.0,0.0,0.1874477638613856,0.1785714285714285,0.7411428571428571,0.744,0.0,0.0,,0.8752657142857143,0.4988772036569434,-0.1651372158978113,0.0030985550257653,0.1651372158978113,1.0,0.0,1.0,0.7775454285714286,0.5156350903591566,1,0.5156350903591566,6.650208939043495e-07,0.6522971428571429,-0.0980852650788847,0.0045542828441575,0.0005539919507935,0.9694859138887292,0.1268571428571428,0.5801533088983964,0.4300379428571429,-0.0980852650788847,0.0011997069737091,0.5051450024295229,-0.1400652868461525,1.0,-0.0033267501369738,0.0,0.4542857142857143,0.9057142857142856,0.6657428571428572,0.0,0.0,0.5502257142857143,5.0,4.0,1.0,0.9799196787148594,-0.1258339115993703,0.9920513226096732,-0.3695318309407569,0.9292180723175653,9.0,0.7619047619047619,22.0,0.0,0.0,1.0,0.0,0.0,0.0,0.0,0.0,0.0,0.0,0.0,0.0,0.0,0.0,0.0,0.0,1.0,1.0,0.0,0.0,0.0,1.0,0.0,1.0,0.0,0.0,0.0,0.0,-4.723807366611388e-05,0.5705546925180704,0.5937895947826648,0.0,0.0,0.5004705714285714,0.5004705714285714,h097_descent_logit_move
h098_frontier_descent_all_c220_a040_7dd22fd7,88,12,id01,2024-08-15,2024-08-14,S2,4,0.558780265236678,0.5769233398374067,0.0006696520729353,0.2016114285714285,0.6085171428571429,0.2766081714285714,0.3706285714285714,0.4771428571428571,0.36213,1.0,1.0,0,6.0,8.273738158986857,2.0,1.0,0.2597166103397486,-0.0001091886476226,0.005727192352249,1.0,0.0,0.0,1.0,0.0138656472840437,0.0083741151898044,0.5354285714285715,0.2411428571428571,0.1788571428571428,1.0,1.0,seed_hardtail,0.4821914285714287,0.5768786560011463,0.0737596453710668,0.0006065270001188,0.0737596453710668,1.0,0.0,1.0,0.4918281428571429,0.5740043566507215,1,0.5740043566507215,2.6351875415164796e-07,0.5735314285714285,0.061994572628224,0.0047545605452327,0.00056705224294,0.9923414251451044,0.4754285714285714,-0.0990330144832213,0.3916050857142857,0.061994572628224,0.0004712579911354,0.5976673046377999,0.1595416113137707,1.0,0.0002275190625469,0.0002275190625469,0.9857142857142858,0.9274285714285714,0.9234,0.0,0.0,0.2315657142857141,3.0,2.0,1.0,0.04819277108433735,0.29819791104666543,0.9545040627715552,0.7885283215303659,0.6149984440179536,0.0,0.46153846153846156,27.0,0.0,0.0,0.0,0.0,1.0,0.0,0.0,0.0,0.0,0.0,0.0,0.0,1.0,1.0,0.0,0.0,0.0,0.0,0.0,0.0,0.0,0.0,1.0,0.0,1.0,0.0,0.0,0.0,0.00022488973344045435,-0.9958397508942437,-0.651868522092217,0.0,0.0,0.49665428571428577,0.49665428571428577,h097_descent_logit_move
h098_frontier_descent_all_c220_a040_7dd22fd7,979,139,id06,2024-07-19,2024-07-18,S4,6,0.8268174475003207,0.8280647752584297,5.443071396993293e-06,0.2987828571428571,0.5280971428571429,-0.0621637714285713,0.8908857142857144,0.8897142857142857,0.3496909714285714,1.0,1.0,0,0.0,0.0,0.0,0.0,0.0,0.0,0.0,0.0,0.0,0.0,0.0,0.3410531498239687,0.0,0.9548571428571428,0.0777142857142857,0.1788571428571428,0.0,0.0,,-0.7669400000000001,0.8279578930664663,0.0079853695822413,4.14051900110568e-06,0.0079853695822413,0.0,0.0,0.0,0.0013515428571428,0.8320067417020486,0,0.8320067417020486,8.242813150596908e-08,0.4974857142857143,-0.0463207552654163,0.0051338467753729,0.0005824135970977,1.0192237949209952,0.8422857142857143,0.7491083425639209,0.3983379428571428,0.0366790192570158,9.478581098798512e-05,0.8300902641257938,0.0230294411245872,1.0,1.1516764712005134e-05,1.1516764712005134e-05,0.9228571428571428,0.5622857142857143,0.7513428571428572,0.9256342857142856,-0.0829997745224322,-0.1207928,4.0,3.0,1.0,0.5582329317269076,-0.3577789366275639,-0.9338063142352645,-0.8901457403773956,-0.4556759384562435,5.0,0.4782608695652174,24.0,0.0,0.0,0.0,0.0,0.0,0.0,1.0,0.0,0.0,0.0,0.0,0.0,0.0,0.0,1.0,1.0,0.0,0.0,0.0,0.0,0.0,0.0,1.0,0.0,1.0,1.0,0.0,0.6954687088979592,3.104464685390306e-05,-0.40204790646756566,-0.11190977768611925,-0.5047176181878962,-0.5047176181878962,0.4912916914285715,0.4912916914285715,h097_descent_logit_move
h098_frontier_descent_all_c220_a040_7dd22fd7,198,28,id02,2024-08-27,2024-08-26,Q3,2,0.6741076586824011,0.6462659287870366,0.0017398372141286,0.699457142857143,0.5051371428571428,0.5937433714285716,0.1930428571428571,0.1785714285714285,0.5995531428571429,1.0,0.0,0,13.0,11.930315893559122,3.0,1.0,-0.1261051653122945,-1.311890548668424e-06,-0.0017282327401319,1.0,1.0,1.0,0.0,0.0,0.1899070103888226,0.1785714285714285,0.7462857142857143,0.7485714285714286,0.0,0.0,,0.8024371428571428,0.6462354427606603,-0.1242904431287843,0.0015852834770324,0.1242904431287843,1.0,0.0,1.0,0.6986115428571429,0.6589956824826942,1,0.6589956824826942,2.881444219743811e-07,0.5462285714285715,-0.0680008993544727,0.0018380120328722,0.0005666846835938,0.991698196289266,0.4508571428571428,0.6213674782330295,0.5430028571428571,-0.0680008993544727,0.0005157539969335,0.6513951913238865,-0.1016451601624334,1.0,-0.0016851366923851,0.0,0.4542857142857143,0.8428571428571429,0.6362571428571429,0.0,0.0,0.4838330285714285,1.0,0.0,1.0,0.11244979919678715,0.6492081680558328,0.7606107772899287,0.8531342035272768,-0.5216915092004845,1.0,0.03225806451612903,32.0,0.0,0.0,1.0,0.0,0.0,0.0,0.0,0.0,1.0,1.0,0.0,0.0,0.0,0.0,0.0,0.0,0.0,0.0,0.0,0.0,0.0,1.0,0.0,1.0,0.0,0.0,0.0,0.0,-4.7466088616980943e-05,0.5726616800765785,0.4589769013764375,0.0,0.0,0.4891638742857143,0.4891638742857143,h097_descent_logit_move
h098_frontier_descent_all_c220_a040_7dd22fd7,1030,147,id06,2024-08-21,2024-08-20,Q2,1,0.7460696818773138,0.771360677515155,0.0017274037034621,0.7324857142857142,0.920377142857143,0.70927,0.2094142857142857,0.1785714285714285,0.4055331428571427,1.0,0.0,0,7.0,6.690561435404001,2.0,1.0,0.1402322402871974,-1.1930463548521531e-06,-0.0017250426858309,1.0,0.0,1.0,0.0,0.0,0.3110529760716394,0.1785714285714285,0.864,0.8651428571428571,0.0,0.0,,0.7664799999999998,0.7714154090995408,0.1385615664664972,0.0015814876012938,0.1385615664664972,1.0,0.0,1.0,0.7455064571428572,0.7659947778425961,1,0.7659947778425961,6.258232364044632e-07,0.8297485714285715,0.108072808356308,0.004140062706063,0.0005586382026713,0.9776168546748426,0.1874285714285714,0.8537443215391985,0.4630731428571429,0.108072808356308,0.0010667475670854,0.7740175106041818,0.153377869229883,1.0,-0.0017156761785265,0.0,0.4542857142857143,0.92,0.6596571428571429,0.0,0.0,0.5362841142857142,2.0,1.0,1.0,0.5903614457831325,-0.5377429062990121,-0.8431088700310844,-0.9912377749919374,0.13208964164170217,5.0,0.8260869565217391,24.0,0.0,1.0,0.0,0.0,0.0,0.0,0.0,0.0,0.0,0.0,1.0,1.0,0.0,0.0,0.0,0.0,0.0,0.0,0.0,0.0,0.0,1.0,0.0,0.0,0.0,0.0,0.0,0.0,4.2369129470223524e-05,-0.5237681420582139,-0.6342310215302004,0.0,0.0,0.4853409828571429,0.4853409828571429,h097_descent_logit_move
h098_frontier_descent_all_c220_a040_7dd22fd7,967,138,id06,2024-07-18,2024-07-17,Q2,1,0.6967156497515476,0.7246269665275982,0.0018774226389074,0.7453714285714286,0.804777142857143,0.6602208571428572,0.2164714285714285,0.1785714285714285,0.4159526857142857,1.0,1.0,0,6.0,5.71228967627096,1.0,1.0,0.1358237803245526,-1.1573758512191053e-06,-0.0018774226389074,1.0,0.0,0.0,0.0,0.0,0.3227161858414737,0.1785714285714285,0.8708571428571429,0.8725714285714286,0.0,0.0,,0.746417142857143,0.7246828443182184,0.1361038271455182,0.0017176913148705,0.1361038271455182,1.0,0.0,1.0,0.7221307428571427,0.7191582473616863,1,0.7191582473616863,7.177325431692953e-07,0.82248,0.1085835250003995,0.0038817152721162,0.0005403313629365,0.945579885138963,0.0691428571428571,0.9384366463314516,0.3999108571428572,0.1085835250003995,0.0012092752560222,0.7273852064810041,0.1496898594368214,1.0,-0.0018666440147515,0.0,0.4542857142857143,0.9177142857142856,0.6601714285714286,0.0,0.0,0.5262361142857143,3.0,2.0,1.0,0.5542168674698795,-0.33410417149738975,-0.9425361545256727,-0.853134203527277,-0.5216915092004841,5.0,0.43478260869565216,24.0,0.0,1.0,0.0,0.0,0.0,0.0,0.0,0.0,0.0,0.0,0.0,0.0,1.0,1.0,0.0,0.0,0.0,0.0,0.0,0.0,0.0,1.0,0.0,0.0,0.0,0.0,0.0,0.0,4.1812378018445755e-05,-0.5182008270945758,-0.6233502882323806,0.0,0.0,0.48314875428571424,0.48314875428571424,h097_descent_logit_move
h098_frontier_descent_all_c220_a040_7dd22fd7,226,32,id02,2024-08-31,2024-08-30,Q3,2,0.6564871216856286,0.6322200448317845,0.001291807509781,0.7414114285714286,0.3422571428571428,0.5349040571428572,0.1968714285714285,0.1785714285714285,0.6265548571428571,0.0,0.0,0,21.0,18.02115831398056,3.0,1.0,-0.1076249979111384,-1.5512569050708847e-06,-0.0012830567154889,1.0,1.0,1.0,0.0,0.0,0.1185189983380767,0.1785714285714285,0.6137142857142858,0.6262857142857143,0.0,0.0,,0.7275971428571427,0.6322055185734275,-0.1059882533906665,0.0011761383888986,0.1059882533906665,1.0,0.0,1.0,0.620714057142857,0.6449276019319015,1,0.6449276019319015,1.6423873487401394e-07,0.4064,-0.0508621159857971,0.0009001499348235,0.0005636336811571,0.9863589420249858,0.3051428571428571,0.6284962951475314,0.4431779428571429,-0.0508621159857971,0.0002947219975462,0.6338328137408957,-0.0989832777348644,1.0,-0.0012876453169813,0.0,0.4542857142857143,0.836,0.6307714285714286,0.0,0.0,0.3996339428571427,5.0,4.0,1.0,0.1285140562248996,0.7225457018570788,0.6913231579571607,0.658752745101794,-0.752359502379581,1.0,0.16129032258064516,32.0,0.0,0.0,1.0,0.0,0.0,0.0,0.0,0.0,0.0,0.0,0.0,0.0,0.0,0.0,0.0,0.0,1.0,1.0,0.0,0.0,0.0,1.0,0.0,1.0,0.0,0.0,0.0,0.0,-4.7411948025504586e-05,0.5721620727380493,0.4486627604494912,0.0,0.0,0.47943653714285717,0.47943653714285717,h097_descent_logit_move
h098_frontier_descent_all_c220_a040_7dd22fd7,981,140,id06,2024-07-21,2024-07-20,Q2,1,0.6048681746914182,0.6399866910016273,0.002609347621039,0.8688057142857143,0.846017142857143,0.7400425714285714,0.2101571428571428,0.1785714285714285,0.4591755428571428,0.0,1.0,0,13.0,12.4930001637224,2.0,1.0,0.1535884531692017,-3.0374862395997496e-06,-0.002586025103192,1.0,0.0,1.0,0.0,0.0,0.2347124836060839,0.1785714285714285,0.8028571428571428,0.804,0.0,0.0,,0.7708628571428572,0.6400075046226383,0.1496056201647373,0.0023794506538271,0.1496056201647373,1.0,0.0,1.0,0.7344584000000001,0.6269495778939826,0,0.6269495778939826,5.839506184938313e-07,0.7126857142857143,0.093361431916335,0.0025862502902318,0.0006001018687556,1.0501782703224456,0.9074285714285716,0.8252911210724277,0.8868526857142858,0.093361431916335,0.0010270565658198,0.6439247341931398,0.1666486205575282,1.0,-0.0025790529209842,0.0,0.4542857142857143,0.936,0.6708857142857143,0.0,0.0,0.510828457142857,6.0,5.0,1.0,0.5622489959839357,-0.3812259022574715,-0.9244819151546323,-0.9220586030376131,-0.3870502972022183,5.0,0.5217391304347826,24.0,0.0,1.0,0.0,0.0,0.0,0.0,0.0,0.0,0.0,0.0,0.0,0.0,0.0,0.0,0.0,0.0,0.0,0.0,1.0,1.0,0.0,1.0,0.0,0.0,0.0,0.0,0.0,0.0,3.997225157571925e-05,-0.49948604894553106,-0.6713640035991039,0.0,0.0,0.4788965599999999,0.4788965599999999,h097_descent_logit_move
h098_frontier_descent_all_c220_a040_7dd22fd7,43,6,id01,2024-08-07,2024-08-06,Q2,1,0.5953821937104642,0.5989967308179304,2.7142711617411663e-05,0.3513314285714285,0.6720971428571428,0.3115293142857143,0.4167142857142857,0.4354285714285714,0.1899750857142857,1.0,1.0,0,3.0,2.88867031863696,1.0,1.0,0.0150259521964126,-9.384017336676352e-08,-2.7142711617411663e-05,1.0,0.0,0.0,0.0,0.0040847353183376,0.0365343892308975,0.4245714285714285,0.3965714285714286,0.4457142857142857,0.0,0.0,,0.4412199999999999,0.5989856103481657,0.014979655630515,2.4549704840448605e-05,0.014979655630515,1.0,0.0,1.0,0.3559799999999999,0.6124884559618218,0,0.6124884559618218,3.430390265823114e-07,0.5993371428571429,0.0715238470920119,0.0023811553862967,0.0005686379198661,0.9951163597658323,0.5725714285714286,0.3459859028138633,0.4281923428571429,0.0715238470920119,0.0006102367072216,0.6060539872604265,0.0444945852599194,1.0,7.744066370041214e-05,7.744066370041214e-05,0.9588571428571429,0.6525714285714286,0.8123714285714286,0.0,0.0,0.1420691428571427,2.0,1.0,1.0,0.024096385542168676,0.15082429716137383,0.9885605855918885,0.43874910597176514,0.8986096048946822,0.0,0.23076923076923078,27.0,0.0,1.0,0.0,0.0,0.0,0.0,0.0,0.0,0.0,0.0,1.0,1.0,0.0,0.0,0.0,0.0,0.0,0.0,0.0,0.0,0.0,1.0,0.0,0.0,0.0,0.0,0.0,0.0,6.489191863544352e-05,-0.7117120459090567,-0.2137784739010488,0.0,0.0,0.4787480571428571,0.4787480571428571,h097_descent_logit_move
h098_frontier_descent_all_c220_a040_7dd22fd7,22,3,id01,2024-08-03,2024-08-02,Q2,1,0.6600442750657125,0.6987517935481184,0.0034057974680021,0.7777542857142857,0.6052171428571428,0.5814727428571428,0.1850714285714285,0.1785714285714285,0.385413257142857,1.0,0.0,0,18.0,18.26614025081224,4.0,1.0,0.1541602662756384,-2.7266674632530845e-06,-0.0028701524006941,1.0,1.0,1.0,1.0,0.0,0.2353612239766102,0.1785714285714285,0.804,0.8051428571428572,1.0,1.0,episode_neighbor_q061,0.8055428571428571,0.6987805927185148,0.1780063506671458,0.0031086886481692,0.1780063506671458,1.0,0.0,1.0,0.7854091428571428,0.6618505198823039,1,0.6618505198823039,1.7371126299998553e-07,0.5516342857142856,0.0519039618418316,0.0023813991879902,0.0005784998362523,1.0123747134415384,0.8034285714285714,0.8584447788124042,0.8082408,0.0080601552152829,7.276159063263066e-06,0.6889931085749029,0.1319246701842727,1.0,-0.0031860817331936,0.0,0.4542857142857143,0.8942857142857142,0.6617999999999999,0.0,2.220446049250313e-16,0.546442857142857,5.0,4.0,1.0,0.012048192771084338,0.0756287458844567,0.997136045279652,0.225155940522694,0.9743227403932134,0.0,0.11538461538461539,27.0,0.0,1.0,0.0,0.0,0.0,0.0,0.0,0.0,0.0,0.0,0.0,0.0,0.0,0.0,0.0,0.0,1.0,1.0,0.0,0.0,0.0,1.0,0.0,0.0,0.0,0.0,0.0,0.0,3.867334535794368e-05,-0.48598745785205116,-0.5674638872017074,1.4864086949581597e-15,1.4864086949581597e-15,0.4785825714285714,0.4785825714285714,h097_descent_logit_move
h098_frontier_descent_all_c220_a040_7dd22fd7,958,136,id06,2024-07-16,2024-07-15,S4,6,0.8793211893789878,0.8800493904202091,2.5029338155957426e-06,0.3645828571428571,0.5588971428571429,0.1084819428571429,0.7967428571428572,0.7268571428571429,0.3787347428571428,1.0,1.0,0,0.0,0.0,0.0,0.0,0.0,0.0,0.0,0.0,0.0,0.0,0.0,0.1594115670323823,0.0,0.8822857142857143,0.0777142857142857,0.1788571428571428,0.0,0.0,,-0.7095342857142858,0.8799999511198453,0.0064120263061722,1.9788838113155016e-06,0.0064120263061722,0.0,0.0,0.0,0.0212581142857142,0.8834973597348148,1,0.8834973597348148,8.471331549768475e-09,0.3511542857142857,-0.0171551486596812,0.0031343608795367,0.0005683629451615,0.9946351540327674,0.5531428571428572,0.5888697722476787,0.1944567999999999,0.039956691866398,8.300913775149965e-05,0.8807134130136618,0.0131857083159114,1.0,2.441039736456041e-07,2.441039736456041e-07,0.9085714285714286,0.5165714285714286,0.7216285714285715,0.9087942857142858,-0.0571118405260793,-0.0966108571428571,1.0,0.0,1.0,0.5461847389558233,-0.2861316735085688,-0.9581903075147368,-0.7646910926171749,-0.6443970304648767,5.0,0.34782608695652173,24.0,0.0,0.0,0.0,0.0,0.0,0.0,1.0,0.0,1.0,1.0,0.0,0.0,0.0,0.0,0.0,0.0,0.0,0.0,0.0,0.0,0.0,0.0,1.0,0.0,1.0,1.0,0.0,0.6558119221224491,2.419542879919579e-05,-0.3203916011619167,-0.06425578616901453,-0.3647183835581913,-0.3647183835581913,0.47814422857142863,0.47814422857142863,h097_descent_logit_move
h098_frontier_descent_all_c220_a040_7dd22fd7,442,63,id03,2024-08-21,2024-08-20,Q2,1,0.825115789124502,0.8536941789446703,0.0029630707125976,0.7649714285714286,0.5162771428571429,0.5322736571428571,0.2418428571428571,0.1785714285714285,0.3983375999999999,1.0,0.0,0,16.0,15.182109962689523,3.0,1.0,0.218136185903761,-3.184420277764858e-06,-0.0028959385292624,1.0,1.0,1.0,0.0,0.0,0.1789053224716348,0.1785714285714285,0.724,0.7262857142857143,0.0,0.0,,0.7586200000000002,0.8537073333155182,0.2125796282939047,0.0027080530044721,0.2125796282939047,1.0,0.0,1.0,0.7539480285714286,0.8315927978879994,1,0.8315927978879994,8.267004085026276e-08,0.4394171428571429,0.0455584024730233,0.0011688457228067,0.000566649504593,0.9916366330378013,0.4491428571428571,0.6468114261142146,0.5608985714285715,0.0455584024730233,0.0001468053644202,0.8430692931744697,0.1298451786653267,1.0,-0.0025300285492461,0.0,0.4542857142857143,0.8914285714285715,0.6571714285714286,0.0,0.0,0.5308909714285713,2.0,1.0,1.0,0.25301204819277107,0.9998209226697378,-0.01892412724101873,-0.9983886888289513,0.05674527309307318,2.0,0.2,21.0,0.0,1.0,0.0,0.0,0.0,0.0,0.0,0.0,0.0,0.0,1.0,1.0,0.0,0.0,0.0,0.0,0.0,0.0,0.0,0.0,0.0,1.0,0.0,0.0,0.0,0.0,0.0,0.0,3.9069182050293814e-05,-0.49012620971490084,-0.5605443394880951,0.0,0.0,0.47651424,0.47651424,h097_descent_logit_move
h098_frontier_descent_all_c220_a040_7dd22fd7,15,2,id01,2024-08-02,2024-08-01,Q2,1,0.536621580933206,0.5558458654282564,0.0007447249253993,0.7797599999999999,0.7792171428571428,0.661777657142857,0.2511571428571429,0.1785714285714285,0.3937283428571428,1.0,0.0,0,7.0,6.690561435404001,2.0,1.0,0.0786817908658617,-2.6445273777210427e-06,-0.0007436821906531,1.0,0.0,1.0,0.0,0.0,0.0290471660734689,0.1785714285714285,0.3657142857142857,0.436,0.0,0.0,,0.7286628571428571,0.5558319109998665,0.077513745542288,0.0006768350819819,0.077513745542288,1.0,0.0,1.0,0.6531298857142857,0.5394946796423432,1,0.5394946796423432,9.316919491613228e-09,0.1890171428571428,0.0115593989019303,0.0017188880482774,0.000570366298019,0.9981410215333324,0.6411428571428571,0.3491446053151054,0.6165843428571429,0.0115593989019303,1.660321191843117e-05,0.5524720239392872,0.0639146295713969,1.0,-0.0007208027321718,0.0,0.4542857142857143,0.7291428571428571,0.5882571428571428,0.0,0.0,0.4675246857142857,4.0,3.0,1.0,0.008032128514056224,0.050445931592278684,0.9987267934654538,0.1508242971613738,0.9885605855918885,0.0,0.07692307692307693,27.0,0.0,1.0,0.0,0.0,0.0,0.0,0.0,0.0,0.0,0.0,0.0,0.0,0.0,0.0,1.0,1.0,0.0,0.0,0.0,0.0,0.0,1.0,0.0,0.0,0.0,0.0,0.0,0.0,4.576339385213728e-05,-0.5567458583514755,-0.3021596874973757,0.0,0.0,0.47537304,0.47537304,h097_descent_logit_move
h098_frontier_descent_all_c220_a040_7dd22fd7,776,110,id05,2024-10-02,2024-10-01,S4,6,0.4438495786612846,0.4451675276483861,3.517651817719347e-06,0.2391714285714286,0.2893571428571428,-0.0912718571428571,0.8011428571428572,0.8748571428571429,0.3034004571428571,0.0,1.0,0,0.0,0.0,0.0,0.0,0.0,0.0,0.0,0.0,0.0,0.0,0.0,0.1517560969078651,0.0055488407941821,0.8748571428571429,0.2114285714285714,0.1788571428571428,0.0,0.0,,-0.8335457142857143,0.4451219697262338,0.0051530909657626,2.983565084324624e-06,0.0051530909657626,0.0,0.0,0.0,-0.068577,0.4632074008694939,0,0.536792599130506,7.647812904665928e-08,0.2794971428571428,0.0331756448528687,0.0011639351142216,0.0005573933773258,0.975438410320314,0.168,0.5618931275998716,-0.0022037142857142,0.0781161866856486,0.0007569947114121,0.4480957780680643,0.0171855610708425,1.0,1.46086126527889e-05,1.46086126527889e-05,0.9274285714285714,0.5394285714285715,0.7487999999999999,0.9094228571428572,-0.04494054183278,-0.1995107428571428,2.0,1.0,1.0,0.44176706827309237,0.3577789366275641,-0.9338063142352645,0.8901457403773968,-0.45567593845624127,4.0,0.15,21.0,0.0,0.0,0.0,0.0,0.0,0.0,1.0,0.0,0.0,0.0,1.0,1.0,0.0,0.0,0.0,0.0,0.0,0.0,0.0,0.0,0.0,0.0,1.0,0.0,1.0,1.0,0.0,0.6809758354285714,2.3908606913751862e-05,-0.3168546135305518,-0.08366711666358208,-0.2920816055350949,-0.2920816055350949,0.47316624,0.47316624,h097_descent_logit_move
h098_frontier_descent_all_c220_a040_7dd22fd7,666,95,id04,2024-10-16,2024-10-15,Q2,1,0.6136091281998712,0.6470915264665347,0.0023918434461435,0.7067371428571428,0.2717371428571429,0.3863753714285714,0.2571571428571428,0.1785714285714285,0.3586859428571429,1.0,1.0,0,11.0,11.46381901730912,3.0,1.0,0.1310643917428108,-2.3693728878598013e-06,-0.0020399635560365,1.0,0.0,1.0,1.0,0.0,0.1732025235526057,0.1785714285714285,0.7165714285714285,0.7182857142857143,1.0,1.0,episode_neighbor_q061,0.6790028571428571,0.6471109990384143,0.1438556286786211,0.0021810974379798,0.1438556286786211,1.0,0.0,1.0,0.6859473714285714,0.6335140035023349,0,0.6335140035023349,4.862184297409954e-07,0.6874285714285715,0.0848131445785334,0.0018963898315249,0.0005462527198318,0.955942259705739,0.0857142857142857,0.72292917406063,0.3444964571428571,0.0848131445785334,0.0008411482770427,0.6437347776774207,0.1291026973202145,1.0,-0.002369757084317,0.0,0.4542857142857143,0.8908571428571429,0.6560571428571429,0.0,0.0,0.4677963428571428,2.0,1.0,1.0,0.3815261044176707,0.6775258108522906,-0.735498997707642,0.7885283215303659,0.6149984440179534,3.0,0.5769230769230769,27.0,0.0,1.0,0.0,0.0,0.0,0.0,0.0,0.0,0.0,0.0,1.0,1.0,0.0,0.0,0.0,0.0,0.0,0.0,0.0,0.0,0.0,1.0,0.0,0.0,0.0,0.0,0.0,0.0,3.993818082195941e-05,-0.4991350096936186,-0.558054534641414,0.0,0.0,0.4717642057142858,0.4717642057142858,h097_descent_logit_move
h098_frontier_descent_all_c220_a040_7dd22fd7,960,137,id06,2024-07-17,2024-07-16,Q2,1,0.5663821927532503,0.5880177151993246,0.0009570339095844,0.7790057142857143,0.600277142857143,0.5762347999999999,0.2324142857142857,0.1785714285714285,0.3942243428571429,1.0,0.0,0,12.0,11.52500803970272,2.0,1.0,0.0905462133218162,-3.017177987114326e-06,-0.0009470698291798,1.0,0.0,1.0,0.0,0.0,0.1245623470117902,0.1785714285714285,0.6262857142857143,0.6365714285714286,0.0,0.0,,0.7301028571428572,0.5880329047180486,0.0887338415166165,0.0008724162810234,0.0887338415166165,1.0,0.0,1.0,0.6512324857142856,0.5760932653117664,1,0.5760932653117664,1.0787526411395665e-07,0.3114857142857142,0.0396505159728281,0.0003760293918954,0.0005758760882685,1.0077831544699736,0.7634285714285715,0.7596360421638911,0.7358969714285716,0.0396505159728281,0.0001923432405193,0.582789450771586,0.0671293797453431,1.0,-0.0009017750972506,0.0,0.4542857142857143,0.7388571428571429,0.5951142857142857,0.0,0.0,0.4645556571428572,2.0,1.0,1.0,0.5502008032128514,-0.3102166806991763,-0.9506658776962521,-0.811235991218592,-0.5847188782240474,5.0,0.391304347826087,24.0,0.0,1.0,0.0,0.0,0.0,0.0,0.0,0.0,0.0,0.0,1.0,1.0,0.0,0.0,0.0,0.0,0.0,0.0,0.0,0.0,0.0,1.0,0.0,0.0,0.0,0.0,0.0,0.0,4.2609433509335523e-05,-0.5261573895903189,-0.3163465341332538,0.0,0.0,0.46719042285714285,0.46719042285714285,h097_descent_logit_move
h098_frontier_descent_all_c220_a040_7dd22fd7,430,61,id03,2024-08-19,2024-08-18,S1,3,0.604026200472991,0.6063203145082555,1.1009521791116583e-05,0.3882685714285714,0.3370171428571429,0.0654890857142856,0.7873714285714286,0.684,0.3785540571428571,1.0,1.0,0,2.0,3.6,1.0,1.0,0.0015362066480787,-1.5536985231547174e-08,-3.224407648327876e-06,0.0,0.0,0.0,1.0,0.1413535464138461,0.0,0.8622857142857143,0.0777142857142857,0.1788571428571428,1.0,1.0,episode_neighbor_q061,0.2920571428571428,0.6062772068060069,0.0094206983426381,9.646010099229052e-06,0.0094206983426381,0.0,0.0,1.0,0.1293242857142857,0.6074964413452014,0,0.6074964413452014,1.993561071952924e-07,0.5617257142857143,-0.0547320393639781,0.0057171149923169,0.0005577874228806,0.9761279900412012,0.1754285714285714,0.6818286787726655,0.0789510857142856,0.0145311845062691,2.520043883824652e-05,0.6055727655873674,0.0064705280329236,1.0,-9.560522133300609e-06,0.0,0.4542857142857143,0.4817142857142857,0.4683428571428571,0.9234285714285716,-0.0692632238702473,0.071728,0.0,6.0,1.0,0.24497991967871485,0.9995025893658627,0.03153686495097154,-0.995526272808559,-0.09448513188803126,2.0,0.1,21.0,0.0,0.0,0.0,1.0,0.0,0.0,0.0,1.0,0.0,0.0,0.0,0.0,0.0,0.0,0.0,0.0,0.0,0.0,0.0,0.0,1.0,0.0,1.0,0.0,1.0,1.0,0.0,0.43248117551020415,1.3481973213888438e-05,-0.18295733612000878,-0.03156479560760181,-0.43306345004195235,-0.43306345004195235,0.4628745142857143,0.4628745142857143,h097_descent_logit_move
h098_frontier_descent_all_c220_a040_7dd22fd7,1001,143,id06,2024-08-13,2024-08-12,Q1,0,0.2092269005697418,0.2089219578518885,2.8112041883243677e-07,0.2036971428571428,0.7239771428571429,0.4493369714285714,0.4697285714285715,0.1785714285714285,0.2708112,1.0,1.0,0,11.0,8.46508252903368,2.0,1.0,-0.001844088639247,-2.5733492812731393e-10,-2.811204188324367e-07,1.0,1.0,0.0,0.0,0.0,0.2475444819520837,0.1785714285714285,0.8182857142857143,0.8182857142857143,0.0,0.0,,0.5362942857142857,0.2088731251040907,-0.0021395802130861,3.443420287796428e-07,0.0021395802130861,0.0,0.0,1.0,0.2474148,0.1954998359663392,0,0.8045001640336608,2.029760534566282e-07,0.5569485714285715,-0.0679898442374993,0.0026140759999864,0.0005749680522457,1.006194091430059,0.748,0.6201089184571771,0.5372242285714286,-0.0850698678716392,0.0005789513017284,0.2002522879358252,-0.0551265446534379,1.0,0.0002292094574748,0.0002292094574748,0.9862857142857144,0.6948571428571428,0.8541142857142858,0.8878,0.0170800236341399,0.0637723428571428,1.0,0.0,1.0,0.5742971887550201,-0.4500514963711879,-0.8930026039234458,-0.9855293386108991,-0.16950493425609692,5.0,0.6521739130434783,24.0,1.0,0.0,0.0,0.0,0.0,0.0,0.0,0.0,1.0,1.0,0.0,0.0,0.0,0.0,0.0,0.0,0.0,0.0,0.0,0.0,0.0,1.0,0.0,1.0,0.0,1.0,0.0,0.758282662857143,6.542138367364244e-05,-0.7152795166654436,0.2627033420299245,0.11384126947922175,0.11384126947922175,0.46207152000000007,0.46207152000000007,h097_descent_logit_move
h098_frontier_descent_all_c220_a040_7dd22fd7,57,8,id01,2024-08-10,2024-08-09,Q2,1,0.5298229073435359,0.5177978834146032,0.0002899847870321,0.4926057142857143,0.695977142857143,0.2830657142857143,0.5367999999999999,0.5977142857142858,0.2530379428571428,1.0,1.0,0,2.0,1.94687670251848,1.0,1.0,-0.0482117725141394,-6.993897282507874e-07,-0.0002899847870321,1.0,0.0,0.0,0.0,0.0185228349424682,0.0003846487799264,0.5788571428571428,0.1668571428571428,0.1788571428571428,0.0,0.0,,0.4675285714285715,0.5177958598075335,-0.0482198772103757,0.0002639621922879,0.0482198772103757,1.0,0.0,1.0,0.4503900571428572,0.5361963340241237,1,0.5361963340241237,4.579233071985547e-08,0.2455542857142857,0.0256056628144172,0.0010540454735104,0.0005669258868495,0.9921203019867764,0.4674285714285714,0.1396898848714133,0.4092646857142858,0.0256056628144172,8.157491702465158e-05,0.5319273163318472,0.0084498687287575,1.0,0.000110518735919,0.000110518735919,0.9674285714285714,0.4965714285714285,0.7742285714285714,0.0,0.0,0.2425990857142857,5.0,4.0,1.0,0.0321285140562249,0.20050112635625097,0.9796934716174619,0.569262235208066,0.8221560116948101,0.0,0.3076923076923077,27.0,0.0,1.0,0.0,0.0,0.0,0.0,0.0,0.0,0.0,0.0,0.0,0.0,0.0,0.0,0.0,0.0,1.0,1.0,0.0,0.0,0.0,1.0,0.0,0.0,0.0,0.0,0.0,0.0,7.277694988647819e-05,-0.7611179993049308,-0.041210840982949394,0.0,0.0,0.46119248000000007,0.46119248000000007,h097_descent_logit_move
h098_frontier_descent_all_c220_a040_7dd22fd7,1045,149,id06,2024-08-23,2024-08-22,Q3,2,0.777022604386795,0.7775838198432127,9.094835523582034e-07,0.2452285714285714,0.7814571428571429,0.4971077142857142,0.4000428571428572,0.1785714285714285,0.3107259999999999,1.0,1.0,0,3.0,2.92297889772664,1.0,1.0,0.0032420924210658,-3.0912470261600027e-10,-9.094835523582034e-07,1.0,0.0,0.0,0.0,0.0,0.1858537712571854,0.1785714285714285,0.7365714285714285,0.7382857142857143,0.0,0.0,,0.5425857142857142,0.777621434684161,0.0034595987301866,9.42369486445216e-07,0.0034595987301866,1.0,0.0,1.0,0.3223777142857142,0.7843226988551862,1,0.7843226988551862,2.080929065056975e-08,0.3280685714285714,0.0209077107112019,0.0025222814853955,0.0005842227835737,1.0223898712541133,0.8554285714285714,0.4169258789693721,0.6592931428571428,0.0426381864788305,0.0001550105418142,0.7798976448569017,0.0166709572629812,1.0,1.4018847457442083e-05,1.4018847457442083e-05,0.9257142857142856,0.5342857142857143,0.7458,0.8927142857142858,-0.0217304757676286,0.1976028571428571,4.0,3.0,1.0,0.5983935742971888,-0.5795896608992377,-0.8149084764430339,-0.9599762679439228,0.2800813542249068,5.0,0.9130434782608695,24.0,0.0,0.0,1.0,0.0,0.0,0.0,0.0,0.0,0.0,0.0,0.0,0.0,0.0,0.0,1.0,1.0,0.0,0.0,0.0,0.0,0.0,1.0,0.0,1.0,0.0,1.0,0.0,0.6657863142857143,-3.285225473161321e-05,0.42263754415366706,-0.08117298106341536,-0.14445045894803332,-0.14445045894803332,0.4611345714285715,0.4611345714285715,h097_descent_logit_move
h098_frontier_descent_all_c220_a040_7dd22fd7,498,71,id03,2024-09-17,2024-09-16,Q2,1,0.8113615039135618,0.8194379938871083,0.0002154826875686,0.5450571428571429,0.7208971428571429,0.5182935428571429,0.3124714285714286,0.1785714285714285,0.3087104,1.0,0.0,0,6.0,5.71228967627096,1.0,1.0,0.0536632477619884,-2.9547751001922893e-07,-0.0002154826875686,1.0,0.0,0.0,0.0,0.0,0.1703319123192239,0.1785714285714285,0.7108571428571429,0.7131428571428572,0.0,0.0,,0.6110914285714286,0.8194694393496345,0.053875789880921,0.0001977835412562,0.053875789880921,1.0,0.0,1.0,0.5305683428571428,0.8159305513875357,1,0.8159305513875357,3.8457057462605515e-08,0.3900114285714285,0.0301348769810125,0.002877436771466,0.0005796941647247,1.0144647882682376,0.8177142857142857,0.573632316233133,0.7157422857142859,0.0301348769810125,6.862694232784294e-05,0.8191021504731552,0.0513950559731268,1.0,-0.0002167180421781,0.0,0.4542857142857143,0.6765714285714286,0.5547428571428572,0.0,0.0,0.3725613714285714,1.0,0.0,1.0,0.285140562248996,0.9757237218989561,-0.21900506506391293,-0.7885283215303662,0.6149984440179531,2.0,0.6,21.0,0.0,1.0,0.0,0.0,0.0,0.0,0.0,0.0,1.0,1.0,0.0,0.0,0.0,0.0,0.0,0.0,0.0,0.0,0.0,0.0,0.0,1.0,0.0,0.0,0.0,0.0,0.0,0.0,4.611004367145126e-05,-0.5600201944961589,-0.24567126824771404,0.0,0.0,0.4608041371428572,0.4608041371428572,h097_descent_logit_move
h098_frontier_descent_all_c220_a040_7dd22fd7,589,84,id04,2024-09-15,2024-09-14,Q2,1,0.5261754441756927,0.5142830050727464,0.0002834284977353,0.5228571428571429,0.7246771428571428,0.3371503428571429,0.5480857142857143,0.6428571428571429,0.2624123428571428,1.0,1.0,0,6.0,5.71228967627096,1.0,1.0,-0.04765001526208,-8.824843972940014e-07,-0.0002834284977353,1.0,0.0,0.0,0.0,0.0229324161554224,0.0023580976899654,0.6051428571428571,0.1851428571428571,0.1788571428571428,0.0,0.0,,0.4820657142857144,0.5142810921601242,-0.047657673160707,0.000257992587069,0.047657673160707,1.0,0.0,1.0,0.4526508857142857,0.533760638475637,1,0.533760638475637,6.480121361828527e-08,0.3238971428571429,0.0304507589244959,0.0023140635350299,0.0005673909527197,0.9929341672594928,0.4954285714285714,0.1808116163621436,0.4236391428571429,0.0304507589244959,0.000115452331086,0.5286800669786056,0.0100487504450838,1.0,0.0001321086959937,0.0001321086959937,0.9737142857142858,0.5022857142857143,0.7812000000000001,0.0,0.0,0.2428606857142856,6.0,5.0,1.0,0.3373493975903614,0.8531342035272768,-0.5216915092004845,0.0756287458844556,0.9971360452796522,3.0,0.15384615384615385,27.0,0.0,1.0,0.0,0.0,0.0,0.0,0.0,0.0,0.0,0.0,0.0,0.0,0.0,0.0,0.0,0.0,0.0,0.0,1.0,1.0,0.0,1.0,0.0,0.0,0.0,0.0,0.0,0.0,7.970167413508463e-05,-0.798300572182037,-0.04899725078441197,0.0,0.0,0.45933064000000007,0.45933064000000007,h097_descent_logit_move
h098_frontier_descent_all_c220_a040_7dd22fd7,950,135,id06,2024-07-14,2024-07-13,S3,5,0.9998174319302912,0.9999690243965154,9.66556169085143e-05,0.41248,0.4153771428571429,0.4060846285714286,0.1434428571428571,0.1785714285714285,0.4921344,1.0,1.0,0,10.0,8.8123413858064,2.0,1.0,1.7740747865535766,-2.262030586979623e-08,-9.66556169085143e-05,1.0,1.0,0.0,0.0,0.0,5.8767346452884475,0.1785714285714285,0.9777142857142858,0.9777142857142858,0.0,0.0,,0.6325457142857144,0.999999,5.2073046728950665,0.0001106688193046,5.2073046728950665,1.0,0.0,1.0,0.5681642857142857,0.999999,1,0.999999,1.5611654156441006e-08,0.5173485714285715,3.3098046728945274,8.273637275291179e-08,0.0006977555522572,1.221072216450262,0.9817142857142858,0.9460383938620918,0.760486742857143,2.5,0.0001650960133852,0.9999740212292776,1.9499999999975175,1.0,-0.0001546556291109,0.0,0.4542857142857143,0.9914285714285714,0.6443142857142858,0.7002114285714286,-1.897500000000539,0.4285694857142857,6.0,5.0,1.0,0.5421686746987951,-0.2618644849608063,-0.9651046531419334,-0.7137661126871386,-0.7003841348713511,5.0,0.30434782608695654,24.0,0.0,0.0,0.0,0.0,0.0,1.0,0.0,0.0,0.0,0.0,0.0,0.0,0.0,0.0,0.0,0.0,0.0,0.0,1.0,1.0,0.0,0.0,1.0,0.0,1.0,1.0,0.0,0.4511562264489797,-2.2705333750741938e-05,0.3019208944263395,-0.999999989141474,-0.9999999999814639,-0.9999999999814639,0.4576712342857143,0.4576712342857143,h097_descent_logit_move
h098_frontier_descent_all_c220_a040_7dd22fd7,1366,195,id08,2024-09-10,2024-09-09,Q2,1,0.6372657358605699,0.6534353755774137,0.0005693021312026,0.5968742857142857,0.7628571428571429,0.4729631428571428,0.3423428571428571,0.364,0.3285681142857143,1.0,1.0,0,6.0,5.71228967627096,1.0,1.0,0.0706581060906468,-6.443840993101195e-07,-0.0005693021312026,1.0,0.0,0.0,0.0,6.396612406422975e-11,0.0688798599752196,0.364,0.4948571428571429,0.5257142857142857,0.0,0.0,,0.6035971428571428,0.653420593342394,0.0705928307900255,0.0005173645336221,0.0705928307900255,1.0,0.0,1.0,0.5649736571428572,0.6593998666587622,1,0.6593998666587622,5.974064055003852e-07,0.7381714285714286,0.0971047438355996,0.0077371719603589,0.0005660792951846,0.990638766573212,0.4154285714285714,0.3729627139708798,0.4686420571428571,0.0971047438355996,0.001069503385243,0.6579905854543912,0.0908361339397889,1.0,-0.0005219536610783,0.0,0.4542857142857143,0.812,0.6082285714285715,0.0,0.0,0.3920454857142857,1.0,0.0,1.0,0.7831325301204819,-0.9784091409455729,0.20667741268495227,0.8112359912185926,-0.5847188782240467,7.0,0.7222222222222222,19.0,0.0,1.0,0.0,0.0,0.0,0.0,0.0,0.0,1.0,1.0,0.0,0.0,0.0,0.0,0.0,0.0,0.0,0.0,0.0,0.0,0.0,1.0,0.0,0.0,0.0,0.0,0.0,0.0,5.24240474361022e-05,-0.6166135150545569,-0.41634946083174784,0.0,0.0,0.45752569142857147,0.45752569142857147,h097_descent_logit_move
h098_frontier_descent_all_c220_a040_7dd22fd7,689,98,id04,2024-10-19,2024-10-18,S1,3,0.6371260254955748,0.6405330343175071,2.51376604938347e-05,0.2224685714285713,0.4586171428571429,0.0413004,0.7652857142857143,0.6982857142857143,0.3247446857142857,1.0,1.0,0,0.0,0.0,0.0,0.0,0.0,0.0,0.0,0.0,0.0,0.0,0.0,0.0999969057319737,0.0,0.8154285714285714,0.0777142857142857,0.1788571428571428,0.0,0.0,,-0.7547914285714286,0.6405000114407822,0.0146231119468513,2.2435790286601257e-05,0.0146231119468513,0.0,0.0,0.0,0.0546097142857142,0.6458406625928385,0,0.6458406625928385,2.652752376425061e-07,0.6229485714285715,-0.0646258238737329,0.0076759256074498,0.0005509684978578,0.9641948712512676,0.1045714285714285,-0.0194807088009702,-0.0150077714285714,0.037894021574039,0.0001648212272662,0.6414968295448158,0.0189548562062582,1.0,-2.2492975142118787e-05,0.0,0.4542857142857143,0.5468571428571428,0.4944,0.9422057142857144,-0.102519845447772,-0.0024486857142857,5.0,4.0,1.0,0.39357429718875503,0.6199605408122387,-0.7846329892604544,0.9067516281939827,0.4216651334501838,3.0,0.6923076923076923,27.0,0.0,0.0,0.0,1.0,0.0,0.0,0.0,0.0,0.0,0.0,0.0,0.0,0.0,0.0,0.0,0.0,1.0,1.0,0.0,0.0,0.0,0.0,1.0,0.0,1.0,1.0,0.0,0.46582650514285723,2.194044366159535e-05,-0.2923497273116655,-0.09223419251227838,-0.5955915930492218,-0.5955915930492218,0.4561278171428572,0.4561278171428572,h097_descent_logit_move
h098_frontier_descent_all_c220_a040_7dd22fd7,85,12,id01,2024-08-15,2024-08-14,Q2,1,0.5263864276333604,0.5557981027179145,0.0017395489972242,0.7628514285714285,0.6085171428571429,0.5050832571428571,0.2918285714285714,0.3731428571428571,0.3866142857142857,1.0,0.0,0,19.0,19.48132954846374,4.0,1.0,0.1065500110918248,-3.865139710460055e-06,-0.0016047782207779,1.0,1.0,1.0,1.0,0.0003807449209963,0.038549607687248,0.3731428571428571,0.4097142857142857,0.4611428571428571,1.0,1.0,seed_q061_companion,0.7308428571428572,0.55578125857218,0.1184138397387991,0.0015815736182092,0.1184138397387991,1.0,0.0,1.0,0.6984121999999999,0.5363906568038427,1,0.5363906568038427,1.1288019102914548e-07,0.4359657142857142,0.0401766128040481,0.0038682169459148,0.0005712427006947,0.999674726215823,0.6702857142857143,0.361309419068747,0.6169767428571431,0.0401766128040481,0.0002008835371012,0.5450035370289746,0.0748587840934061,1.0,-0.0015030134413811,0.0,0.4542857142857143,0.7725714285714286,0.6132857142857143,0.0,0.0,0.4775613714285713,3.0,2.0,1.0,0.04819277108433735,0.29819791104666543,0.9545040627715552,0.7885283215303659,0.6149984440179536,0.0,0.46153846153846156,27.0,0.0,1.0,0.0,0.0,0.0,0.0,0.0,0.0,0.0,0.0,0.0,0.0,1.0,1.0,0.0,0.0,0.0,0.0,0.0,0.0,0.0,1.0,0.0,0.0,0.0,0.0,0.0,0.0,4.7495945968766005e-05,-0.57293702076989,-0.34987433032893533,0.0,0.0,0.4553761371428572,0.4553761371428572,h097_descent_logit_move
h098_frontier_descent_all_c220_a040_7dd22fd7,1020,145,id06,2024-08-15,2024-08-14,S3,5,0.9287371041949244,0.9089850431629808,0.0027261164221769,0.8974057142857143,0.7951771428571428,0.8290942285714284,0.0467285714285714,0.1785714285714285,0.8912345142857142,1.0,0.0,0,21.0,18.02115831398056,3.0,1.0,-0.2675828115112105,-2.3877879138627275e-06,-0.0027106703475388,1.0,1.0,1.0,0.0,0.0,0.4584844927696639,0.1785714285714285,0.9308571428571428,0.9308571428571428,0.0,0.0,,0.9351171428571428,0.9089117140154698,-0.2670311609784908,0.0024857385523719,0.2670311609784908,1.0,0.0,1.0,0.8271529142857142,0.9139825171084348,1,0.9139825171084348,9.070811609935956e-07,0.7949714285714287,-0.2041890359376106,0.0008662176810626,0.0006260282627155,1.0955494597522266,0.9411428571428572,0.6539392245900708,0.9030121142857144,-0.2041890359376106,0.0015495594707994,0.9083703932655922,-0.2735521338475872,1.0,-0.0027439017062468,0.0,0.4542857142857143,0.9657142857142856,0.681,0.0,0.0,0.5915470857142856,3.0,2.0,1.0,0.5823293172690763,-0.4945268361343749,-0.8691623601738199,-0.9998209226697378,-0.01892412724101922,5.0,0.7391304347826086,24.0,0.0,0.0,0.0,0.0,0.0,1.0,0.0,0.0,0.0,0.0,0.0,0.0,1.0,1.0,0.0,0.0,0.0,0.0,0.0,0.0,0.0,0.0,1.0,0.0,1.0,0.0,0.0,0.0,-2.5381372534039414e-05,0.3349208225015572,0.8704410340070754,0.0,0.0,0.4535889942857143,0.4535889942857143,h097_descent_logit_move
h098_frontier_descent_all_c220_a040_7dd22fd7,918,131,id06,2024-07-10,2024-07-09,Q2,1,0.5368577828514431,0.5525262867052918,0.0004945346619296,0.6682285714285714,0.6308571428571428,0.5358795999999999,0.2507,0.1785714285714285,0.3403729142857142,1.0,0.0,0,17.0,15.454141515568562,3.0,1.0,0.0653635520943161,-1.5053401512364675e-06,-0.0004896640842177,1.0,1.0,1.0,0.0,0.0,0.1507216805939036,0.1785714285714285,0.6748571428571428,0.6857142857142857,0.0,0.0,,0.7065857142857143,0.5525525133660357,0.0632902415249037,0.0004515983708508,0.0632902415249037,1.0,0.0,1.0,0.6049468571428572,0.5521317201332576,1,0.5521317201332576,2.64836417039965e-07,0.4548571428571429,0.0615884185706596,0.0001206645901624,0.0005820780554053,1.0186365969593172,0.84,0.7762629089807689,0.7433874285714287,0.0615884185706596,0.0004699191256734,0.5541547692833997,0.0697730875620525,1.0,-0.0004909989745799,0.0,0.4542857142857143,0.7474285714285714,0.5878285714285715,0.0,0.0,0.407112,2.0,1.0,1.0,0.5261044176706827,-0.16328447069351223,-0.9865790295918212,-0.47243956847967045,-0.8813630660146491,5.0,0.13043478260869565,24.0,0.0,1.0,0.0,0.0,0.0,0.0,0.0,0.0,0.0,0.0,1.0,1.0,0.0,0.0,0.0,0.0,0.0,0.0,0.0,0.0,0.0,1.0,0.0,0.0,0.0,0.0,0.0,0.0,3.971402917519196e-05,-0.4968214362210464,-0.32790857364787457,0.0,0.0,0.45293462857142863,0.45293462857142863,h097_descent_logit_move
h098_frontier_descent_all_c220_a040_7dd22fd7,1059,151,id06,2024-08-25,2024-08-24,Q3,2,0.8051517532471274,0.8030150111803502,1.4511156814778214e-05,0.3337085714285714,0.7080171428571429,0.1520932571428572,0.9230857142857144,0.956,0.3712925714285713,1.0,1.0,0,0.0,0.0,0.0,0.0,0.0,0.0,0.0,0.0,0.0,0.0,0.0,0.2271737521378298,0.006086278522037,0.9222857142857144,0.2165714285714285,0.1788571428571428,0.0,0.0,,-0.7007057142857144,0.8030744767017115,-0.0131878844070159,1.2479027673317766e-05,0.0131878844070159,0.0,0.0,0.0,0.0559329142857143,0.7951378735404838,1,0.7951378735404838,5.971452035624195e-08,0.3412114285714285,0.0361493346156307,0.0011125015620337,0.0005754150819827,1.0069763934697766,0.7565714285714286,0.4100387233611863,0.4062238857142857,-0.0626314127524751,0.0003155568519088,0.8043516859284782,-0.0050918768989105,1.0,-8.541367909509212e-06,0.0,0.4542857142857143,0.4731428571428571,0.4653428571428571,0.9348628571428572,0.0987807473681059,0.0054983999999999,6.0,5.0,1.0,0.606425702811245,-0.6199605408122385,-0.7846329892604547,-0.9067516281939827,0.42166513345018397,5.0,1.0,24.0,0.0,0.0,1.0,0.0,0.0,0.0,0.0,0.0,0.0,0.0,0.0,0.0,0.0,0.0,0.0,0.0,0.0,0.0,1.0,1.0,0.0,1.0,0.0,1.0,0.0,1.0,0.0,0.43503175297959185,-2.8971749483260638e-05,0.3779267154027928,0.02484254498759172,0.5791993703618314,0.5791993703618314,0.4528153828571429,0.4528153828571429,h097_descent_logit_move
h098_frontier_descent_all_c220_a040_7dd22fd7,947,135,id06,2024-07-14,2024-07-13,Q3,2,0.8233562803446187,0.8211995281478749,1.5940535035174896e-05,0.2876571428571428,0.4153771428571429,-0.0838771142857143,0.9258,0.964,0.3306977142857142,1.0,1.0,0,0.0,0.0,0.0,0.0,0.0,0.0,0.0,0.0,0.0,0.0,0.0,0.2445756176535394,0.0,0.9285714285714286,0.0777142857142857,0.1788571428571428,0.0,0.0,,-0.7948314285714286,0.8212701536208874,-0.0142775087436182,1.3569943485169931e-05,0.0142775087436182,0.0,0.0,0.0,0.0141144571428571,0.8135768926925118,0,0.8135768926925118,6.984182582356931e-08,0.3558057142857143,0.0404020375392994,0.0006730519548812,0.0005742784329964,1.0049872577438463,0.7342857142857143,0.3838669842879127,0.360628,-0.0658326085220084,0.0003241510323629,0.8192405880794565,-0.0280433228436189,1.0,-9.664076740523164e-07,0.0,0.4542857142857143,0.5822857142857143,0.4927714285714286,0.93888,0.1062346460613079,-0.0398117714285714,6.0,5.0,1.0,0.5421686746987951,-0.2618644849608063,-0.9651046531419334,-0.7137661126871386,-0.7003841348713511,5.0,0.30434782608695654,24.0,0.0,0.0,1.0,0.0,0.0,0.0,0.0,0.0,0.0,0.0,0.0,0.0,0.0,0.0,0.0,0.0,0.0,0.0,1.0,1.0,0.0,1.0,0.0,1.0,0.0,1.0,0.0,0.4626532388571429,-2.8782376936957118e-05,0.3756966149518632,0.13599964161537711,0.6114005093275046,0.6114005093275046,0.4524815657142857,0.4524815657142857,h097_descent_logit_move
h098_frontier_descent_all_c220_a040_7dd22fd7,1372,196,id08,2024-09-11,2024-09-10,Q1,0,0.4882210432658963,0.4914552980203778,2.0930443240918528e-05,0.3540228571428571,0.4665371428571429,0.0489138,0.8997142857142858,0.8354285714285714,0.3498260571428572,1.0,1.0,0,0.0,0.0,0.0,0.0,0.0,0.0,0.0,0.0,0.0,0.0,0.0,0.1782692747856165,0.0,0.8971428571428571,0.0777142857142857,0.1788571428571428,0.0,0.0,,-0.75626,0.4913993877565197,0.0127187032801039,1.8393801898830553e-05,0.0127187032801039,0.0,0.0,0.0,0.0430785142857143,0.5111605648331664,0,0.5111605648331664,3.610571893522563e-09,0.2521142857142857,-0.0071745605544646,0.0059461204084951,0.0005573665920388,0.9753915360679752,0.1674285714285714,0.4731065567580037,0.0345021714285714,0.0917742215092823,0.0010526383261484,0.4932668527561128,0.020190328732042,1.0,-1.323671713049368e-05,0.0,0.4542857142857143,0.5531428571428572,0.4917428571428572,0.94248,-0.0989487820637469,-0.0122389714285714,2.0,1.0,1.0,0.7871485943775101,-0.9728829847220697,0.23129785567159294,0.7646910926171744,-0.6443970304648774,7.0,0.7777777777777778,19.0,1.0,0.0,0.0,0.0,0.0,0.0,0.0,0.0,0.0,0.0,1.0,1.0,0.0,0.0,0.0,0.0,0.0,0.0,0.0,0.0,0.0,1.0,0.0,1.0,0.0,1.0,0.0,0.463457808,2.5154273804977494e-05,-0.33215063180423376,-0.09820844459805932,-0.5799463818447869,-0.5799463818447869,0.4509399885714287,0.4509399885714287,h097_descent_logit_move
h098_frontier_descent_all_c220_a040_7dd22fd7,1746,249,id10,2024-09-27,2024-09-26,S1,3,0.3773608752980388,0.3127624333247269,0.0091155735311322,0.8831542857142858,0.5179971428571428,0.690814,0.0579857142857142,0.1785714285714285,0.8190133714285714,1.0,0.0,0,17.0,15.930570287203524,3.0,1.0,-0.2939231827999586,-2.795253214332239e-06,-0.0090611184928648,1.0,1.0,1.0,0.0,0.0,0.3527314826131513,0.1785714285714285,0.8868571428571429,0.8891428571428571,0.0,0.0,,0.9020028571428572,0.3127202863588021,-0.2866670861255017,0.0083244644712191,0.2866670861255017,1.0,0.0,1.0,0.8175011142857144,0.3517481831738587,0,0.6482518168261413,8.558704452463823e-07,0.7679314285714286,-0.1105985578415615,0.0022617089568091,0.0005574550632375,0.975546360665676,0.1714285714285714,0.7820470506375558,0.4687496571428571,-0.1105985578415618,0.0014092884301611,0.3302356311675493,-0.2063543903564975,1.0,-0.0084276613096818,0.0,0.4542857142857143,0.9502857142857144,0.6845142857142857,0.0,0.0,0.5828673142857143,4.0,3.0,1.0,1.0,-2.4492935982947064e-16,1.0,-7.347880794884119e-16,1.0,9.0,1.0,22.0,0.0,0.0,0.0,1.0,0.0,0.0,0.0,0.0,0.0,0.0,0.0,0.0,0.0,0.0,1.0,1.0,0.0,0.0,0.0,0.0,0.0,0.0,1.0,0.0,1.0,0.0,0.0,0.0,-2.383394402757733e-05,0.3159324445032723,0.7645104369397118,0.0,0.0,0.4493535885714286,0.4493535885714286,h097_descent_logit_move
h098_frontier_descent_all_c220_a040_7dd22fd7,565,80,id04,2024-09-10,2024-09-09,S3,5,0.4995340980276135,0.520978681983852,0.0009199988123065,0.0873257142857142,0.1379771428571428,-0.0232530285714285,0.4837142857142857,0.5017142857142857,0.2495725714285714,1.0,1.0,0,5.0,8.021572320714856,2.0,1.0,0.3387939839626534,-0.0002849969183689,0.0079723087580427,0.0,1.0,0.0,1.0,0.0109800761553348,4.142025646623228e-11,0.5051428571428571,0.1611428571428571,0.1788571428571428,1.0,1.0,seed_hardtail,0.3406314285714286,0.5209534770415286,0.0857266328206608,0.00083527774048,0.0857266328206608,1.0,0.0,1.0,0.430977942857143,0.51478004825066,0,0.51478004825066,2.589179505910639e-07,0.4695085714285714,0.0610010301929969,0.0019935570612893,0.0005664888836273,0.9913555463478346,0.4377142857142857,-0.1029402217147041,0.3259739428571428,0.0610010301929969,0.0004649416539189,0.5200512556588226,0.0821116681437606,1.0,-0.0009162060957286,0.0,0.4542857142857143,0.7862857142857143,0.6096,0.0,0.0,0.2581746285714285,1.0,0.0,1.0,0.321285140562249,0.9013595191835574,-0.4330716074475285,-0.22515594052269433,0.9743227403932133,3.0,0.0,27.0,0.0,0.0,0.0,0.0,0.0,1.0,0.0,0.0,1.0,1.0,0.0,0.0,0.0,0.0,0.0,0.0,0.0,0.0,0.0,0.0,0.0,0.0,1.0,0.0,1.0,0.0,0.0,0.0,0.0004342176445687715,-0.9999866791004666,-0.38054229619688207,0.0,0.0,0.4486540342857143,0.4486540342857143,h097_descent_logit_move
h098_frontier_descent_all_c220_a040_7dd22fd7,948,135,id06,2024-07-14,2024-07-13,S1,3,0.9734003575300472,0.973869257464141,4.27031754200724e-06,0.2894857142857143,0.4153771428571429,0.3433262285714286,0.4297285714285715,0.1785714285714285,0.3458441142857142,1.0,1.0,0,2.0,1.93657810305736,1.0,1.0,0.0182668759527704,-6.783755927062974e-09,-4.27031754200724e-06,1.0,0.0,0.0,0.0,0.0,0.6721905000622236,0.1785714285714285,0.9554285714285714,0.9554285714285714,0.0,0.0,,0.5057228571428571,0.974056188023359,0.0256381782046499,7.623804536976975e-06,0.0256381782046499,1.0,0.0,1.0,0.3323978857142857,0.980817671875396,1,0.980817671875396,7.548363998751178e-07,0.7854285714285714,0.3446132577608978,0.0004295859545019,0.0005796575197187,1.0144006595078832,0.816,0.6653164722172068,0.6087560000000001,0.3344994478363832,0.0011746399717037,0.9765267673632434,0.1282437362729367,1.0,0.000120434605223,0.000120434605223,0.9697142857142858,0.8891428571428571,0.8942,0.8769542857142857,0.0101138099245203,0.1683793142857143,6.0,5.0,1.0,0.5421686746987951,-0.2618644849608063,-0.9651046531419334,-0.7137661126871386,-0.7003841348713511,5.0,0.30434782608695654,24.0,0.0,0.0,0.0,1.0,0.0,0.0,0.0,0.0,0.0,0.0,0.0,0.0,0.0,0.0,0.0,0.0,0.0,0.0,1.0,1.0,0.0,0.0,1.0,0.0,1.0,0.0,1.0,0.0,2.431830783546057e-05,-0.3219041805302077,-0.5551615449832888,0.067600504166632,0.067600504166632,0.4472482171428571,0.4472482171428571,h097_descent_logit_move
h098_frontier_descent_all_c220_a040_7dd22fd7,464,66,id03,2024-08-25,2024-08-24,Q3,2,0.630338645724282,0.6240944124446438,8.347441313394377e-05,0.4692685714285714,0.7341371428571428,0.5860857714285714,0.3514142857142858,0.1785714285714285,0.4499905714285714,1.0,1.0,0,14.0,13.439530590522722,2.0,1.0,-0.0277654894830612,-3.8092087166373867e-08,-8.252439832181691e-05,1.0,0.0,1.0,0.0,0.0,0.2826337922310437,0.1785714285714285,0.8445714285714285,0.8457142857142858,0.0,0.0,,0.6734114285714285,0.624035958405196,-0.0269553924450244,7.737679196984093e-05,0.0269553924450244,1.0,0.0,1.0,0.4734598857142857,0.6170849809338272,1,0.6170849809338272,2.2880365093866337e-07,0.5717714285714286,-0.0564762153797048,0.0017587835524609,0.0005263945208123,0.9211904114216808,0.048,0.5399640041158243,0.2804230857142857,-0.0564762153797048,0.000375130117575,0.6188831351068013,-0.048859481553426,1.0,-2.8658879838938667e-05,0.0,0.4542857142857143,0.668,0.5327142857142858,0.0,0.0,0.3126401142857142,6.0,5.0,1.0,0.26506024096385544,0.995526272808559,-0.09448513188803123,-0.9599762679439228,0.2800813542249071,2.0,0.35,21.0,0.0,0.0,1.0,0.0,0.0,0.0,0.0,0.0,0.0,0.0,0.0,0.0,0.0,0.0,0.0,0.0,0.0,0.0,1.0,1.0,0.0,1.0,0.0,1.0,0.0,0.0,0.0,0.0,-4.436181901940485e-05,0.5433298621847072,0.23400994207830617,0.0,0.0,0.4460468685714286,0.4460468685714286,h097_descent_logit_move
h098_frontier_descent_all_c220_a040_7dd22fd7,89,12,id01,2024-08-15,2024-08-14,S3,5,0.8372632240978997,0.8071090995988844,0.0031851797663658,0.8477257142857144,0.6085171428571429,0.7160738857142859,0.0605,0.1785714285714285,0.8065995428571431,1.0,0.0,0,21.0,21.77752501423886,4.0,1.0,-0.1821196265117553,-3.4491767104507523e-06,-0.0029069934991289,1.0,1.0,1.0,1.0,0.0,0.2310712767541967,0.1785714285714285,0.7971428571428572,0.7982857142857143,1.0,1.0,seed_q061_companion,0.92432,0.8070809680501194,-0.2068510644136234,0.0028950057488527,0.2068510644136234,1.0,0.0,1.0,0.8106429999999999,0.8238408017388559,1,0.8238408017388559,3.68846004431598e-07,0.6475885714285714,-0.0954152947991024,0.0003539543694884,0.0006180674806897,1.0816180912070308,0.9314285714285714,0.4748715374546745,0.8737216571428572,-0.0954152947991024,0.000647085071981,0.8165266696432032,-0.1450142255302575,1.0,-0.0028970730252485,0.0,0.4542857142857143,0.9148571428571428,0.6662571428571429,0.0,0.0,0.568128,3.0,2.0,1.0,0.04819277108433735,0.29819791104666543,0.9545040627715552,0.7885283215303659,0.6149984440179536,0.0,0.46153846153846156,27.0,0.0,0.0,0.0,0.0,0.0,1.0,0.0,0.0,0.0,0.0,0.0,0.0,1.0,1.0,0.0,0.0,0.0,0.0,0.0,0.0,0.0,0.0,1.0,0.0,1.0,0.0,0.0,0.0,-2.375126241175051e-05,0.31491053840237526,0.6092007373359564,0.0,0.0,0.4444333714285714,0.4444333714285714,h097_descent_logit_move
h098_frontier_descent_all_c220_a040_7dd22fd7,975,139,id06,2024-07-19,2024-07-18,Q3,2,0.7439595438752091,0.7399677023608381,4.16859280448767e-05,0.3280228571428571,0.5280971428571429,-0.0332376571428571,0.9586285714285714,0.9811428571428572,0.3647565714285714,0.0,1.0,0,0.0,0.0,0.0,0.0,0.0,0.0,0.0,0.0,0.0,0.0,0.0,0.3736466735880533,0.0,0.9617142857142856,0.0777142857142857,0.1788571428571428,0.0,0.0,,-0.8055971428571429,0.7400840689307989,-0.020245643390468,3.5750219449570686e-05,0.020245643390468,0.0,0.0,0.0,0.0240670285714286,0.7314817680775492,1,0.7314817680775492,5.469611738723606e-07,0.7339085714285715,0.0994963433248757,0.0056064356772304,0.0005687243082713,0.9952675394748086,0.5782857142857143,0.415144879432044,0.2598524571428571,-0.0644977115049467,0.0004044507406137,0.7354432689956294,-0.0442335008621266,1.0,1.6260783992305683e-05,1.6260783992305683e-05,0.9297142857142856,0.6497142857142857,0.784,0.973,0.1639940548298225,-0.1154598857142857,4.0,3.0,1.0,0.5582329317269076,-0.3577789366275639,-0.9338063142352645,-0.8901457403773956,-0.4556759384562435,5.0,0.4782608695652174,24.0,0.0,0.0,1.0,0.0,0.0,0.0,0.0,0.0,0.0,0.0,0.0,0.0,0.0,0.0,1.0,1.0,0.0,0.0,0.0,0.0,0.0,1.0,0.0,1.0,0.0,1.0,0.0,0.7628320000000001,-1.4849126100732473e-05,0.20102931071632024,0.21256231337228595,0.7997100187079332,0.7997100187079332,0.44296686857142864,0.44296686857142864,h097_descent_logit_move
h098_frontier_descent_all_c220_a040_7dd22fd7,650,92,id04,2024-09-26,2024-09-25,S4,6,0.2398716927913666,0.189537029773287,0.0073258810141731,0.7037142857142857,0.5188771428571428,0.6050121714285714,0.0574142857142857,0.1785714285714285,0.6727628571428572,0.0,0.0,0,15.0,14.203838203556485,3.0,1.0,-0.3101027829689399,-1.0904698124351585e-06,-0.007290932834134,1.0,1.0,1.0,0.0,0.0,0.1904992098744184,0.1785714285714285,0.7468571428571429,0.7497142857142857,0.0,0.0,,0.8007628571428571,0.1895271347617177,-0.2997025786597493,0.0066963892820723,0.2997025786597493,1.0,1.0,1.0,0.803505457142857,0.2242680299457134,0,0.7757319700542866,4.180695995216998e-07,0.7849828571428571,-0.0875820850123936,0.0037601645576927,0.0005330482709537,0.9328344741690456,0.0537142857142857,0.2599736309635585,0.392802,-0.0875820850123938,0.0006779551347437,0.2054573929366641,-0.1991448559695576,1.0,-0.0065360137972687,0.0,0.4542857142857143,0.9474285714285714,0.6829714285714286,0.0,0.0,0.5110583999999998,3.0,2.0,1.0,0.36947791164658633,0.7312102744040465,-0.6821521345022378,0.6298105220282705,0.7767488051760861,3.0,0.46153846153846156,27.0,0.0,0.0,0.0,0.0,0.0,0.0,1.0,0.0,0.0,0.0,0.0,0.0,1.0,1.0,0.0,0.0,0.0,0.0,0.0,0.0,0.0,0.0,1.0,0.0,1.0,0.0,0.0,0.0,-2.3932978352844946e-05,0.31715549816040245,0.7494939749593728,0.0,0.0,0.44237498285714283,0.44237498285714283,h097_descent_logit_move
h098_frontier_descent_all_c220_a040_7dd22fd7,500,71,id03,2024-09-17,2024-09-16,S1,3,0.7699856752060736,0.7406586134007747,0.0023605947245901,0.77568,0.7208971428571429,0.7346309142857144,0.0520999999999999,0.1785714285714285,0.7564086857142858,1.0,0.0,0,21.0,18.02115831398056,3.0,1.0,-0.1566794435256296,-9.262213625281754e-07,-0.0023210512837337,1.0,1.0,1.0,0.0,0.0,0.5287763923641187,0.1785714285714285,0.9405714285714286,0.9405714285714286,0.0,0.0,,0.88786,0.7405517986596463,-0.1593918133666505,0.0021596211809398,0.1593918133666505,1.0,0.0,1.0,0.7776950285714285,0.7275829054875048,1,0.7275829054875048,3.061125216459796e-06,0.7712342857142858,-0.2258366978556543,0.0005499645441656,0.0006268585123066,1.0970023965366429,0.9422857142857144,0.8000979293056335,0.8860398857142858,-0.2258366978556543,0.0048778180036904,0.733363288657265,-0.1964762245619895,1.0,-0.002244690035579,0.0,0.4542857142857143,0.9462857142857144,0.6714857142857144,0.0,0.0,0.5478886857142855,1.0,0.0,1.0,0.285140562248996,0.9757237218989561,-0.21900506506391293,-0.7885283215303662,0.6149984440179531,2.0,0.6,21.0,0.0,0.0,0.0,1.0,0.0,0.0,0.0,0.0,1.0,1.0,0.0,0.0,0.0,0.0,0.0,0.0,0.0,0.0,0.0,0.0,0.0,0.0,1.0,0.0,1.0,0.0,0.0,0.0,-2.3275505027292504e-05,0.3090162591375061,0.743730801897076,0.0,0.0,0.4419105828571429,0.4419105828571429,h097_descent_logit_move
h098_frontier_descent_all_c220_a040_7dd22fd7,514,73,id03,2024-09-19,2024-09-18,S1,3,0.8069944702798388,0.807078027263426,2.2415214073756573e-08,0.2032057142857142,0.4600771428571428,0.145461257142857,0.5677428571428572,0.6114285714285714,0.2803717714285714,1.0,1.0,0,2.0,1.7425793721668,1.0,1.0,0.0005365546758693,-3.4169731058307926e-11,-2.2415214073756573e-08,0.0,1.0,0.0,0.0,0.0274932990303752,0.0201993299443819,0.6308571428571429,0.324,0.1788571428571428,0.0,0.0,,0.3379399999999999,0.8070642531316082,0.0004480929884067,1.4226926858817991e-08,0.0004480929884067,1.0,0.0,1.0,0.1832296285714285,0.8213787028561139,1,0.8213787028561139,3.818819857929883e-07,0.7617828571428572,0.0951183909081279,0.0045566194436705,0.0005660276723318,0.9905484265807672,0.412,0.4825176071962319,0.2422895428571428,0.0951183909081279,0.0006772869074992,0.8163080157594015,0.0609334216596364,1.0,0.00028129723661,0.00028129723661,0.9902857142857144,0.72,0.8663428571428572,0.0,0.0,-0.0335523428571428,3.0,2.0,1.0,0.2931726907630522,0.9634335095497458,-0.267947518511853,-0.6867513112135015,0.7268924518431433,2.0,0.7,21.0,0.0,0.0,0.0,1.0,0.0,0.0,0.0,0.0,0.0,0.0,0.0,0.0,1.0,1.0,0.0,0.0,0.0,0.0,0.0,0.0,0.0,0.0,1.0,0.0,1.0,0.0,0.0,0.0,7.110086879337683e-05,-0.7512694047082468,-0.2888826059845543,0.0,0.0,0.44187790857142867,0.44187790857142867,h097_descent_logit_move
h098_frontier_descent_all_c220_a040_7dd22fd7,869,124,id05,2024-11-17,2024-11-16,Q2,1,0.4495820215395267,0.4842011193086599,0.0024122047027477,0.6117542857142857,0.5087771428571428,0.3760847428571428,0.3274571428571428,0.4057142857142857,0.3495134857142857,1.0,1.0,0,6.0,5.71228967627096,1.0,1.0,0.139143073105051,-6.584309753392548e-07,-0.0024122047027477,1.0,0.0,0.0,0.0,0.0024036501100535,0.0501504978152782,0.4,0.4497142857142857,0.4817142857142857,0.0,0.0,,0.5799457142857142,0.4841826007562982,0.1390689247777316,0.0021923808613592,0.1390689247777316,1.0,0.0,1.0,0.6412947999999998,0.4561890902937955,0,0.5438109097062045,4.9135543896351627e-08,0.2895428571428571,0.0266654416176633,0.0027709719340254,0.0005720441295323,1.001077226681604,0.6874285714285714,0.3722338495136503,0.6709682285714286,0.0266654416176633,8.81270939752099e-05,0.4737830464314519,0.097395562347486,1.0,-0.0021928731953732,0.0,0.4542857142857143,0.8308571428571428,0.6366,0.0,0.0,0.4584106285714285,6.0,5.0,1.0,0.4979919678714859,0.012616503234503999,-0.9999204087556838,0.037841476717672,-0.9992837548163314,4.0,0.85,21.0,0.0,1.0,0.0,0.0,0.0,0.0,0.0,0.0,0.0,0.0,0.0,0.0,0.0,0.0,0.0,0.0,0.0,0.0,1.0,1.0,0.0,1.0,0.0,0.0,0.0,0.0,0.0,0.0,4.252747314537852e-05,-0.5253434200370335,-0.44245309187851684,0.0,0.0,0.4405090628571429,0.4405090628571429,h097_descent_logit_move
h098_frontier_descent_all_c220_a040_7dd22fd7,1061,151,id06,2024-08-25,2024-08-24,S2,4,0.9981439428441186,0.998512435704624,3.934155003913753e-05,0.403,0.7080171428571429,0.5408174285714287,0.3351285714285714,0.1785714285714285,0.4874879999999999,1.0,1.0,0,3.0,2.92297889772664,1.0,1.0,0.2216834577455344,-1.0398812883710049e-08,-3.9341550039137536e-05,1.0,0.0,0.0,0.0,0.0,3.3307603116267783,0.1785714285714285,0.9737142857142858,0.9737142857142858,0.0,0.0,,0.6423457142857143,0.999521326407364,1.3565697715067513,0.0006829433096435,1.3565697715067513,1.0,0.0,1.0,0.6416208000000001,0.9937327727306972,1,0.9937327727306972,1.160456504662981e-06,0.7978742857142858,0.6761912270338843,0.0001475624698845,0.0004930671839675,0.862867571943241,0.0222857142857142,0.7965956916172178,0.3023445714285714,-1.221308772966056,0.0032250526296801,0.9981439428441186,0.0,0.0,0.0,0.0,0.4542857142857143,0.2202857142857142,0.0,0.997977142857143,1.8974999999999405,0.7023259428571428,6.0,5.0,1.0,0.606425702811245,-0.6199605408122385,-0.7846329892604547,-0.9067516281939827,0.42166513345018397,5.0,1.0,24.0,0.0,0.0,0.0,0.0,1.0,0.0,0.0,0.0,0.0,0.0,0.0,0.0,0.0,0.0,0.0,0.0,0.0,0.0,1.0,1.0,0.0,0.0,1.0,0.0,1.0,0.0,0.0,0.0,-1.1233202748851322e-05,0.15296615622018775,-0.0,0.9999999999814639,0.9999999999814639,0.4397429942857143,0.4397429942857143,h097_descent_logit_move
h098_frontier_descent_all_c220_a040_7dd22fd7,1534,219,id09,2024-09-10,2024-09-09,Q2,1,0.5764198708519599,0.6000309282337836,0.0011477416724576,0.7423257142857145,0.4856171428571429,0.3893504000000001,0.3241142857142857,0.3965714285714286,0.3854203428571429,1.0,1.0,0,6.0,5.71228967627096,1.0,1.0,0.0975003429679781,-2.2065321597988552e-06,-0.0011477416724576,1.0,0.0,0.0,0.0,0.0017393812275333,0.0395168137724527,0.3942857142857143,0.4137142857142857,0.4588571428571428,0.0,0.0,,0.6140714285714286,0.6000195095534404,0.0974527641331818,0.0010438655248573,0.0974527641331818,1.0,0.0,1.0,0.5989668571428571,0.5791486986991278,1,0.5791486986991278,8.548588461379442e-09,0.1701257142857142,0.0111860622884681,0.0011679108678015,0.0005688342514231,0.9954599399904882,0.5874285714285714,0.4440507367370194,0.5438350857142857,0.0111860622884681,1.5257992509121188e-05,0.5920944785907285,0.0645369975073006,1.0,-0.0010163368519719,0.0,0.4542857142857143,0.7302857142857143,0.5942571428571429,0.0,0.0,0.4286291428571429,1.0,0.0,1.0,0.8795180722891566,-0.6867513112135015,0.7268924518431433,-0.7646910926171725,-0.6443970304648796,8.0,0.6923076923076923,27.0,0.0,1.0,0.0,0.0,0.0,0.0,0.0,0.0,1.0,1.0,0.0,0.0,0.0,0.0,0.0,0.0,0.0,0.0,0.0,0.0,0.0,1.0,0.0,0.0,0.0,0.0,0.0,0.0,4.514876615027433e-05,-0.5508975439194923,-0.3049169325783267,0.0,0.0,0.43940634285714286,0.43940634285714286,h097_descent_logit_move
h098_frontier_descent_all_c220_a040_7dd22fd7,1037,148,id06,2024-08-22,2024-08-21,Q2,1,0.8053003646868163,0.9628488305379768,0.1105033489324301,0.8638971428571429,0.6861771428571428,0.6628999428571428,0.1626999999999999,0.1785714285714285,0.4325049142857143,1.0,0.0,0,18.0,16.53958230005816,3.0,1.0,1.8547468195542176,-1.2717062596274388e-05,-0.1086181927647715,1.0,1.0,1.0,0.0,0.0,0.6330857555516178,0.1785714285714285,0.9531428571428572,0.9531428571428572,0.0,0.0,,0.8549685714285714,0.9630417468977563,1.8405504882782584,0.0917991923185447,1.8405504882782584,1.0,0.0,1.0,0.8372953714285714,0.7970738303281163,1,0.7970738303281163,1.5003403102697808e-06,0.7453828571428572,0.1721876549462149,3.3731421138938344e-05,0.0011130380365503,1.9478165639631584,0.9994285714285714,0.8986358126142939,0.9467253714285716,-0.0516521992521232,0.0002135610819553,0.8053003646868163,0.0,0.0,0.0,0.0,0.4542857142857143,0.2202857142857142,0.0,0.0,0.0,0.7797060571428571,3.0,2.0,1.0,0.5943775100401606,-0.5588441929376089,-0.8292726741066008,-0.978409140945573,0.20667741268495202,5.0,0.8695652173913043,24.0,0.0,1.0,0.0,0.0,0.0,0.0,0.0,0.0,0.0,0.0,0.0,0.0,1.0,1.0,0.0,0.0,0.0,0.0,0.0,0.0,0.0,1.0,0.0,0.0,0.0,0.0,0.0,0.0,-0.00016128107582331512,0.9763859039708037,-0.0,0.0,0.0,0.4384648914285715,0.4384648914285715,h097_descent_logit_move
h098_frontier_descent_all_c220_a040_7dd22fd7,795,113,id05,2024-10-07,2024-10-06,S2,4,0.2280191339382252,0.1852688184617634,0.0054469246426024,0.8414057142857143,0.7425371428571429,0.7782409714285714,0.0503571428571428,0.1785714285714285,0.7976160000000001,0.0,0.0,0,16.0,13.13939844098144,3.0,1.0,-0.2610573198802019,-2.7477631126037636e-06,-0.0054309698321993,1.0,1.0,1.0,0.0,0.0,0.293541002492221,0.1785714285714285,0.8497142857142858,0.8502857142857143,0.0,0.0,,0.8906771428571427,0.1852361910744718,-0.2617363283416729,0.0049825115709704,0.2617363283416729,1.0,0.0,1.0,0.7948754285714286,0.2046340387485835,1,0.7953659612514165,9.283643683119276e-07,0.7256457142857142,-0.1380489117700263,0.0001697123823337,0.0005481520345104,0.9592660603932652,0.0925714285714285,0.6026699952029279,0.4414852571428572,-0.1380489117700261,0.0015930661698523,0.1905485774566525,-0.2269193816647683,1.0,-0.0053633153415276,0.0,0.4542857142857143,0.9531428571428572,0.6838285714285715,0.0,1.1102230246251563e-16,0.5488205714285713,0.0,6.0,1.0,0.4538152610441767,0.286131673508569,-0.9581903075147367,0.7646910926171754,-0.6443970304648762,4.0,0.3,21.0,0.0,0.0,0.0,0.0,1.0,0.0,0.0,1.0,0.0,0.0,0.0,0.0,0.0,0.0,0.0,0.0,0.0,0.0,0.0,0.0,1.0,0.0,1.0,0.0,1.0,0.0,0.0,0.0,-2.127916489695618e-05,0.2840275082861214,0.803118444947556,7.432043474790796e-16,7.432043474790796e-16,0.43830548571428574,0.43830548571428574,h097_descent_logit_move
h098_frontier_descent_all_c220_a040_7dd22fd7,1076,153,id07,2024-07-15,2024-07-14,S3,5,0.7816938213861303,0.7508204745183357,0.0027047560247882,0.7320342857142857,0.5406571428571428,0.6274956,0.0687571428571428,0.1785714285714285,0.7224706285714287,1.0,0.0,0,21.0,18.02115831398056,3.0,1.0,-0.1741595821386645,-1.2542297254315636e-06,-0.0026918613027234,1.0,1.0,1.0,0.0,0.0,0.4264468395304413,0.1785714285714285,0.9217142857142856,0.9217142857142856,0.0,0.0,,0.8577685714285714,0.750765530334085,-0.1728652702151512,0.0024648166403458,0.1728652702151512,1.0,0.0,1.0,0.7575156000000001,0.7629764833833628,1,0.7629764833833628,5.748296087789807e-07,0.7802971428571429,-0.1064967175381161,0.0029436241388282,0.0005763050517446,1.0085338405531896,0.7714285714285715,0.7051812313305549,0.7811669714285715,-0.1064967175381161,0.0010063049326611,0.7515298346855569,-0.1687764352975584,1.0,-0.00271268280683,0.0,0.4542857142857143,0.9382857142857144,0.6725142857142856,0.0,0.0,0.5293378285714285,0.0,6.0,1.0,0.6144578313253012,-0.6587527451017935,-0.7523595023795815,-0.8327815731637609,0.5536017082694845,6.0,0.034482758620689655,30.0,0.0,0.0,0.0,0.0,0.0,1.0,0.0,1.0,0.0,0.0,0.0,0.0,0.0,0.0,0.0,0.0,0.0,0.0,0.0,0.0,1.0,0.0,1.0,0.0,1.0,0.0,0.0,0.0,-2.1730912235641542e-05,0.28971748483547943,0.6770276359126216,0.0,0.0,0.4357606399999999,0.4357606399999999,h097_descent_logit_move
h098_frontier_descent_all_c220_a040_7dd22fd7,1185,169,id07,2024-08-17,2024-08-16,Q3,2,0.5647956175468157,0.5297963890696967,0.0024785803144239,0.7756228571428572,0.5428571428571428,0.4956619428571429,0.4061142857142857,0.6211428571428571,0.6628285714285714,1.0,1.0,0,21.0,18.02115831398056,3.0,1.0,-0.1441252424007455,-1.7953286139373937e-06,-0.0024635112729012,1.0,1.0,1.0,0.0,0.0168395284671378,0.1041983057920189,0.5622857142857143,0.5782857142857143,0.5651428571428572,0.0,0.0,,0.7411314285714286,0.5298004342907153,-0.1413049772941566,0.0022543818337454,0.1413049772941566,1.0,0.0,1.0,0.6665224,0.5507211907397133,0,0.5507211907397133,2.252029869090531e-07,0.4231885714285714,-0.0570631372752062,0.0006635074186984,0.0005520971642727,0.966170037477252,0.1108571428571428,0.3885651153665713,0.3428518857142857,-0.0570631372752062,0.0004020066913776,0.5329581122551421,-0.1286242779753405,1.0,-0.0024579852337978,0.0,0.4542857142857143,0.8897142857142857,0.6564000000000001,0.0,0.0,0.4503250285714285,5.0,4.0,1.0,0.678714859437751,-0.9013595191835571,-0.4330716074475291,0.22515594052269275,0.9743227403932136,6.0,0.5862068965517241,30.0,0.0,0.0,1.0,0.0,0.0,0.0,0.0,0.0,0.0,0.0,0.0,0.0,0.0,0.0,0.0,0.0,1.0,1.0,0.0,0.0,0.0,1.0,0.0,1.0,0.0,0.0,0.0,0.0,-4.875449276457415e-05,0.5844256129167416,0.5564448788316304,0.0,0.0,0.4344416457142857,0.4344416457142857,h097_descent_logit_move
h098_frontier_descent_all_c220_a040_7dd22fd7,1717,245,id10,2024-09-22,2024-09-21,Q3,2,0.5903689371198216,0.5563714297958406,0.0023715880854436,0.7876799999999999,0.7474171428571429,0.6006572571428572,0.3916285714285714,0.6171428571428571,0.6748365714285715,1.0,0.0,0,20.0,17.52496284820544,3.0,1.0,-0.1413359106908158,-1.9220140655303604e-06,-0.0023551372737916,1.0,1.0,1.0,0.0,0.0172293883071267,0.1603770555298881,0.5662857142857143,0.6925714285714286,0.6742857142857143,0.0,0.0,,0.7906000000000001,0.5563535611568081,-0.139114693449068,0.002159470780784,0.139114693449068,1.0,0.0,1.0,0.6935854857142857,0.5712481571513365,1,0.5712481571513365,4.069565367747545e-07,0.5458171428571429,-0.0785453311133687,0.0019902111884835,0.0005864247833757,1.026243370907561,0.8697142857142857,0.4454672258403779,0.7926747428571429,-0.0785453311133687,0.0007525130492416,0.5602975478833376,-0.1231210255026423,1.0,-0.0023425240146951,0.0,0.4542857142857143,0.8782857142857143,0.6519428571428572,0.0,0.0,0.4763007999999999,6.0,5.0,1.0,0.9839357429718876,-0.10076340700506824,0.9949104159715743,-0.29819791104666626,0.954504062771555,9.0,0.8095238095238095,22.0,0.0,0.0,1.0,0.0,0.0,0.0,0.0,0.0,0.0,0.0,0.0,0.0,0.0,0.0,0.0,0.0,0.0,0.0,1.0,1.0,0.0,1.0,0.0,1.0,0.0,0.0,0.0,0.0,-4.750232158178096e-05,0.5729957991126591,0.5376282778257931,0.0,0.0,0.43339693714285715,0.43339693714285715,h097_descent_logit_move
h098_frontier_descent_all_c220_a040_7dd22fd7,696,99,id04,2024-10-20,2024-10-19,S1,3,0.8934898455052352,0.8587259520627866,0.0058257971844545,0.9298857142857142,0.850937142857143,0.8727941142857143,0.0350714285714285,0.1785714285714285,0.8796946285714287,1.0,0.0,0,23.0,21.62115831398056,4.0,1.0,-0.2813973391071742,-2.7377805693174696e-06,-0.0050959595142602,1.0,1.0,1.0,1.0,0.0,0.5366966914999547,0.1785714285714285,0.9411428571428572,0.9411428571428572,1.0,1.0,episode_neighbor_q061,0.97028,0.8586419675376304,-0.322838517365682,0.0052966735371283,0.322838517365682,1.0,0.0,1.0,0.8794441142857142,0.8707320377805283,1,0.8707320377805283,1.6239376909568245e-06,0.9122971428571428,-0.2194478375405908,0.0038746844726688,0.000684000863104,1.197001510432082,0.9771428571428572,0.7508383003819002,0.9505657142857143,-0.2194478375405908,0.0025668856760896,0.8571548186257751,-0.3350374836304692,1.0,-0.0058438239245996,0.0,0.4542857142857143,0.9708571428571428,0.6895714285714285,0.0,0.0,0.6262330285714286,6.0,5.0,1.0,0.39759036144578314,0.5999661014486956,-0.8000254227913345,0.9360447378142726,0.35188101513183373,3.0,0.7307692307692307,27.0,0.0,0.0,0.0,1.0,0.0,0.0,0.0,0.0,0.0,0.0,0.0,0.0,0.0,0.0,0.0,0.0,0.0,0.0,1.0,1.0,0.0,0.0,1.0,0.0,1.0,0.0,0.0,0.0,-1.8433303505176525e-05,0.247734744663472,0.9267614171379251,0.0,0.0,0.43332044571428574,0.43332044571428574,h097_descent_logit_move
h098_frontier_descent_all_c220_a040_7dd22fd7,24,3,id01,2024-08-03,2024-08-02,S1,3,0.8856649411247233,0.884269699592085,9.57829480535688e-06,0.3897885714285715,0.6352171428571428,0.0773217714285714,0.9170857142857144,0.872,0.3982313142857143,1.0,1.0,0,3.0,5.4,1.0,1.0,-0.0022843066139102,-1.023657469904827e-08,-2.9117981057794986e-06,0.0,0.0,0.0,1.0,0.2406994082492063,0.0,0.9257142857142856,0.0777142857142857,0.1788571428571428,1.0,1.0,episode_neighbor_q061,0.3248571428571428,0.8843445253579758,-0.0129744625034478,7.806096574636268e-06,0.0129744625034478,0.0,1.0,1.0,0.2032936,0.8820840042998885,1,0.8820840042998885,9.344356289733132e-08,0.4318628571428572,0.0561513585022945,0.0001448418096032,0.0005651349325084,0.9889861318897074,0.3668571428571429,0.7227631446137076,0.1976734857142857,-0.0348906338605639,6.274948159712412e-05,0.8838282129387657,-0.0180127622696133,1.0,-7.28027584134816e-06,0.0,0.4542857142857143,0.5417142857142857,0.4852285714285714,0.9233085714285716,0.0910419923628584,0.0897802285714285,5.0,4.0,1.0,0.012048192771084338,0.0756287458844567,0.997136045279652,0.225155940522694,0.9743227403932134,0.0,0.11538461538461539,27.0,0.0,0.0,0.0,1.0,0.0,0.0,0.0,0.0,0.0,0.0,0.0,0.0,0.0,0.0,0.0,0.0,1.0,1.0,0.0,0.0,0.0,0.0,1.0,0.0,1.0,1.0,0.0,0.44801569910204087,-1.0119879480059769e-05,0.1380094854029948,0.0876741122897773,0.5437414878833825,0.5437414878833825,0.43306448000000003,0.43306448000000003,h097_descent_logit_move
